( This gcode generated by /Applications/EAGLE/ulp/pcb-gcode.ulp )
( Copyright 2005 by John Johnson. See readme.txt for licensing terms. )

( This file generated from the board /Users/gregorywitt/Documents/eagle/color factory/dontlook.brd )
( This file generated 1/30/10 6:39 PM )

( T01 0.027559 )
( T02 0.032000 )
( T03 0.035433 )
( T04 0.040000 )
( T05 0.130000 )
G20

G90
M05
G00 X0.0000 Y0.0000 Z3.0000 
M06 T01  ; 0.0276 
G00 Z0.0200 
M03
G04 P3.000000
G82 X-0.6750 Y1.0750 Z-0.1000 F3.00  R0.0200 P0.100000
G82 X-0.7500 Y0.9875 
G82 X-0.7625 Y0.3375 
G82 X-0.7625 Y0.4375 
G82 X-0.7750 Y1.0750 
G82 X-0.8500 Y0.9875 
G82 X-1.1625 Y0.4625 
G82 X-1.2625 Y0.4625 
G82 X-1.8750 Y0.5625 
G82 X-1.8750 Y0.6625 
G82 X-2.0125 Y0.8500 
G82 X-2.0125 Y0.9500 
M05
G00 X0.0000 Y0.0000 Z3.0000 
M06 T02  ; 0.0320 
G00 Z0.0200 
M03
G04 P3.000000
G82 X-0.2500 Y0.5750 Z-0.1000 F3.00  R0.0200 P0.100000
G82 X-0.2500 Y0.8750 
G82 X-0.3050 Y1.0625 
G82 X-0.3500 Y0.5750 
G82 X-0.3500 Y0.8750 
G82 X-0.4500 Y0.5750 
G82 X-0.4500 Y0.8750 
G82 X-0.4950 Y1.0625 
G82 X-0.5250 Y0.3250 
G82 X-0.5250 Y0.4250 
G82 X-0.5500 Y0.5750 
G82 X-0.5500 Y0.8750 
G82 X-0.6500 Y0.5750 
G82 X-0.6500 Y0.8750 
G82 X-0.7500 Y0.5750 
G82 X-0.7500 Y0.8750 
G82 X-0.8500 Y0.5750 
G82 X-0.8500 Y0.8750 
G82 X-0.9500 Y0.5750 
G82 X-0.9500 Y0.8750 
G82 X-1.0500 Y0.5750 
G82 X-1.0500 Y0.8750 
G82 X-1.1500 Y0.5750 
G82 X-1.1500 Y0.8750 
G82 X-1.2375 Y1.0625 
G82 X-1.2500 Y0.5750 
G82 X-1.2500 Y0.8750 
G82 X-1.2875 Y0.9875 
G82 X-1.3375 Y1.0625 
G82 X-1.3500 Y0.5750 
G82 X-1.3500 Y0.8750 
G82 X-1.4500 Y0.5750 
G82 X-1.4500 Y0.8750 
G82 X-1.5250 Y1.0000 
G82 X-1.5250 Y1.1000 
G82 X-1.5250 Y1.2000 
G82 X-1.5250 Y1.3000 
G82 X-1.5500 Y0.5750 
G82 X-1.5500 Y0.8750 
G82 X-1.8250 Y1.0000 
G82 X-1.8250 Y1.1000 
G82 X-1.8250 Y1.2000 
G82 X-1.8250 Y1.3000 
M05
G00 X0.0000 Y0.0000 Z3.0000 
M06 T03  ; 0.0354 
G00 Z0.0200 
M03
G04 P3.000000
G82 X-0.7750 Y0.2500 Z-0.1000 F3.00  R0.0200 P0.100000
G82 X-1.0750 Y0.2500 
G82 X-1.2500 Y0.3250 
G82 X-1.5500 Y0.3250 
G82 X-1.6750 Y0.5250 
G82 X-1.6750 Y0.8250 
G82 X-1.7750 Y0.5875 
G82 X-1.7750 Y0.8875 
M05
G00 X0.0000 Y0.0000 Z3.0000 
M06 T04  ; 0.0400 
G00 Z0.0200 
M03
G04 P3.000000
G82 X-0.9450 Y0.4000 Z-0.1000 F3.00  R0.0200 P0.100000
G82 X-0.9500 Y1.2000 
G82 X-1.0250 Y1.0500 
G82 X-1.0500 Y1.2100 
G82 X-1.0550 Y0.4000 
G82 X-1.1250 Y1.0500 
G82 X-1.1500 Y1.2000 
G82 X-1.2500 Y1.2100 
G82 X-1.3500 Y1.2000 
G82 X-1.4250 Y0.4500 
G82 X-1.5250 Y0.4500 
G82 X-1.6220 Y0.2610 
G82 X-1.6220 Y0.4390 
G82 X-1.8780 Y0.2610 
G82 X-1.8780 Y0.4390 
G82 X-2.0000 Y0.2250 
G82 X-2.0000 Y0.4250 
G82 X-2.0000 Y0.6250 
G82 X-2.0100 Y0.3250 
G82 X-2.0100 Y0.5250 
G82 X-2.0100 Y0.7250 
G82 X-2.3000 Y0.8500 
G82 X-2.3000 Y0.9500 
G82 X-2.4000 Y0.8500 
G82 X-2.4000 Y0.9500 
M05
G00 X0.0000 Y0.0000 Z3.0000 
M06 T05  ; 0.1300 
G00 Z0.0200 
M03
G04 P3.000000
G82 X-0.2375 Y0.3750 Z-0.1000 F3.00  R0.0200 P0.100000
G82 X-2.0250 Y1.3500 
(File Footer)
T01 
G00 Z0.5000 
M05
M02
