( This gcode generated by /Applications/EAGLE/ulp/pcb-gcode.ulp )
( Copyright 2005 by John Johnson. See readme.txt for licensing terms. )

( This file generated from the board /Users/gregorywitt/Documents/eagle/color factory/encoder.brd )
( This file generated 2/7/10 10:50 PM )

G20

G90
G00 Z0.5000 
G00 X0 Y0
M03
G04 P3.000000
G00 Z0.0200 
G00 X-1.1430 Y0.4000 
G01 Z-0.0700 F2.50  
G01 X-1.2570 Y0.4000 
G00 Z0.0200 
G00 X-1.1430 Y0.8120 
G01 Z-0.0700 F2.50  
G01 X-1.2570 Y0.8120 
G00 Z0.0200 
G00 X-1.2570 Y0.4000 
G01 Z-0.0700 F2.50  
G01 X-1.2570 Y0.8120 
G00 Z0.0200 
G00 X-1.1430 Y0.4000 
G01 Z-0.0700 F2.50  
G01 X-1.1430 Y0.8120 
G00 Z0.0200 
G00 X-1.1000 Y0.4000 
G01 Z-0.0700 F2.50  
G01 X-1.3000 Y0.4000 
G00 Z0.0200 
G00 X-1.1000 Y0.8120 
G01 Z-0.0700 F2.50  
G01 X-1.3000 Y0.8120 
G00 Z0.0200 
G00 X-1.3000 Y1.4500 
G01 Z-0.0700 F2.50  
G01 X-1.4500 Y1.3000 
G01 X-1.4500 Y0.7250 
G01 X-1.7250 Y0.4000 
G01 X-1.6750 Y0.2000 
G01 X-1.3500 Y0.0750 
G01 X-1.0500 Y0.0750 
G01 X-0.7750 Y0.1500 
G01 X-0.6750 Y0.1500 
G01 X-0.6000 Y0.2250 
G01 X-0.4000 Y0.4000 
G01 X-0.2250 Y0.6250 
G01 X-0.1250 Y0.8750 
G01 X-0.2500 Y1.0250 
G01 X-0.3750 Y1.0250 
G01 X-0.5250 Y0.9250 
G01 X-0.8250 Y0.9250 
G01 X-0.9500 Y1.0500 
G01 X-0.9500 Y1.3000 
G01 X-1.1000 Y1.4500 
G01 X-1.3000 Y1.4500 
(File Footer)
G00 Z0.5000 
M05
M02
