( This gcode generated by /Applications/EAGLE/ulp/pcb-gcode.ulp )
( Copyright 2005 by John Johnson. See readme.txt for licensing terms. )

( This file generated from the board /Users/gregorywitt/Documents/eagle/color factory/encoder.brd )
( This file generated 2/7/10 10:50 PM )

( T01 0.035433 )
( T02 0.040000 )
( T03 0.130000 )
G20

G90
M05
G00 X0.0000 Y0.0000 Z3.0000 
M06 T01  ; 0.0354 
G00 Z0.0200 
M03
G04 P3.000000
G82 X-0.7114 Y0.3074 Z-0.1000 F3.00  R0.0200 P0.100000
G82 X-0.7614 Y0.3949 
G82 X-0.9886 Y0.1926 
G82 X-1.0386 Y0.2801 
M05
G00 X0.0000 Y0.0000 Z3.0000 
M06 T02  ; 0.0400 
G00 Z0.0200 
M03
G04 P3.000000
G82 X-0.4379 Y0.6621 Z-0.1000 F3.00  R0.0200 P0.100000
G82 X-0.5086 Y0.5914 
G82 X-0.5793 Y0.5207 
G82 X-0.6500 Y0.4500 
G82 X-1.1500 Y0.1875 
G82 X-1.1500 Y0.3000 
G82 X-1.2500 Y0.1875 
G82 X-1.2500 Y0.3000 
M05
G00 X0.0000 Y0.0000 Z3.0000 
M06 T03  ; 0.1300 
G00 Z0.0200 
M03
G04 P3.000000
G82 X-0.3250 Y0.8750 Z-0.1000 F3.00  R0.0200 P0.100000
G82 X-1.5500 Y0.3500 
(File Footer)
T01 
G00 Z0.5000 
M05
M02
