( This gcode generated by /Applications/EAGLE/ulp/pcb-gcode.ulp )
( Copyright 2005 by John Johnson. See readme.txt for licensing terms. )

( This file generated from the board /Users/gregorywitt/Documents/eagle/color factory/encoder.brd )
( This file generated 2/7/10 10:50 PM )

G20

G90
G00 Z0.5000 
G00 X0 Y0
M03
G04 P3.000000
G00 Z0.0200 
G00 X-0.7560 Y0.3039 
G01 Z-0.0050 F2.50  
G01 X-0.7560 Y0.3109 
G01 X-0.7549 Y0.3178 
G01 X-0.7527 Y0.3245 
G01 X-0.7504 Y0.3291 
G01 X-0.7732 Y0.3518 
G01 X-0.7785 Y0.3536 
G01 X-0.7848 Y0.3568 
G01 X-0.7905 Y0.3609 
G01 X-0.7954 Y0.3659 
G01 X-0.7996 Y0.3715 
G01 X-0.8027 Y0.3778 
G01 X-0.8049 Y0.3845 
G01 X-0.8060 Y0.3914 
G01 X-0.8060 Y0.3984 
G01 X-0.8049 Y0.4053 
G01 X-0.8027 Y0.4120 
G01 X-0.7996 Y0.4183 
G01 X-0.7954 Y0.4239 
G01 X-0.7905 Y0.4289 
G01 X-0.7848 Y0.4330 
G01 X-0.7785 Y0.4362 
G01 X-0.7719 Y0.4384 
G01 X-0.7649 Y0.4395 
G01 X-0.7579 Y0.4395 
G01 X-0.7510 Y0.4384 
G01 X-0.7443 Y0.4362 
G01 X-0.7382 Y0.4331 
G01 X-0.7093 Y0.4621 
G01 X-0.7058 Y0.4641 
G01 X-0.7020 Y0.4651 
G01 X-0.6980 Y0.4651 
G01 X-0.6980 Y0.4651 
G01 X-0.6543 Y0.5088 
G01 X-0.6515 Y0.5099 
G01 X-0.6485 Y0.5099 
G01 X-0.6457 Y0.5088 
G01 X-0.5912 Y0.4543 
G01 X-0.5901 Y0.4515 
G01 X-0.5901 Y0.4485 
G01 X-0.5912 Y0.4457 
G01 X-0.6457 Y0.3912 
G01 X-0.6485 Y0.3901 
G01 X-0.6515 Y0.3901 
G01 X-0.6543 Y0.3912 
G01 X-0.6959 Y0.4328 
G01 X-0.7192 Y0.4094 
G01 X-0.7179 Y0.4053 
G01 X-0.7168 Y0.3984 
G01 X-0.7168 Y0.3914 
G01 X-0.7179 Y0.3845 
G01 X-0.7201 Y0.3778 
G01 X-0.7233 Y0.3715 
G01 X-0.7274 Y0.3659 
G01 X-0.7324 Y0.3609 
G01 X-0.7365 Y0.3579 
G01 X-0.7277 Y0.3490 
G01 X-0.7219 Y0.3509 
G01 X-0.7149 Y0.3520 
G01 X-0.7079 Y0.3520 
G01 X-0.7010 Y0.3509 
G01 X-0.6943 Y0.3487 
G01 X-0.6880 Y0.3455 
G01 X-0.6824 Y0.3414 
G01 X-0.6774 Y0.3364 
G01 X-0.6733 Y0.3308 
G01 X-0.6701 Y0.3245 
G01 X-0.6679 Y0.3178 
G01 X-0.6668 Y0.3109 
G01 X-0.6668 Y0.3039 
G01 X-0.6679 Y0.2970 
G01 X-0.6701 Y0.2903 
G01 X-0.6733 Y0.2840 
G01 X-0.6774 Y0.2784 
G01 X-0.6824 Y0.2734 
G01 X-0.6880 Y0.2693 
G01 X-0.6943 Y0.2661 
G01 X-0.7010 Y0.2639 
G01 X-0.7079 Y0.2628 
G01 X-0.7149 Y0.2628 
G01 X-0.7219 Y0.2639 
G01 X-0.7285 Y0.2661 
G01 X-0.7348 Y0.2693 
G01 X-0.7405 Y0.2734 
G01 X-0.7454 Y0.2784 
G01 X-0.7496 Y0.2840 
G01 X-0.7527 Y0.2903 
G01 X-0.7549 Y0.2970 
G01 X-0.7560 Y0.3039 
G00 Z0.0200 
G00 X-0.6239 Y0.5172 
G01 Z-0.0050 F2.50  
G01 X-0.6239 Y0.5201 
G01 X-0.6500 Y0.5331 
G01 X-1.0428 Y0.3367 
G01 X-1.0442 Y0.3359 
G01 X-1.0446 Y0.3358 
G01 X-1.0450 Y0.3356 
G01 X-1.0465 Y0.3353 
G01 X-1.0480 Y0.3349 
G01 X-1.0485 Y0.3349 
G01 X-1.0489 Y0.3348 
G01 X-1.0504 Y0.3349 
G01 X-1.0687 Y0.3349 
G01 X-1.1054 Y0.2982 
G01 X-1.1054 Y0.2965 
G01 X-1.1065 Y0.2896 
G01 X-1.1087 Y0.2829 
G01 X-1.1119 Y0.2766 
G01 X-1.1160 Y0.2709 
G01 X-1.1209 Y0.2660 
G01 X-1.1266 Y0.2619 
G01 X-1.1329 Y0.2587 
G01 X-1.1396 Y0.2565 
G01 X-1.1465 Y0.2554 
G01 X-1.1535 Y0.2554 
G01 X-1.1604 Y0.2565 
G01 X-1.1671 Y0.2587 
G01 X-1.1690 Y0.2596 
G01 X-1.2144 Y0.2143 
G01 X-1.2119 Y0.2109 
G01 X-1.2087 Y0.2046 
G01 X-1.2065 Y0.1979 
G01 X-1.2054 Y0.1910 
G01 X-1.2054 Y0.1840 
G01 X-1.2065 Y0.1771 
G01 X-1.2087 Y0.1704 
G01 X-1.2119 Y0.1641 
G01 X-1.2160 Y0.1584 
G01 X-1.2209 Y0.1535 
G01 X-1.2266 Y0.1494 
G01 X-1.2329 Y0.1462 
G01 X-1.2396 Y0.1440 
G01 X-1.2465 Y0.1429 
G01 X-1.2535 Y0.1429 
G01 X-1.2604 Y0.1440 
G01 X-1.2671 Y0.1462 
G01 X-1.2734 Y0.1494 
G01 X-1.2790 Y0.1535 
G01 X-1.2840 Y0.1584 
G01 X-1.2881 Y0.1641 
G01 X-1.2913 Y0.1704 
G01 X-1.2935 Y0.1771 
G01 X-1.2946 Y0.1840 
G01 X-1.2946 Y0.1910 
G01 X-1.2935 Y0.1979 
G01 X-1.2913 Y0.2046 
G01 X-1.2881 Y0.2109 
G01 X-1.2840 Y0.2165 
G01 X-1.2790 Y0.2215 
G01 X-1.2734 Y0.2256 
G01 X-1.2671 Y0.2288 
G01 X-1.2604 Y0.2310 
G01 X-1.2535 Y0.2321 
G01 X-1.2465 Y0.2321 
G01 X-1.2402 Y0.2311 
G01 X-1.1904 Y0.2810 
G01 X-1.1913 Y0.2829 
G01 X-1.1935 Y0.2896 
G01 X-1.1946 Y0.2965 
G01 X-1.1946 Y0.3035 
G01 X-1.1935 Y0.3104 
G01 X-1.1913 Y0.3171 
G01 X-1.1881 Y0.3234 
G01 X-1.1840 Y0.3290 
G01 X-1.1790 Y0.3340 
G01 X-1.1734 Y0.3381 
G01 X-1.1671 Y0.3413 
G01 X-1.1604 Y0.3435 
G01 X-1.1535 Y0.3446 
G01 X-1.1465 Y0.3446 
G01 X-1.1396 Y0.3435 
G01 X-1.1329 Y0.3413 
G01 X-1.1266 Y0.3381 
G01 X-1.1209 Y0.3340 
G01 X-1.1166 Y0.3297 
G01 X-1.0843 Y0.3621 
G01 X-1.0808 Y0.3641 
G01 X-1.0770 Y0.3651 
G01 X-1.0730 Y0.3651 
G01 X-1.0536 Y0.3651 
G01 X-0.6576 Y0.5631 
G01 X-0.6567 Y0.5637 
G01 X-0.6558 Y0.5640 
G01 X-0.6550 Y0.5644 
G01 X-0.6539 Y0.5646 
G01 X-0.6529 Y0.5649 
G01 X-0.6520 Y0.5650 
G01 X-0.6511 Y0.5652 
G01 X-0.6500 Y0.5651 
G01 X-0.6489 Y0.5652 
G01 X-0.6480 Y0.5650 
G01 X-0.6471 Y0.5649 
G01 X-0.6461 Y0.5646 
G01 X-0.6450 Y0.5644 
G01 X-0.6442 Y0.5640 
G01 X-0.6433 Y0.5637 
G01 X-0.6424 Y0.5631 
G01 X-0.6140 Y0.5489 
G01 X-0.6133 Y0.5498 
G01 X-0.6083 Y0.5547 
G01 X-0.6027 Y0.5588 
G01 X-0.5964 Y0.5620 
G01 X-0.5897 Y0.5642 
G01 X-0.5828 Y0.5653 
G01 X-0.5758 Y0.5653 
G01 X-0.5688 Y0.5642 
G01 X-0.5622 Y0.5620 
G01 X-0.5559 Y0.5588 
G01 X-0.5502 Y0.5547 
G01 X-0.5453 Y0.5498 
G01 X-0.5411 Y0.5441 
G01 X-0.5380 Y0.5378 
G01 X-0.5358 Y0.5311 
G01 X-0.5347 Y0.5242 
G01 X-0.5347 Y0.5172 
G01 X-0.5358 Y0.5103 
G01 X-0.5380 Y0.5036 
G01 X-0.5411 Y0.4973 
G01 X-0.5453 Y0.4917 
G01 X-0.5502 Y0.4867 
G01 X-0.5559 Y0.4826 
G01 X-0.5622 Y0.4794 
G01 X-0.5688 Y0.4772 
G01 X-0.5758 Y0.4761 
G01 X-0.5828 Y0.4761 
G01 X-0.5897 Y0.4772 
G01 X-0.5964 Y0.4794 
G01 X-0.6027 Y0.4826 
G01 X-0.6083 Y0.4867 
G01 X-0.6133 Y0.4917 
G01 X-0.6174 Y0.4973 
G01 X-0.6206 Y0.5036 
G01 X-0.6228 Y0.5103 
G01 X-0.6239 Y0.5172 
G00 Z0.0200 
G00 X-0.4825 Y0.6586 
G01 Z-0.0050 F2.50  
G01 X-0.4825 Y0.6656 
G01 X-0.4814 Y0.6726 
G01 X-0.4792 Y0.6792 
G01 X-0.4760 Y0.6855 
G01 X-0.4719 Y0.6912 
G01 X-0.4669 Y0.6961 
G01 X-0.4612 Y0.7003 
G01 X-0.4550 Y0.7035 
G01 X-0.4483 Y0.7056 
G01 X-0.4414 Y0.7067 
G01 X-0.4344 Y0.7067 
G01 X-0.4274 Y0.7056 
G01 X-0.4207 Y0.7035 
G01 X-0.4145 Y0.7003 
G01 X-0.4088 Y0.6961 
G01 X-0.4039 Y0.6912 
G01 X-0.3997 Y0.6855 
G01 X-0.3965 Y0.6792 
G01 X-0.3944 Y0.6726 
G01 X-0.3933 Y0.6656 
G01 X-0.3933 Y0.6586 
G01 X-0.3944 Y0.6517 
G01 X-0.3965 Y0.6450 
G01 X-0.3997 Y0.6388 
G01 X-0.4039 Y0.6331 
G01 X-0.4088 Y0.6281 
G01 X-0.4145 Y0.6240 
G01 X-0.4207 Y0.6208 
G01 X-0.4274 Y0.6186 
G01 X-0.4344 Y0.6175 
G01 X-0.4414 Y0.6175 
G01 X-0.4483 Y0.6186 
G01 X-0.4550 Y0.6208 
G01 X-0.4612 Y0.6240 
G01 X-0.4669 Y0.6281 
G01 X-0.4719 Y0.6331 
G01 X-0.4760 Y0.6388 
G01 X-0.4792 Y0.6450 
G01 X-0.4814 Y0.6517 
G01 X-0.4825 Y0.6586 
G00 Z0.0200 
G00 X-1.2913 Y0.3171 
G01 Z-0.0050 F2.50  
G01 X-1.2881 Y0.3234 
G01 X-1.2840 Y0.3290 
G01 X-1.2790 Y0.3340 
G01 X-1.2734 Y0.3381 
G01 X-1.2671 Y0.3413 
G01 X-1.2604 Y0.3435 
G01 X-1.2535 Y0.3446 
G01 X-1.2465 Y0.3446 
G01 X-1.2396 Y0.3435 
G01 X-1.2329 Y0.3413 
G01 X-1.2266 Y0.3381 
G01 X-1.2209 Y0.3340 
G01 X-1.2160 Y0.3290 
G01 X-1.2119 Y0.3234 
G01 X-1.2087 Y0.3171 
G01 X-1.2065 Y0.3104 
G01 X-1.2054 Y0.3035 
G01 X-1.2054 Y0.2965 
G01 X-1.2065 Y0.2896 
G01 X-1.2087 Y0.2829 
G01 X-1.2119 Y0.2766 
G01 X-1.2160 Y0.2709 
G01 X-1.2209 Y0.2660 
G01 X-1.2266 Y0.2619 
G01 X-1.2329 Y0.2587 
G01 X-1.2396 Y0.2565 
G01 X-1.2465 Y0.2554 
G01 X-1.2535 Y0.2554 
G01 X-1.2604 Y0.2565 
G01 X-1.2671 Y0.2587 
G01 X-1.2734 Y0.2619 
G01 X-1.2790 Y0.2660 
G01 X-1.2840 Y0.2709 
G01 X-1.2881 Y0.2766 
G01 X-1.2913 Y0.2829 
G01 X-1.2920 Y0.2849 
G01 X-1.3770 Y0.2849 
G01 X-1.3808 Y0.2859 
G01 X-1.3843 Y0.2879 
G01 X-1.3871 Y0.2907 
G01 X-1.3891 Y0.2942 
G01 X-1.3901 Y0.2980 
G01 X-1.3901 Y0.3020 
G01 X-1.3901 Y0.9020 
G01 X-1.3891 Y0.9058 
G01 X-1.3871 Y0.9093 
G01 X-1.3843 Y0.9121 
G01 X-1.3808 Y0.9141 
G01 X-1.3770 Y0.9151 
G01 X-1.3730 Y0.9151 
G01 X-1.0501 Y0.9151 
G01 X-1.0481 Y0.9151 
G01 X-1.0480 Y0.9151 
G01 X-1.0480 Y0.9151 
G01 X-1.0459 Y0.9145 
G01 X-1.0442 Y0.9141 
G01 X-1.0442 Y0.9141 
G01 X-1.0442 Y0.9141 
G01 X-1.0424 Y0.9130 
G01 X-0.5382 Y0.6249 
G01 X-0.5376 Y0.6254 
G01 X-0.5319 Y0.6296 
G01 X-0.5257 Y0.6327 
G01 X-0.5190 Y0.6349 
G01 X-0.5121 Y0.6360 
G01 X-0.5051 Y0.6360 
G01 X-0.4981 Y0.6349 
G01 X-0.4915 Y0.6327 
G01 X-0.4852 Y0.6296 
G01 X-0.4795 Y0.6254 
G01 X-0.4746 Y0.6205 
G01 X-0.4704 Y0.6148 
G01 X-0.4672 Y0.6085 
G01 X-0.4651 Y0.6019 
G01 X-0.4640 Y0.5949 
G01 X-0.4640 Y0.5879 
G01 X-0.4651 Y0.5810 
G01 X-0.4672 Y0.5743 
G01 X-0.4704 Y0.5680 
G01 X-0.4746 Y0.5624 
G01 X-0.4795 Y0.5574 
G01 X-0.4849 Y0.5535 
G01 X-0.4849 Y0.4230 
G01 X-0.4859 Y0.4192 
G01 X-0.4879 Y0.4157 
G01 X-0.4907 Y0.4129 
G01 X-0.4907 Y0.4129 
G01 X-0.6879 Y0.2157 
G01 X-0.6879 Y0.2157 
G01 X-0.6907 Y0.2129 
G01 X-0.6942 Y0.2109 
G01 X-0.6980 Y0.2099 
G01 X-0.7270 Y0.2099 
G01 X-0.7308 Y0.2109 
G01 X-0.7343 Y0.2129 
G01 X-0.7371 Y0.2157 
G01 X-0.7813 Y0.2599 
G01 X-0.9988 Y0.2599 
G01 X-1.0004 Y0.2567 
G01 X-1.0046 Y0.2510 
G01 X-1.0095 Y0.2461 
G01 X-1.0152 Y0.2420 
G01 X-1.0215 Y0.2388 
G01 X-1.0281 Y0.2366 
G01 X-1.0351 Y0.2355 
G01 X-1.0421 Y0.2355 
G01 X-1.0490 Y0.2366 
G01 X-1.0557 Y0.2388 
G01 X-1.0619 Y0.2420 
G01 X-1.0676 Y0.2461 
G01 X-1.0726 Y0.2510 
G01 X-1.0767 Y0.2567 
G01 X-1.0799 Y0.2630 
G01 X-1.0821 Y0.2696 
G01 X-1.0832 Y0.2766 
G01 X-1.0832 Y0.2836 
G01 X-1.0821 Y0.2905 
G01 X-1.0799 Y0.2972 
G01 X-1.0767 Y0.3035 
G01 X-1.0726 Y0.3091 
G01 X-1.0676 Y0.3141 
G01 X-1.0619 Y0.3182 
G01 X-1.0557 Y0.3214 
G01 X-1.0490 Y0.3236 
G01 X-1.0421 Y0.3247 
G01 X-1.0351 Y0.3247 
G01 X-1.0281 Y0.3236 
G01 X-1.0215 Y0.3214 
G01 X-1.0152 Y0.3182 
G01 X-1.0095 Y0.3141 
G01 X-1.0046 Y0.3091 
G01 X-1.0004 Y0.3035 
G01 X-0.9973 Y0.2972 
G01 X-0.9951 Y0.2905 
G01 X-0.9950 Y0.2901 
G01 X-0.7770 Y0.2901 
G01 X-0.7730 Y0.2901 
G01 X-0.7692 Y0.2891 
G01 X-0.7657 Y0.2871 
G01 X-0.7187 Y0.2401 
G01 X-0.7062 Y0.2401 
G01 X-0.5151 Y0.4312 
G01 X-0.5151 Y0.5473 
G01 X-0.5190 Y0.5479 
G01 X-0.5257 Y0.5501 
G01 X-0.5319 Y0.5533 
G01 X-0.5376 Y0.5574 
G01 X-0.5426 Y0.5624 
G01 X-0.5467 Y0.5680 
G01 X-0.5499 Y0.5743 
G01 X-0.5521 Y0.5810 
G01 X-0.5532 Y0.5879 
G01 X-0.5532 Y0.5949 
G01 X-0.5526 Y0.5984 
G01 X-1.0540 Y0.8849 
G01 X-1.3599 Y0.8849 
G01 X-1.3599 Y0.3151 
G01 X-1.2920 Y0.3151 
G01 X-1.2913 Y0.3171 
G00 Z0.0200 
G00 X-1.1946 Y0.1840 
G01 Z-0.0050 F2.50  
G01 X-1.1946 Y0.1910 
G01 X-1.1935 Y0.1979 
G01 X-1.1913 Y0.2046 
G01 X-1.1881 Y0.2109 
G01 X-1.1840 Y0.2165 
G01 X-1.1790 Y0.2215 
G01 X-1.1734 Y0.2256 
G01 X-1.1671 Y0.2288 
G01 X-1.1604 Y0.2310 
G01 X-1.1535 Y0.2321 
G01 X-1.1465 Y0.2321 
G01 X-1.1396 Y0.2310 
G01 X-1.1329 Y0.2288 
G01 X-1.1266 Y0.2256 
G01 X-1.1209 Y0.2215 
G01 X-1.1160 Y0.2165 
G01 X-1.1149 Y0.2151 
G01 X-1.0272 Y0.2151 
G01 X-1.0267 Y0.2160 
G01 X-1.0226 Y0.2216 
G01 X-1.0176 Y0.2266 
G01 X-1.0119 Y0.2307 
G01 X-1.0057 Y0.2339 
G01 X-0.9990 Y0.2361 
G01 X-0.9921 Y0.2372 
G01 X-0.9851 Y0.2372 
G01 X-0.9781 Y0.2361 
G01 X-0.9715 Y0.2339 
G01 X-0.9652 Y0.2307 
G01 X-0.9595 Y0.2266 
G01 X-0.9546 Y0.2216 
G01 X-0.9504 Y0.2160 
G01 X-0.9473 Y0.2097 
G01 X-0.9451 Y0.2030 
G01 X-0.9440 Y0.1961 
G01 X-0.9440 Y0.1891 
G01 X-0.9451 Y0.1821 
G01 X-0.9473 Y0.1755 
G01 X-0.9504 Y0.1692 
G01 X-0.9546 Y0.1635 
G01 X-0.9595 Y0.1586 
G01 X-0.9652 Y0.1545 
G01 X-0.9715 Y0.1513 
G01 X-0.9781 Y0.1491 
G01 X-0.9851 Y0.1480 
G01 X-0.9921 Y0.1480 
G01 X-0.9990 Y0.1491 
G01 X-1.0057 Y0.1513 
G01 X-1.0119 Y0.1545 
G01 X-1.0176 Y0.1586 
G01 X-1.0226 Y0.1635 
G01 X-1.0267 Y0.1692 
G01 X-1.0299 Y0.1755 
G01 X-1.0321 Y0.1821 
G01 X-1.0325 Y0.1849 
G01 X-1.1054 Y0.1849 
G01 X-1.1054 Y0.1840 
G01 X-1.1065 Y0.1771 
G01 X-1.1087 Y0.1704 
G01 X-1.1119 Y0.1641 
G01 X-1.1160 Y0.1584 
G01 X-1.1209 Y0.1535 
G01 X-1.1266 Y0.1494 
G01 X-1.1329 Y0.1462 
G01 X-1.1396 Y0.1440 
G01 X-1.1465 Y0.1429 
G01 X-1.1535 Y0.1429 
G01 X-1.1604 Y0.1440 
G01 X-1.1671 Y0.1462 
G01 X-1.1734 Y0.1494 
G01 X-1.1790 Y0.1535 
G01 X-1.1840 Y0.1584 
G01 X-1.1881 Y0.1641 
G01 X-1.1913 Y0.1704 
G01 X-1.1935 Y0.1771 
G01 X-1.1946 Y0.1840 
G00 Z0.0200 
G00 X-0.6924 Y0.2614 
G01 Z-0.0050 F2.50  
G01 X-0.6998 Y0.2590 
G01 X-0.7075 Y0.2578 
G01 X-0.7153 Y0.2578 
G01 X-0.7230 Y0.2590 
G01 X-0.7305 Y0.2614 
G01 X-0.7357 Y0.2641 
G01 X-0.7167 Y0.2451 
G01 X-0.7083 Y0.2451 
G01 X-0.6915 Y0.2619 
G01 X-0.6924 Y0.2614 
G00 Z0.0200 
G00 X-1.0264 Y0.2249 
G01 Z-0.0050 F2.50  
G01 X-1.0209 Y0.2304 
G01 X-1.0146 Y0.2350 
G01 X-1.0076 Y0.2386 
G01 X-1.0002 Y0.2410 
G01 X-0.9925 Y0.2422 
G01 X-0.9847 Y0.2422 
G01 X-0.9770 Y0.2410 
G01 X-0.9695 Y0.2386 
G01 X-0.9626 Y0.2350 
G01 X-0.9563 Y0.2304 
G01 X-0.9507 Y0.2249 
G01 X-0.9462 Y0.2186 
G01 X-0.9426 Y0.2116 
G01 X-0.9402 Y0.2042 
G01 X-0.9390 Y0.1965 
G01 X-0.9390 Y0.1887 
G01 X-0.9402 Y0.1810 
G01 X-0.9426 Y0.1736 
G01 X-0.9462 Y0.1666 
G01 X-0.9507 Y0.1603 
G01 X-0.9563 Y0.1548 
G01 X-0.9626 Y0.1502 
G01 X-0.9695 Y0.1466 
G01 X-0.9770 Y0.1442 
G01 X-0.9847 Y0.1430 
G01 X-0.9925 Y0.1430 
G01 X-1.0002 Y0.1442 
G01 X-1.0076 Y0.1466 
G01 X-1.0146 Y0.1502 
G01 X-1.0209 Y0.1548 
G01 X-1.0264 Y0.1603 
G01 X-1.0310 Y0.1666 
G01 X-1.0345 Y0.1736 
G01 X-1.0366 Y0.1799 
G01 X-1.1010 Y0.1799 
G01 X-1.1016 Y0.1759 
G01 X-1.1040 Y0.1685 
G01 X-1.1076 Y0.1615 
G01 X-1.1122 Y0.1552 
G01 X-1.1177 Y0.1497 
G01 X-1.1240 Y0.1451 
G01 X-1.1310 Y0.1415 
G01 X-1.1384 Y0.1391 
G01 X-1.1461 Y0.1379 
G01 X-1.1539 Y0.1379 
G01 X-1.1616 Y0.1391 
G01 X-1.1690 Y0.1415 
G01 X-1.1760 Y0.1451 
G01 X-1.1823 Y0.1497 
G01 X-1.1878 Y0.1552 
G01 X-1.1924 Y0.1615 
G01 X-1.1960 Y0.1685 
G01 X-1.1984 Y0.1759 
G01 X-1.1996 Y0.1836 
G01 X-1.1996 Y0.1914 
G01 X-1.1984 Y0.1991 
G01 X-1.1960 Y0.2065 
G01 X-1.1924 Y0.2135 
G01 X-1.1878 Y0.2198 
G01 X-1.1823 Y0.2253 
G01 X-1.1760 Y0.2299 
G01 X-1.1690 Y0.2335 
G01 X-1.1616 Y0.2359 
G01 X-1.1539 Y0.2371 
G01 X-1.1461 Y0.2371 
G01 X-1.1384 Y0.2359 
G01 X-1.1310 Y0.2335 
G01 X-1.1240 Y0.2299 
G01 X-1.1177 Y0.2253 
G01 X-1.1125 Y0.2201 
G01 X-1.0299 Y0.2201 
G01 X-1.0264 Y0.2249 
G00 Z0.0200 
G00 X-0.4875 Y0.6582 
G01 Z-0.0050 F2.50  
G01 X-0.4875 Y0.6660 
G01 X-0.4862 Y0.6737 
G01 X-0.4838 Y0.6812 
G01 X-0.4803 Y0.6881 
G01 X-0.4757 Y0.6944 
G01 X-0.4702 Y0.7000 
G01 X-0.4639 Y0.7045 
G01 X-0.4569 Y0.7081 
G01 X-0.4495 Y0.7105 
G01 X-0.4418 Y0.7117 
G01 X-0.4340 Y0.7117 
G01 X-0.4262 Y0.7105 
G01 X-0.4188 Y0.7081 
G01 X-0.4119 Y0.7045 
G01 X-0.4056 Y0.7000 
G01 X-0.4000 Y0.6944 
G01 X-0.3954 Y0.6881 
G01 X-0.3919 Y0.6812 
G01 X-0.3895 Y0.6737 
G01 X-0.3883 Y0.6660 
G01 X-0.3883 Y0.6582 
G01 X-0.3895 Y0.6505 
G01 X-0.3919 Y0.6431 
G01 X-0.3954 Y0.6361 
G01 X-0.4000 Y0.6298 
G01 X-0.4056 Y0.6243 
G01 X-0.4119 Y0.6197 
G01 X-0.4188 Y0.6162 
G01 X-0.4262 Y0.6138 
G01 X-0.4340 Y0.6125 
G01 X-0.4418 Y0.6125 
G01 X-0.4495 Y0.6138 
G01 X-0.4569 Y0.6162 
G01 X-0.4639 Y0.6197 
G01 X-0.4702 Y0.6243 
G01 X-0.4757 Y0.6298 
G01 X-0.4803 Y0.6361 
G01 X-0.4838 Y0.6431 
G01 X-0.4862 Y0.6505 
G01 X-0.4875 Y0.6582 
G00 Z0.0200 
G00 X-1.2924 Y0.3260 
G01 Z-0.0050 F2.50  
G01 X-1.2878 Y0.3323 
G01 X-1.2823 Y0.3378 
G01 X-1.2760 Y0.3424 
G01 X-1.2690 Y0.3460 
G01 X-1.2616 Y0.3484 
G01 X-1.2539 Y0.3496 
G01 X-1.2461 Y0.3496 
G01 X-1.2384 Y0.3484 
G01 X-1.2310 Y0.3460 
G01 X-1.2240 Y0.3424 
G01 X-1.2177 Y0.3378 
G01 X-1.2122 Y0.3323 
G01 X-1.2076 Y0.3260 
G01 X-1.2040 Y0.3190 
G01 X-1.2016 Y0.3116 
G01 X-1.2004 Y0.3039 
G01 X-1.2004 Y0.2961 
G01 X-1.2016 Y0.2884 
G01 X-1.2040 Y0.2810 
G01 X-1.2076 Y0.2740 
G01 X-1.2122 Y0.2677 
G01 X-1.2177 Y0.2622 
G01 X-1.2240 Y0.2576 
G01 X-1.2310 Y0.2540 
G01 X-1.2384 Y0.2516 
G01 X-1.2461 Y0.2504 
G01 X-1.2539 Y0.2504 
G01 X-1.2616 Y0.2516 
G01 X-1.2690 Y0.2540 
G01 X-1.2760 Y0.2576 
G01 X-1.2823 Y0.2622 
G01 X-1.2878 Y0.2677 
G01 X-1.2924 Y0.2740 
G01 X-1.2954 Y0.2799 
G01 X-1.3776 Y0.2799 
G01 X-1.3828 Y0.2813 
G01 X-1.3873 Y0.2839 
G01 X-1.3911 Y0.2877 
G01 X-1.3937 Y0.2922 
G01 X-1.3951 Y0.2974 
G01 X-1.3951 Y0.3026 
G01 X-1.3951 Y0.9026 
G01 X-1.3937 Y0.9078 
G01 X-1.3911 Y0.9123 
G01 X-1.3873 Y0.9161 
G01 X-1.3828 Y0.9187 
G01 X-1.3776 Y0.9201 
G01 X-1.3724 Y0.9201 
G01 X-1.0501 Y0.9201 
G01 X-1.0474 Y0.9201 
G01 X-1.0474 Y0.9201 
G01 X-1.0474 Y0.9201 
G01 X-1.0449 Y0.9194 
G01 X-1.0423 Y0.9188 
G01 X-1.0423 Y0.9187 
G01 X-1.0422 Y0.9187 
G01 X-1.0400 Y0.9174 
G01 X-0.5386 Y0.6309 
G01 X-0.5346 Y0.6338 
G01 X-0.5276 Y0.6374 
G01 X-0.5202 Y0.6398 
G01 X-0.5125 Y0.6410 
G01 X-0.5047 Y0.6410 
G01 X-0.4970 Y0.6398 
G01 X-0.4895 Y0.6374 
G01 X-0.4826 Y0.6338 
G01 X-0.4763 Y0.6292 
G01 X-0.4707 Y0.6237 
G01 X-0.4662 Y0.6174 
G01 X-0.4626 Y0.6105 
G01 X-0.4602 Y0.6030 
G01 X-0.4590 Y0.5953 
G01 X-0.4590 Y0.5875 
G01 X-0.4602 Y0.5798 
G01 X-0.4626 Y0.5724 
G01 X-0.4662 Y0.5654 
G01 X-0.4707 Y0.5591 
G01 X-0.4763 Y0.5536 
G01 X-0.4799 Y0.5509 
G01 X-0.4799 Y0.4224 
G01 X-0.4813 Y0.4172 
G01 X-0.4839 Y0.4127 
G01 X-0.4877 Y0.4089 
G01 X-0.4877 Y0.4089 
G01 X-0.6839 Y0.2127 
G01 X-0.6839 Y0.2127 
G01 X-0.6877 Y0.2089 
G01 X-0.6922 Y0.2063 
G01 X-0.6974 Y0.2049 
G01 X-0.7276 Y0.2049 
G01 X-0.7328 Y0.2063 
G01 X-0.7373 Y0.2089 
G01 X-0.7411 Y0.2127 
G01 X-0.7833 Y0.2549 
G01 X-0.9958 Y0.2549 
G01 X-0.9962 Y0.2541 
G01 X-1.0007 Y0.2478 
G01 X-1.0063 Y0.2423 
G01 X-1.0126 Y0.2377 
G01 X-1.0195 Y0.2341 
G01 X-1.0270 Y0.2317 
G01 X-1.0347 Y0.2305 
G01 X-1.0425 Y0.2305 
G01 X-1.0502 Y0.2317 
G01 X-1.0576 Y0.2341 
G01 X-1.0646 Y0.2377 
G01 X-1.0709 Y0.2423 
G01 X-1.0764 Y0.2478 
G01 X-1.0810 Y0.2541 
G01 X-1.0845 Y0.2611 
G01 X-1.0869 Y0.2685 
G01 X-1.0882 Y0.2762 
G01 X-1.0882 Y0.2840 
G01 X-1.0869 Y0.2917 
G01 X-1.0845 Y0.2991 
G01 X-1.0810 Y0.3061 
G01 X-1.0764 Y0.3124 
G01 X-1.0709 Y0.3179 
G01 X-1.0646 Y0.3225 
G01 X-1.0576 Y0.3261 
G01 X-1.0502 Y0.3285 
G01 X-1.0425 Y0.3297 
G01 X-1.0347 Y0.3297 
G01 X-1.0270 Y0.3285 
G01 X-1.0195 Y0.3261 
G01 X-1.0126 Y0.3225 
G01 X-1.0063 Y0.3179 
G01 X-1.0007 Y0.3124 
G01 X-0.9962 Y0.3061 
G01 X-0.9926 Y0.2991 
G01 X-0.9913 Y0.2951 
G01 X-0.7776 Y0.2951 
G01 X-0.7724 Y0.2951 
G01 X-0.7672 Y0.2937 
G01 X-0.7627 Y0.2911 
G01 X-0.7547 Y0.2831 
G01 X-0.7574 Y0.2884 
G01 X-0.7598 Y0.2958 
G01 X-0.7610 Y0.3035 
G01 X-0.7610 Y0.3113 
G01 X-0.7598 Y0.3190 
G01 X-0.7574 Y0.3264 
G01 X-0.7565 Y0.3281 
G01 X-0.7759 Y0.3474 
G01 X-0.7805 Y0.3489 
G01 X-0.7874 Y0.3525 
G01 X-0.7937 Y0.3571 
G01 X-0.7992 Y0.3626 
G01 X-0.8038 Y0.3689 
G01 X-0.8074 Y0.3759 
G01 X-0.8098 Y0.3833 
G01 X-0.8110 Y0.3910 
G01 X-0.8110 Y0.3988 
G01 X-0.8098 Y0.4065 
G01 X-0.8074 Y0.4139 
G01 X-0.8038 Y0.4209 
G01 X-0.7992 Y0.4272 
G01 X-0.7937 Y0.4327 
G01 X-0.7874 Y0.4373 
G01 X-0.7805 Y0.4409 
G01 X-0.7730 Y0.4433 
G01 X-0.7653 Y0.4445 
G01 X-0.7575 Y0.4445 
G01 X-0.7498 Y0.4433 
G01 X-0.7424 Y0.4409 
G01 X-0.7392 Y0.4392 
G01 X-0.7123 Y0.4661 
G01 X-0.7078 Y0.4687 
G01 X-0.7026 Y0.4701 
G01 X-0.7000 Y0.4701 
G01 X-0.6577 Y0.5124 
G01 X-0.6549 Y0.5141 
G01 X-0.6517 Y0.5149 
G01 X-0.6483 Y0.5149 
G01 X-0.6451 Y0.5141 
G01 X-0.6423 Y0.5124 
G01 X-0.5876 Y0.4577 
G01 X-0.5859 Y0.4549 
G01 X-0.5851 Y0.4517 
G01 X-0.5851 Y0.4483 
G01 X-0.5859 Y0.4451 
G01 X-0.5876 Y0.4423 
G01 X-0.6423 Y0.3876 
G01 X-0.6451 Y0.3859 
G01 X-0.6483 Y0.3851 
G01 X-0.6517 Y0.3851 
G01 X-0.6549 Y0.3859 
G01 X-0.6577 Y0.3876 
G01 X-0.6959 Y0.4257 
G01 X-0.7135 Y0.4080 
G01 X-0.7130 Y0.4065 
G01 X-0.7118 Y0.3988 
G01 X-0.7118 Y0.3910 
G01 X-0.7130 Y0.3833 
G01 X-0.7155 Y0.3759 
G01 X-0.7190 Y0.3689 
G01 X-0.7236 Y0.3626 
G01 X-0.7289 Y0.3573 
G01 X-0.7263 Y0.3547 
G01 X-0.7230 Y0.3558 
G01 X-0.7153 Y0.3570 
G01 X-0.7075 Y0.3570 
G01 X-0.6998 Y0.3558 
G01 X-0.6924 Y0.3534 
G01 X-0.6854 Y0.3498 
G01 X-0.6791 Y0.3452 
G01 X-0.6736 Y0.3397 
G01 X-0.6690 Y0.3334 
G01 X-0.6655 Y0.3264 
G01 X-0.6630 Y0.3190 
G01 X-0.6618 Y0.3113 
G01 X-0.6618 Y0.3035 
G01 X-0.6630 Y0.2958 
G01 X-0.6655 Y0.2884 
G01 X-0.6659 Y0.2875 
G01 X-0.5201 Y0.4333 
G01 X-0.5201 Y0.5430 
G01 X-0.5202 Y0.5430 
G01 X-0.5276 Y0.5455 
G01 X-0.5346 Y0.5490 
G01 X-0.5409 Y0.5536 
G01 X-0.5464 Y0.5591 
G01 X-0.5510 Y0.5654 
G01 X-0.5545 Y0.5724 
G01 X-0.5569 Y0.5798 
G01 X-0.5582 Y0.5875 
G01 X-0.5582 Y0.5953 
G01 X-0.5581 Y0.5958 
G01 X-1.0553 Y0.8799 
G01 X-1.3549 Y0.8799 
G01 X-1.3549 Y0.3201 
G01 X-1.2954 Y0.3201 
G01 X-1.2924 Y0.3260 
G00 Z0.0200 
G00 X-1.2996 Y0.1836 
G01 Z-0.0050 F2.50  
G01 X-1.2996 Y0.1914 
G01 X-1.2984 Y0.1991 
G01 X-1.2960 Y0.2065 
G01 X-1.2924 Y0.2135 
G01 X-1.2878 Y0.2198 
G01 X-1.2823 Y0.2253 
G01 X-1.2760 Y0.2299 
G01 X-1.2690 Y0.2335 
G01 X-1.2616 Y0.2359 
G01 X-1.2539 Y0.2371 
G01 X-1.2461 Y0.2371 
G01 X-1.2420 Y0.2364 
G01 X-1.1963 Y0.2821 
G01 X-1.1984 Y0.2884 
G01 X-1.1996 Y0.2961 
G01 X-1.1996 Y0.3039 
G01 X-1.1984 Y0.3116 
G01 X-1.1960 Y0.3190 
G01 X-1.1924 Y0.3260 
G01 X-1.1878 Y0.3323 
G01 X-1.1823 Y0.3378 
G01 X-1.1760 Y0.3424 
G01 X-1.1690 Y0.3460 
G01 X-1.1616 Y0.3484 
G01 X-1.1539 Y0.3496 
G01 X-1.1461 Y0.3496 
G01 X-1.1384 Y0.3484 
G01 X-1.1310 Y0.3460 
G01 X-1.1240 Y0.3424 
G01 X-1.1177 Y0.3378 
G01 X-1.1166 Y0.3368 
G01 X-1.0873 Y0.3661 
G01 X-1.0828 Y0.3687 
G01 X-1.0776 Y0.3701 
G01 X-1.0724 Y0.3701 
G01 X-1.0547 Y0.3701 
G01 X-0.6601 Y0.5674 
G01 X-0.6589 Y0.5682 
G01 X-0.6577 Y0.5686 
G01 X-0.6566 Y0.5692 
G01 X-0.6552 Y0.5694 
G01 X-0.6538 Y0.5699 
G01 X-0.6526 Y0.5700 
G01 X-0.6514 Y0.5702 
G01 X-0.6500 Y0.5701 
G01 X-0.6486 Y0.5702 
G01 X-0.6474 Y0.5700 
G01 X-0.6462 Y0.5699 
G01 X-0.6448 Y0.5694 
G01 X-0.6434 Y0.5692 
G01 X-0.6423 Y0.5686 
G01 X-0.6411 Y0.5682 
G01 X-0.6399 Y0.5674 
G01 X-0.6151 Y0.5550 
G01 X-0.6116 Y0.5585 
G01 X-0.6053 Y0.5631 
G01 X-0.5983 Y0.5667 
G01 X-0.5909 Y0.5691 
G01 X-0.5832 Y0.5703 
G01 X-0.5754 Y0.5703 
G01 X-0.5677 Y0.5691 
G01 X-0.5602 Y0.5667 
G01 X-0.5533 Y0.5631 
G01 X-0.5470 Y0.5585 
G01 X-0.5415 Y0.5530 
G01 X-0.5369 Y0.5467 
G01 X-0.5333 Y0.5397 
G01 X-0.5309 Y0.5323 
G01 X-0.5297 Y0.5246 
G01 X-0.5297 Y0.5168 
G01 X-0.5309 Y0.5091 
G01 X-0.5333 Y0.5017 
G01 X-0.5369 Y0.4947 
G01 X-0.5415 Y0.4884 
G01 X-0.5470 Y0.4829 
G01 X-0.5533 Y0.4783 
G01 X-0.5602 Y0.4747 
G01 X-0.5677 Y0.4723 
G01 X-0.5754 Y0.4711 
G01 X-0.5832 Y0.4711 
G01 X-0.5909 Y0.4723 
G01 X-0.5983 Y0.4747 
G01 X-0.6053 Y0.4783 
G01 X-0.6116 Y0.4829 
G01 X-0.6171 Y0.4884 
G01 X-0.6217 Y0.4947 
G01 X-0.6252 Y0.5017 
G01 X-0.6277 Y0.5091 
G01 X-0.6289 Y0.5168 
G01 X-0.6289 Y0.5170 
G01 X-0.6500 Y0.5275 
G01 X-1.0405 Y0.3323 
G01 X-1.0422 Y0.3313 
G01 X-1.0428 Y0.3311 
G01 X-1.0434 Y0.3308 
G01 X-1.0454 Y0.3304 
G01 X-1.0474 Y0.3299 
G01 X-1.0480 Y0.3299 
G01 X-1.0486 Y0.3298 
G01 X-1.0506 Y0.3299 
G01 X-1.0667 Y0.3299 
G01 X-1.1004 Y0.2962 
G01 X-1.1004 Y0.2961 
G01 X-1.1016 Y0.2884 
G01 X-1.1040 Y0.2810 
G01 X-1.1076 Y0.2740 
G01 X-1.1122 Y0.2677 
G01 X-1.1177 Y0.2622 
G01 X-1.1240 Y0.2576 
G01 X-1.1310 Y0.2540 
G01 X-1.1384 Y0.2516 
G01 X-1.1461 Y0.2504 
G01 X-1.1539 Y0.2504 
G01 X-1.1616 Y0.2516 
G01 X-1.1679 Y0.2537 
G01 X-1.2078 Y0.2138 
G01 X-1.2076 Y0.2135 
G01 X-1.2040 Y0.2065 
G01 X-1.2016 Y0.1991 
G01 X-1.2004 Y0.1914 
G01 X-1.2004 Y0.1836 
G01 X-1.2016 Y0.1759 
G01 X-1.2040 Y0.1685 
G01 X-1.2076 Y0.1615 
G01 X-1.2122 Y0.1552 
G01 X-1.2177 Y0.1497 
G01 X-1.2240 Y0.1451 
G01 X-1.2310 Y0.1415 
G01 X-1.2384 Y0.1391 
G01 X-1.2461 Y0.1379 
G01 X-1.2539 Y0.1379 
G01 X-1.2616 Y0.1391 
G01 X-1.2690 Y0.1415 
G01 X-1.2760 Y0.1451 
G01 X-1.2823 Y0.1497 
G01 X-1.2878 Y0.1552 
G01 X-1.2924 Y0.1615 
G01 X-1.2960 Y0.1685 
G01 X-1.2984 Y0.1759 
G01 X-1.2996 Y0.1836 
G00 Z0.0200 
G00 X-0.5260 Y0.5079 
G01 Z-0.0050 F2.50  
G01 X-0.5287 Y0.4997 
G01 X-0.5326 Y0.4921 
G01 X-0.5376 Y0.4851 
G01 X-0.5437 Y0.4791 
G01 X-0.5507 Y0.4740 
G01 X-0.5583 Y0.4701 
G01 X-0.5665 Y0.4675 
G01 X-0.5750 Y0.4661 
G01 X-0.5836 Y0.4661 
G01 X-0.5899 Y0.4671 
G01 X-0.5836 Y0.4608 
G01 X-0.5813 Y0.4568 
G01 X-0.5801 Y0.4523 
G01 X-0.5801 Y0.4477 
G01 X-0.5813 Y0.4432 
G01 X-0.5836 Y0.4392 
G01 X-0.6392 Y0.3836 
G01 X-0.6432 Y0.3813 
G01 X-0.6477 Y0.3801 
G01 X-0.6523 Y0.3801 
G01 X-0.6568 Y0.3813 
G01 X-0.6608 Y0.3836 
G01 X-0.6959 Y0.4187 
G01 X-0.7080 Y0.4065 
G01 X-0.7068 Y0.3992 
G01 X-0.7068 Y0.3906 
G01 X-0.7082 Y0.3821 
G01 X-0.7108 Y0.3739 
G01 X-0.7147 Y0.3663 
G01 X-0.7181 Y0.3616 
G01 X-0.7157 Y0.3620 
G01 X-0.7071 Y0.3620 
G01 X-0.6986 Y0.3606 
G01 X-0.6905 Y0.3580 
G01 X-0.6828 Y0.3541 
G01 X-0.6759 Y0.3490 
G01 X-0.6698 Y0.3430 
G01 X-0.6647 Y0.3360 
G01 X-0.6608 Y0.3284 
G01 X-0.6582 Y0.3202 
G01 X-0.6568 Y0.3117 
G01 X-0.6568 Y0.3037 
G01 X-0.5251 Y0.4354 
G01 X-0.5251 Y0.5139 
G01 X-0.5260 Y0.5079 
G00 Z0.0200 
G00 X-0.5283 Y0.5404 
G01 Z-0.0050 F2.50  
G01 X-0.5260 Y0.5335 
G01 X-0.5251 Y0.5275 
G01 X-0.5251 Y0.5394 
G01 X-0.5283 Y0.5404 
G00 Z0.0200 
G00 X-0.7157 Y0.2528 
G01 Z-0.0050 F2.50  
G01 X-0.7176 Y0.2531 
G01 X-0.7146 Y0.2501 
G01 X-0.7104 Y0.2501 
G01 X-0.7077 Y0.2528 
G01 X-0.7157 Y0.2528 
G00 Z0.0200 
G00 X-0.7660 Y0.3031 
G01 Z-0.0050 F2.50  
G01 X-0.7660 Y0.3117 
G01 X-0.7647 Y0.3202 
G01 X-0.7625 Y0.3270 
G01 X-0.7786 Y0.3431 
G01 X-0.7824 Y0.3443 
G01 X-0.7900 Y0.3482 
G01 X-0.7970 Y0.3533 
G01 X-0.8031 Y0.3593 
G01 X-0.8081 Y0.3663 
G01 X-0.8120 Y0.3739 
G01 X-0.8147 Y0.3821 
G01 X-0.8160 Y0.3906 
G01 X-0.8160 Y0.3992 
G01 X-0.8147 Y0.4077 
G01 X-0.8120 Y0.4159 
G01 X-0.8081 Y0.4235 
G01 X-0.8031 Y0.4305 
G01 X-0.7970 Y0.4365 
G01 X-0.7900 Y0.4416 
G01 X-0.7824 Y0.4455 
G01 X-0.7742 Y0.4481 
G01 X-0.7657 Y0.4495 
G01 X-0.7571 Y0.4495 
G01 X-0.7486 Y0.4481 
G01 X-0.7405 Y0.4455 
G01 X-0.7401 Y0.4453 
G01 X-0.7160 Y0.4695 
G01 X-0.7119 Y0.4722 
G01 X-0.7073 Y0.4741 
G01 X-0.7025 Y0.4751 
G01 X-0.7021 Y0.4751 
G01 X-0.6608 Y0.5164 
G01 X-0.6589 Y0.5175 
G01 X-1.0269 Y0.3335 
G01 X-1.0258 Y0.3333 
G01 X-1.0176 Y0.3307 
G01 X-1.0100 Y0.3268 
G01 X-1.0030 Y0.3217 
G01 X-0.9969 Y0.3157 
G01 X-0.9919 Y0.3087 
G01 X-0.9880 Y0.3011 
G01 X-0.9877 Y0.3001 
G01 X-0.7775 Y0.3001 
G01 X-0.7725 Y0.3001 
G01 X-0.7677 Y0.2991 
G01 X-0.7652 Y0.2981 
G01 X-0.7660 Y0.3031 
G00 Z0.0200 
G00 X-1.2967 Y0.3286 
G01 Z-0.0050 F2.50  
G01 X-1.2916 Y0.3356 
G01 X-1.2856 Y0.3416 
G01 X-1.2786 Y0.3467 
G01 X-1.2710 Y0.3506 
G01 X-1.2628 Y0.3532 
G01 X-1.2543 Y0.3546 
G01 X-1.2457 Y0.3546 
G01 X-1.2372 Y0.3532 
G01 X-1.2290 Y0.3506 
G01 X-1.2214 Y0.3467 
G01 X-1.2144 Y0.3416 
G01 X-1.2084 Y0.3356 
G01 X-1.2033 Y0.3286 
G01 X-1.2000 Y0.3221 
G01 X-1.1967 Y0.3286 
G01 X-1.1916 Y0.3356 
G01 X-1.1856 Y0.3416 
G01 X-1.1786 Y0.3467 
G01 X-1.1710 Y0.3506 
G01 X-1.1628 Y0.3532 
G01 X-1.1543 Y0.3546 
G01 X-1.1457 Y0.3546 
G01 X-1.1372 Y0.3532 
G01 X-1.1290 Y0.3506 
G01 X-1.1214 Y0.3467 
G01 X-1.1170 Y0.3435 
G01 X-1.0910 Y0.3695 
G01 X-1.0869 Y0.3722 
G01 X-1.0823 Y0.3741 
G01 X-1.0775 Y0.3751 
G01 X-1.0725 Y0.3751 
G01 X-1.0559 Y0.3751 
G01 X-0.6618 Y0.5721 
G01 X-0.6603 Y0.5730 
G01 X-0.6596 Y0.5732 
G01 X-0.6590 Y0.5735 
G01 X-0.6573 Y0.5740 
G01 X-0.6556 Y0.5746 
G01 X-0.6549 Y0.5747 
G01 X-0.6542 Y0.5749 
G01 X-0.6525 Y0.5750 
G01 X-0.6507 Y0.5752 
G01 X-0.6500 Y0.5751 
G01 X-0.6493 Y0.5752 
G01 X-0.6475 Y0.5750 
G01 X-0.6458 Y0.5749 
G01 X-0.6451 Y0.5747 
G01 X-0.6444 Y0.5746 
G01 X-0.6427 Y0.5740 
G01 X-0.6410 Y0.5735 
G01 X-0.6404 Y0.5732 
G01 X-0.6397 Y0.5730 
G01 X-0.6382 Y0.5721 
G01 X-0.6161 Y0.5611 
G01 X-0.6149 Y0.5623 
G01 X-0.6079 Y0.5674 
G01 X-0.6002 Y0.5713 
G01 X-0.5921 Y0.5740 
G01 X-0.5836 Y0.5753 
G01 X-0.5750 Y0.5753 
G01 X-0.5665 Y0.5740 
G01 X-0.5596 Y0.5717 
G01 X-0.5618 Y0.5786 
G01 X-0.5632 Y0.5871 
G01 X-0.5632 Y0.5929 
G01 X-1.0567 Y0.8749 
G01 X-1.3499 Y0.8749 
G01 X-1.3499 Y0.3251 
G01 X-1.2985 Y0.3251 
G01 X-1.2967 Y0.3286 
G00 Z0.0200 
G00 X-0.6392 Y0.5164 
G01 Z-0.0050 F2.50  
G01 X-0.6329 Y0.5101 
G01 X-0.6334 Y0.5137 
G01 X-0.6411 Y0.5175 
G01 X-0.6392 Y0.5164 
G00 Z0.0200 
G00 X-0.6523 Y0.5199 
G01 Z-0.0050 F2.50  
G01 X-0.6477 Y0.5199 
G01 X-0.6439 Y0.5189 
G01 X-0.6500 Y0.5219 
G01 X-0.6561 Y0.5189 
G01 X-0.6523 Y0.5199 
G00 Z0.0200 
G00 X-1.1786 Y0.2342 
G01 Z-0.0050 F2.50  
G01 X-1.1710 Y0.2381 
G01 X-1.1628 Y0.2407 
G01 X-1.1543 Y0.2421 
G01 X-1.1457 Y0.2421 
G01 X-1.1372 Y0.2407 
G01 X-1.1290 Y0.2381 
G01 X-1.1214 Y0.2342 
G01 X-1.1144 Y0.2291 
G01 X-1.1104 Y0.2251 
G01 X-1.0324 Y0.2251 
G01 X-1.0319 Y0.2259 
G01 X-1.0343 Y0.2255 
G01 X-1.0429 Y0.2255 
G01 X-1.0514 Y0.2268 
G01 X-1.0595 Y0.2295 
G01 X-1.0672 Y0.2334 
G01 X-1.0741 Y0.2385 
G01 X-1.0802 Y0.2445 
G01 X-1.0853 Y0.2515 
G01 X-1.0892 Y0.2591 
G01 X-1.0918 Y0.2673 
G01 X-1.0932 Y0.2758 
G01 X-1.0932 Y0.2844 
G01 X-1.0918 Y0.2929 
G01 X-1.0895 Y0.3000 
G01 X-1.0957 Y0.2938 
G01 X-1.0967 Y0.2872 
G01 X-1.0994 Y0.2790 
G01 X-1.1033 Y0.2714 
G01 X-1.1084 Y0.2644 
G01 X-1.1144 Y0.2584 
G01 X-1.1214 Y0.2533 
G01 X-1.1290 Y0.2494 
G01 X-1.1372 Y0.2467 
G01 X-1.1457 Y0.2454 
G01 X-1.1543 Y0.2454 
G01 X-1.1628 Y0.2467 
G01 X-1.1665 Y0.2480 
G01 X-1.1849 Y0.2296 
G01 X-1.1786 Y0.2342 
G00 Z0.0200 
G00 X-1.1967 Y0.2161 
G01 Z-0.0050 F2.50  
G01 X-1.1921 Y0.2224 
G01 X-1.2017 Y0.2129 
G01 X-1.2000 Y0.2096 
G01 X-1.1967 Y0.2161 
G00 Z0.0200 
G00 X-0.9953 Y0.2468 
G01 Z-0.0050 F2.50  
G01 X-0.9929 Y0.2472 
G01 X-0.9843 Y0.2472 
G01 X-0.9758 Y0.2458 
G01 X-0.9676 Y0.2432 
G01 X-0.9600 Y0.2393 
G01 X-0.9530 Y0.2342 
G01 X-0.9469 Y0.2282 
G01 X-0.9419 Y0.2212 
G01 X-0.9380 Y0.2136 
G01 X-0.9353 Y0.2054 
G01 X-0.9340 Y0.1969 
G01 X-0.9340 Y0.1883 
G01 X-0.9353 Y0.1798 
G01 X-0.9380 Y0.1716 
G01 X-0.9419 Y0.1640 
G01 X-0.9469 Y0.1570 
G01 X-0.9530 Y0.1510 
G01 X-0.9600 Y0.1459 
G01 X-0.9676 Y0.1420 
G01 X-0.9758 Y0.1393 
G01 X-0.9843 Y0.1380 
G01 X-0.9929 Y0.1380 
G01 X-1.0014 Y0.1393 
G01 X-1.0095 Y0.1420 
G01 X-1.0172 Y0.1459 
G01 X-1.0241 Y0.1510 
G01 X-1.0302 Y0.1570 
G01 X-1.0353 Y0.1640 
G01 X-1.0392 Y0.1716 
G01 X-1.0402 Y0.1749 
G01 X-1.0967 Y0.1749 
G01 X-1.0967 Y0.1747 
G01 X-1.0994 Y0.1665 
G01 X-1.1033 Y0.1589 
G01 X-1.1084 Y0.1519 
G01 X-1.1144 Y0.1459 
G01 X-1.1214 Y0.1408 
G01 X-1.1290 Y0.1369 
G01 X-1.1372 Y0.1342 
G01 X-1.1457 Y0.1329 
G01 X-1.1543 Y0.1329 
G01 X-1.1628 Y0.1342 
G01 X-1.1710 Y0.1369 
G01 X-1.1786 Y0.1408 
G01 X-1.1856 Y0.1459 
G01 X-1.1916 Y0.1519 
G01 X-1.1967 Y0.1589 
G01 X-1.2000 Y0.1654 
G01 X-1.2033 Y0.1589 
G01 X-1.2084 Y0.1519 
G01 X-1.2144 Y0.1459 
G01 X-1.2214 Y0.1408 
G01 X-1.2290 Y0.1369 
G01 X-1.2372 Y0.1342 
G01 X-1.2457 Y0.1329 
G01 X-1.2543 Y0.1329 
G01 X-1.2628 Y0.1342 
G01 X-1.2710 Y0.1369 
G01 X-1.2786 Y0.1408 
G01 X-1.2856 Y0.1459 
G01 X-1.2916 Y0.1519 
G01 X-1.2967 Y0.1589 
G01 X-1.3006 Y0.1665 
G01 X-1.3032 Y0.1747 
G01 X-1.3046 Y0.1832 
G01 X-1.3046 Y0.1918 
G01 X-1.3032 Y0.2003 
G01 X-1.3006 Y0.2085 
G01 X-1.2967 Y0.2161 
G01 X-1.2916 Y0.2231 
G01 X-1.2856 Y0.2291 
G01 X-1.2786 Y0.2342 
G01 X-1.2710 Y0.2381 
G01 X-1.2628 Y0.2407 
G01 X-1.2543 Y0.2421 
G01 X-1.2457 Y0.2421 
G01 X-1.2437 Y0.2418 
G01 X-1.2390 Y0.2465 
G01 X-1.2457 Y0.2454 
G01 X-1.2543 Y0.2454 
G01 X-1.2628 Y0.2467 
G01 X-1.2710 Y0.2494 
G01 X-1.2786 Y0.2533 
G01 X-1.2856 Y0.2584 
G01 X-1.2916 Y0.2644 
G01 X-1.2967 Y0.2714 
G01 X-1.2985 Y0.2749 
G01 X-1.3775 Y0.2749 
G01 X-1.3823 Y0.2759 
G01 X-1.3869 Y0.2778 
G01 X-1.3910 Y0.2805 
G01 X-1.3945 Y0.2840 
G01 X-1.3972 Y0.2881 
G01 X-1.3991 Y0.2927 
G01 X-1.4001 Y0.2975 
G01 X-1.4001 Y0.3025 
G01 X-1.4001 Y0.9025 
G01 X-1.3991 Y0.9073 
G01 X-1.3972 Y0.9119 
G01 X-1.3945 Y0.9160 
G01 X-1.3910 Y0.9195 
G01 X-1.3869 Y0.9222 
G01 X-1.3823 Y0.9241 
G01 X-1.3775 Y0.9251 
G01 X-1.3725 Y0.9251 
G01 X-1.0509 Y0.9251 
G01 X-1.0493 Y0.9252 
G01 X-1.0484 Y0.9251 
G01 X-1.0475 Y0.9251 
G01 X-1.0460 Y0.9248 
G01 X-1.0444 Y0.9246 
G01 X-1.0435 Y0.9243 
G01 X-1.0427 Y0.9241 
G01 X-1.0412 Y0.9235 
G01 X-1.0397 Y0.9230 
G01 X-1.0389 Y0.9226 
G01 X-1.0381 Y0.9222 
G01 X-1.0368 Y0.9214 
G01 X-0.5389 Y0.6369 
G01 X-0.5372 Y0.6381 
G01 X-0.5295 Y0.6420 
G01 X-0.5214 Y0.6447 
G01 X-0.5129 Y0.6460 
G01 X-0.5043 Y0.6460 
G01 X-0.4958 Y0.6447 
G01 X-0.4889 Y0.6424 
G01 X-0.4911 Y0.6493 
G01 X-0.4925 Y0.6578 
G01 X-0.4925 Y0.6664 
G01 X-0.4911 Y0.6749 
G01 X-0.4885 Y0.6831 
G01 X-0.4846 Y0.6907 
G01 X-0.4795 Y0.6977 
G01 X-0.4734 Y0.7038 
G01 X-0.4665 Y0.7088 
G01 X-0.4588 Y0.7127 
G01 X-0.4506 Y0.7154 
G01 X-0.4422 Y0.7167 
G01 X-0.4336 Y0.7167 
G01 X-0.4251 Y0.7154 
G01 X-0.4169 Y0.7127 
G01 X-0.4093 Y0.7088 
G01 X-0.4023 Y0.7038 
G01 X-0.3962 Y0.6977 
G01 X-0.3912 Y0.6907 
G01 X-0.3873 Y0.6831 
G01 X-0.3846 Y0.6749 
G01 X-0.3833 Y0.6664 
G01 X-0.3833 Y0.6578 
G01 X-0.3846 Y0.6493 
G01 X-0.3873 Y0.6412 
G01 X-0.3912 Y0.6335 
G01 X-0.3962 Y0.6266 
G01 X-0.4023 Y0.6205 
G01 X-0.4093 Y0.6154 
G01 X-0.4169 Y0.6115 
G01 X-0.4251 Y0.6089 
G01 X-0.4336 Y0.6075 
G01 X-0.4422 Y0.6075 
G01 X-0.4506 Y0.6089 
G01 X-0.4576 Y0.6111 
G01 X-0.4553 Y0.6042 
G01 X-0.4540 Y0.5957 
G01 X-0.4540 Y0.5871 
G01 X-0.4553 Y0.5786 
G01 X-0.4580 Y0.5705 
G01 X-0.4619 Y0.5628 
G01 X-0.4669 Y0.5559 
G01 X-0.4730 Y0.5498 
G01 X-0.4749 Y0.5484 
G01 X-0.4749 Y0.4225 
G01 X-0.4759 Y0.4177 
G01 X-0.4778 Y0.4131 
G01 X-0.4805 Y0.4090 
G01 X-0.4840 Y0.4055 
G01 X-0.4840 Y0.4055 
G01 X-0.6805 Y0.2090 
G01 X-0.6805 Y0.2090 
G01 X-0.6840 Y0.2055 
G01 X-0.6881 Y0.2028 
G01 X-0.6927 Y0.2009 
G01 X-0.6975 Y0.1999 
G01 X-0.7275 Y0.1999 
G01 X-0.7323 Y0.2009 
G01 X-0.7369 Y0.2028 
G01 X-0.7410 Y0.2055 
G01 X-0.7445 Y0.2090 
G01 X-0.7854 Y0.2499 
G01 X-0.9930 Y0.2499 
G01 X-0.9953 Y0.2468 
G00 Z0.0200 
G00 X-0.7754 Y0.4530 
G01 Z-0.0050 F2.50  
G01 X-0.7661 Y0.4545 
G01 X-0.7567 Y0.4545 
G01 X-0.7475 Y0.4530 
G01 X-0.7415 Y0.4511 
G01 X-0.7192 Y0.4734 
G01 X-0.7143 Y0.4767 
G01 X-0.7088 Y0.4789 
G01 X-0.7045 Y0.4798 
G01 X-0.6858 Y0.4984 
G01 X-0.7791 Y0.4518 
G01 X-0.7754 Y0.4530 
G00 Z0.0200 
G00 X-0.5338 Y0.4819 
G01 Z-0.0050 F2.50  
G01 X-0.5405 Y0.4753 
G01 X-0.5481 Y0.4697 
G01 X-0.5564 Y0.4655 
G01 X-0.5653 Y0.4626 
G01 X-0.5746 Y0.4611 
G01 X-0.5780 Y0.4611 
G01 X-0.5766 Y0.4587 
G01 X-0.5751 Y0.4530 
G01 X-0.5751 Y0.4470 
G01 X-0.5766 Y0.4413 
G01 X-0.5796 Y0.4361 
G01 X-0.6361 Y0.3796 
G01 X-0.6413 Y0.3766 
G01 X-0.6470 Y0.3751 
G01 X-0.6530 Y0.3751 
G01 X-0.6587 Y0.3766 
G01 X-0.6639 Y0.3796 
G01 X-0.6959 Y0.4116 
G01 X-0.7026 Y0.4048 
G01 X-0.7018 Y0.3996 
G01 X-0.7018 Y0.3902 
G01 X-0.7033 Y0.3809 
G01 X-0.7062 Y0.3720 
G01 X-0.7088 Y0.3670 
G01 X-0.7067 Y0.3670 
G01 X-0.6975 Y0.3655 
G01 X-0.6885 Y0.3626 
G01 X-0.6802 Y0.3584 
G01 X-0.6726 Y0.3529 
G01 X-0.6660 Y0.3462 
G01 X-0.6604 Y0.3386 
G01 X-0.6562 Y0.3303 
G01 X-0.6533 Y0.3214 
G01 X-0.6523 Y0.3152 
G01 X-0.5301 Y0.4375 
G01 X-0.5301 Y0.4870 
G01 X-0.5338 Y0.4819 
G00 Z0.0200 
G00 X-0.7710 Y0.3121 
G01 Z-0.0050 F2.50  
G01 X-0.7695 Y0.3214 
G01 X-0.7682 Y0.3256 
G01 X-0.7812 Y0.3387 
G01 X-0.7843 Y0.3397 
G01 X-0.7926 Y0.3439 
G01 X-0.8002 Y0.3494 
G01 X-0.8069 Y0.3561 
G01 X-0.8124 Y0.3637 
G01 X-0.8166 Y0.3720 
G01 X-0.8195 Y0.3809 
G01 X-0.8210 Y0.3902 
G01 X-0.8210 Y0.3996 
G01 X-0.8195 Y0.4089 
G01 X-0.8166 Y0.4178 
G01 X-0.8124 Y0.4261 
G01 X-0.8069 Y0.4337 
G01 X-0.8002 Y0.4404 
G01 X-0.7963 Y0.4432 
G01 X-1.0139 Y0.3344 
G01 X-1.0073 Y0.3311 
G01 X-0.9998 Y0.3255 
G01 X-0.9931 Y0.3189 
G01 X-0.9876 Y0.3113 
G01 X-0.9844 Y0.3051 
G01 X-0.7780 Y0.3051 
G01 X-0.7720 Y0.3051 
G01 X-0.7710 Y0.3049 
G01 X-0.7710 Y0.3121 
G00 Z0.0200 
G00 X-1.1955 Y0.3388 
G01 Z-0.0050 F2.50  
G01 X-1.1888 Y0.3455 
G01 X-1.1812 Y0.3510 
G01 X-1.1729 Y0.3552 
G01 X-1.1640 Y0.3581 
G01 X-1.1547 Y0.3596 
G01 X-1.1453 Y0.3596 
G01 X-1.1360 Y0.3581 
G01 X-1.1271 Y0.3552 
G01 X-1.1188 Y0.3510 
G01 X-1.1175 Y0.3500 
G01 X-1.0942 Y0.3734 
G01 X-1.0893 Y0.3767 
G01 X-1.0838 Y0.3789 
G01 X-1.0780 Y0.3801 
G01 X-1.0720 Y0.3801 
G01 X-1.0571 Y0.3801 
G01 X-0.6642 Y0.5766 
G01 X-0.6623 Y0.5776 
G01 X-0.6615 Y0.5779 
G01 X-0.6608 Y0.5782 
G01 X-0.6587 Y0.5788 
G01 X-0.6567 Y0.5795 
G01 X-0.6559 Y0.5796 
G01 X-0.6551 Y0.5798 
G01 X-0.6530 Y0.5800 
G01 X-0.6508 Y0.5802 
G01 X-0.6500 Y0.5802 
G01 X-0.6492 Y0.5802 
G01 X-0.6470 Y0.5800 
G01 X-0.6449 Y0.5798 
G01 X-0.6441 Y0.5796 
G01 X-0.6433 Y0.5795 
G01 X-0.6412 Y0.5788 
G01 X-0.6392 Y0.5782 
G01 X-0.6385 Y0.5779 
G01 X-0.6377 Y0.5776 
G01 X-0.6358 Y0.5766 
G01 X-0.6169 Y0.5671 
G01 X-0.6105 Y0.5717 
G01 X-0.6022 Y0.5759 
G01 X-0.5932 Y0.5788 
G01 X-0.5840 Y0.5803 
G01 X-0.5746 Y0.5803 
G01 X-0.5670 Y0.5791 
G01 X-0.5682 Y0.5867 
G01 X-0.5682 Y0.5900 
G01 X-1.0580 Y0.8699 
G01 X-1.3449 Y0.8699 
G01 X-1.3449 Y0.3301 
G01 X-1.3015 Y0.3301 
G01 X-1.3010 Y0.3312 
G01 X-1.2955 Y0.3388 
G01 X-1.2888 Y0.3455 
G01 X-1.2812 Y0.3510 
G01 X-1.2729 Y0.3552 
G01 X-1.2640 Y0.3581 
G01 X-1.2547 Y0.3596 
G01 X-1.2453 Y0.3596 
G01 X-1.2360 Y0.3581 
G01 X-1.2271 Y0.3552 
G01 X-1.2188 Y0.3510 
G01 X-1.2112 Y0.3455 
G01 X-1.2045 Y0.3388 
G01 X-1.2000 Y0.3326 
G01 X-1.1955 Y0.3388 
G00 Z0.0200 
G00 X-1.0774 Y0.2346 
G01 Z-0.0050 F2.50  
G01 X-1.0840 Y0.2413 
G01 X-1.0895 Y0.2489 
G01 X-1.0938 Y0.2572 
G01 X-1.0967 Y0.2661 
G01 X-1.0976 Y0.2716 
G01 X-1.0990 Y0.2688 
G01 X-1.1045 Y0.2612 
G01 X-1.1112 Y0.2545 
G01 X-1.1188 Y0.2490 
G01 X-1.1271 Y0.2448 
G01 X-1.1303 Y0.2437 
G01 X-1.1271 Y0.2427 
G01 X-1.1188 Y0.2385 
G01 X-1.1112 Y0.2330 
G01 X-1.1083 Y0.2301 
G01 X-1.0711 Y0.2301 
G01 X-1.0774 Y0.2346 
G00 Z0.0200 
G00 X-1.4051 Y0.9030 
G01 Z-0.0050 F2.50  
G01 X-1.4039 Y0.9088 
G01 X-1.4017 Y0.9143 
G01 X-1.3984 Y0.9192 
G01 X-1.3942 Y0.9234 
G01 X-1.3893 Y0.9267 
G01 X-1.3838 Y0.9289 
G01 X-1.3780 Y0.9301 
G01 X-1.3720 Y0.9301 
G01 X-1.0511 Y0.9301 
G01 X-1.0491 Y0.9302 
G01 X-1.0481 Y0.9301 
G01 X-1.0470 Y0.9301 
G01 X-1.0452 Y0.9297 
G01 X-1.0433 Y0.9295 
G01 X-1.0423 Y0.9291 
G01 X-1.0412 Y0.9289 
G01 X-1.0395 Y0.9282 
G01 X-1.0376 Y0.9276 
G01 X-1.0367 Y0.9271 
G01 X-1.0357 Y0.9267 
G01 X-1.0341 Y0.9256 
G01 X-0.5391 Y0.6427 
G01 X-0.5314 Y0.6466 
G01 X-0.5225 Y0.6495 
G01 X-0.5133 Y0.6510 
G01 X-0.5039 Y0.6510 
G01 X-0.4962 Y0.6498 
G01 X-0.4975 Y0.6574 
G01 X-0.4975 Y0.6668 
G01 X-0.4960 Y0.6761 
G01 X-0.4931 Y0.6850 
G01 X-0.4888 Y0.6934 
G01 X-0.4833 Y0.7009 
G01 X-0.4767 Y0.7076 
G01 X-0.4691 Y0.7131 
G01 X-0.4607 Y0.7174 
G01 X-0.4518 Y0.7203 
G01 X-0.4426 Y0.7217 
G01 X-0.4332 Y0.7217 
G01 X-0.4239 Y0.7203 
G01 X-0.4150 Y0.7174 
G01 X-0.4066 Y0.7131 
G01 X-0.3990 Y0.7076 
G01 X-0.3924 Y0.7009 
G01 X-0.3869 Y0.6934 
G01 X-0.3826 Y0.6850 
G01 X-0.3797 Y0.6761 
G01 X-0.3783 Y0.6668 
G01 X-0.3783 Y0.6574 
G01 X-0.3797 Y0.6482 
G01 X-0.3826 Y0.6393 
G01 X-0.3869 Y0.6309 
G01 X-0.3924 Y0.6233 
G01 X-0.3990 Y0.6167 
G01 X-0.4066 Y0.6112 
G01 X-0.4150 Y0.6069 
G01 X-0.4239 Y0.6040 
G01 X-0.4332 Y0.6025 
G01 X-0.4426 Y0.6025 
G01 X-0.4502 Y0.6037 
G01 X-0.4490 Y0.5961 
G01 X-0.4490 Y0.5867 
G01 X-0.4504 Y0.5775 
G01 X-0.4533 Y0.5685 
G01 X-0.4576 Y0.5602 
G01 X-0.4631 Y0.5526 
G01 X-0.4698 Y0.5460 
G01 X-0.4699 Y0.5459 
G01 X-0.4699 Y0.4220 
G01 X-0.4711 Y0.4162 
G01 X-0.4733 Y0.4107 
G01 X-0.4766 Y0.4058 
G01 X-0.4808 Y0.4016 
G01 X-0.4808 Y0.4016 
G01 X-0.6766 Y0.2058 
G01 X-0.6766 Y0.2058 
G01 X-0.6808 Y0.2016 
G01 X-0.6857 Y0.1983 
G01 X-0.6912 Y0.1961 
G01 X-0.6970 Y0.1949 
G01 X-0.7280 Y0.1949 
G01 X-0.7338 Y0.1961 
G01 X-0.7393 Y0.1983 
G01 X-0.7442 Y0.2016 
G01 X-0.7484 Y0.2058 
G01 X-0.7875 Y0.2449 
G01 X-0.9600 Y0.2449 
G01 X-0.9573 Y0.2436 
G01 X-0.9498 Y0.2380 
G01 X-0.9431 Y0.2314 
G01 X-0.9376 Y0.2238 
G01 X-0.9334 Y0.2155 
G01 X-0.9305 Y0.2065 
G01 X-0.9290 Y0.1973 
G01 X-0.9290 Y0.1879 
G01 X-0.9305 Y0.1786 
G01 X-0.9334 Y0.1697 
G01 X-0.9376 Y0.1614 
G01 X-0.9431 Y0.1538 
G01 X-0.9498 Y0.1471 
G01 X-0.9573 Y0.1416 
G01 X-0.9657 Y0.1374 
G01 X-0.9746 Y0.1345 
G01 X-0.9839 Y0.1330 
G01 X-0.9933 Y0.1330 
G01 X-1.0025 Y0.1345 
G01 X-1.0115 Y0.1374 
G01 X-1.0198 Y0.1416 
G01 X-1.0274 Y0.1471 
G01 X-1.0340 Y0.1538 
G01 X-1.0395 Y0.1614 
G01 X-1.0438 Y0.1697 
G01 X-1.0439 Y0.1699 
G01 X-1.0931 Y0.1699 
G01 X-1.0948 Y0.1646 
G01 X-1.0990 Y0.1563 
G01 X-1.1045 Y0.1487 
G01 X-1.1112 Y0.1420 
G01 X-1.1188 Y0.1365 
G01 X-1.1271 Y0.1323 
G01 X-1.1360 Y0.1294 
G01 X-1.1453 Y0.1279 
G01 X-1.1547 Y0.1279 
G01 X-1.1640 Y0.1294 
G01 X-1.1729 Y0.1323 
G01 X-1.1812 Y0.1365 
G01 X-1.1888 Y0.1420 
G01 X-1.1955 Y0.1487 
G01 X-1.2000 Y0.1549 
G01 X-1.2045 Y0.1487 
G01 X-1.2112 Y0.1420 
G01 X-1.2188 Y0.1365 
G01 X-1.2271 Y0.1323 
G01 X-1.2360 Y0.1294 
G01 X-1.2453 Y0.1279 
G01 X-1.2547 Y0.1279 
G01 X-1.2640 Y0.1294 
G01 X-1.2729 Y0.1323 
G01 X-1.2812 Y0.1365 
G01 X-1.2888 Y0.1420 
G01 X-1.2955 Y0.1487 
G01 X-1.3010 Y0.1563 
G01 X-1.3052 Y0.1646 
G01 X-1.3081 Y0.1735 
G01 X-1.3096 Y0.1828 
G01 X-1.3096 Y0.1922 
G01 X-1.3081 Y0.2015 
G01 X-1.3052 Y0.2104 
G01 X-1.3010 Y0.2187 
G01 X-1.2955 Y0.2263 
G01 X-1.2888 Y0.2330 
G01 X-1.2812 Y0.2385 
G01 X-1.2729 Y0.2427 
G01 X-1.2697 Y0.2437 
G01 X-1.2729 Y0.2448 
G01 X-1.2812 Y0.2490 
G01 X-1.2888 Y0.2545 
G01 X-1.2955 Y0.2612 
G01 X-1.3010 Y0.2688 
G01 X-1.3015 Y0.2699 
G01 X-1.3780 Y0.2699 
G01 X-1.3838 Y0.2711 
G01 X-1.3893 Y0.2733 
G01 X-1.3942 Y0.2766 
G01 X-1.3984 Y0.2808 
G01 X-1.4017 Y0.2857 
G01 X-1.4039 Y0.2912 
G01 X-1.4051 Y0.2970 
G01 X-1.4051 Y0.3030 
G01 X-1.4051 Y0.9030 
G00 Z0.0200 
G00 X-0.5366 Y0.4720 
G01 Z-0.0050 F2.50  
G01 X-0.5433 Y0.4669 
G01 X-0.5507 Y0.4626 
G01 X-0.5585 Y0.4594 
G01 X-0.5667 Y0.4572 
G01 X-0.5709 Y0.4567 
G01 X-0.5701 Y0.4527 
G01 X-0.5701 Y0.4473 
G01 X-0.5711 Y0.4419 
G01 X-0.5732 Y0.4369 
G01 X-0.5762 Y0.4324 
G01 X-0.6324 Y0.3762 
G01 X-0.6369 Y0.3732 
G01 X-0.6419 Y0.3711 
G01 X-0.6473 Y0.3701 
G01 X-0.6527 Y0.3701 
G01 X-0.6580 Y0.3711 
G01 X-0.6631 Y0.3732 
G01 X-0.6676 Y0.3762 
G01 X-0.6959 Y0.4045 
G01 X-0.6973 Y0.4030 
G01 X-0.6968 Y0.3991 
G01 X-0.6968 Y0.3907 
G01 X-0.6979 Y0.3823 
G01 X-0.7001 Y0.3741 
G01 X-0.7013 Y0.3712 
G01 X-0.6988 Y0.3709 
G01 X-0.6906 Y0.3687 
G01 X-0.6828 Y0.3655 
G01 X-0.6755 Y0.3612 
G01 X-0.6687 Y0.3561 
G01 X-0.6627 Y0.3501 
G01 X-0.6576 Y0.3434 
G01 X-0.6534 Y0.3360 
G01 X-0.6501 Y0.3282 
G01 X-0.6493 Y0.3253 
G01 X-0.5351 Y0.4395 
G01 X-0.5351 Y0.4736 
G01 X-0.5366 Y0.4720 
G00 Z0.0200 
G00 X-0.7760 Y0.3116 
G01 Z-0.0050 F2.50  
G01 X-0.7749 Y0.3200 
G01 X-0.7738 Y0.3242 
G01 X-0.7839 Y0.3343 
G01 X-0.7900 Y0.3368 
G01 X-0.7974 Y0.3411 
G01 X-0.8041 Y0.3462 
G01 X-0.8101 Y0.3522 
G01 X-0.8152 Y0.3589 
G01 X-0.8195 Y0.3663 
G01 X-0.8227 Y0.3741 
G01 X-0.8249 Y0.3823 
G01 X-0.8260 Y0.3907 
G01 X-0.8260 Y0.3991 
G01 X-0.8249 Y0.4075 
G01 X-0.8227 Y0.4157 
G01 X-0.8195 Y0.4235 
G01 X-0.8174 Y0.4270 
G01 X-1.0031 Y0.3342 
G01 X-1.0026 Y0.3339 
G01 X-0.9959 Y0.3288 
G01 X-0.9899 Y0.3228 
G01 X-0.9848 Y0.3161 
G01 X-0.9813 Y0.3101 
G01 X-0.7785 Y0.3101 
G01 X-0.7760 Y0.3101 
G01 X-0.7760 Y0.3116 
G00 Z0.0200 
G00 X-1.1987 Y0.3427 
G01 Z-0.0050 F2.50  
G01 X-1.1927 Y0.3487 
G01 X-1.1860 Y0.3538 
G01 X-1.1786 Y0.3581 
G01 X-1.1708 Y0.3613 
G01 X-1.1626 Y0.3635 
G01 X-1.1542 Y0.3646 
G01 X-1.1458 Y0.3646 
G01 X-1.1374 Y0.3635 
G01 X-1.1292 Y0.3613 
G01 X-1.1214 Y0.3581 
G01 X-1.1183 Y0.3563 
G01 X-1.0974 Y0.3773 
G01 X-1.0916 Y0.3811 
G01 X-1.0852 Y0.3837 
G01 X-1.0785 Y0.3851 
G01 X-1.0715 Y0.3851 
G01 X-1.0583 Y0.3851 
G01 X-0.6665 Y0.5810 
G01 X-0.6644 Y0.5822 
G01 X-0.6635 Y0.5825 
G01 X-0.6626 Y0.5829 
G01 X-0.6602 Y0.5836 
G01 X-0.6578 Y0.5844 
G01 X-0.6569 Y0.5845 
G01 X-0.6559 Y0.5848 
G01 X-0.6535 Y0.5849 
G01 X-0.6510 Y0.5852 
G01 X-0.6500 Y0.5852 
G01 X-0.6490 Y0.5852 
G01 X-0.6465 Y0.5849 
G01 X-0.6441 Y0.5848 
G01 X-0.6431 Y0.5845 
G01 X-0.6422 Y0.5844 
G01 X-0.6398 Y0.5836 
G01 X-0.6374 Y0.5829 
G01 X-0.6365 Y0.5825 
G01 X-0.6356 Y0.5822 
G01 X-0.6335 Y0.5810 
G01 X-0.6174 Y0.5729 
G01 X-0.6152 Y0.5745 
G01 X-0.6079 Y0.5788 
G01 X-0.6001 Y0.5820 
G01 X-0.5919 Y0.5842 
G01 X-0.5835 Y0.5853 
G01 X-0.5751 Y0.5853 
G01 X-0.5729 Y0.5850 
G01 X-0.5732 Y0.5871 
G01 X-1.0593 Y0.8649 
G01 X-1.3399 Y0.8649 
G01 X-1.3399 Y0.3351 
G01 X-1.3043 Y0.3351 
G01 X-1.3038 Y0.3360 
G01 X-1.2987 Y0.3427 
G01 X-1.2927 Y0.3487 
G01 X-1.2860 Y0.3538 
G01 X-1.2786 Y0.3581 
G01 X-1.2708 Y0.3613 
G01 X-1.2626 Y0.3635 
G01 X-1.2542 Y0.3646 
G01 X-1.2458 Y0.3646 
G01 X-1.2374 Y0.3635 
G01 X-1.2292 Y0.3613 
G01 X-1.2214 Y0.3581 
G01 X-1.2140 Y0.3538 
G01 X-1.2073 Y0.3487 
G01 X-1.2013 Y0.3427 
G01 X-1.2000 Y0.3409 
G01 X-1.1987 Y0.3427 
G00 Z0.0200 
G00 X-1.0872 Y0.2374 
G01 Z-0.0050 F2.50  
G01 X-1.0924 Y0.2441 
G01 X-1.0966 Y0.2515 
G01 X-1.0999 Y0.2592 
G01 X-1.1013 Y0.2573 
G01 X-1.1073 Y0.2513 
G01 X-1.1140 Y0.2462 
G01 X-1.1182 Y0.2437 
G01 X-1.1140 Y0.2413 
G01 X-1.1073 Y0.2362 
G01 X-1.1062 Y0.2351 
G01 X-1.0849 Y0.2351 
G01 X-1.0872 Y0.2374 
G00 Z0.0200 
G00 X-0.7488 Y0.4584 
G01 Z-0.0050 F2.50  
G01 X-0.7428 Y0.4568 
G01 X-0.7277 Y0.4719 
G01 X-0.7535 Y0.4590 
G01 X-0.7488 Y0.4584 
G00 Z0.0200 
G00 X-1.4101 Y0.9035 
G01 Z-0.0050 F2.50  
G01 X-1.4087 Y0.9102 
G01 X-1.4061 Y0.9166 
G01 X-1.4023 Y0.9224 
G01 X-1.3974 Y0.9273 
G01 X-1.3916 Y0.9311 
G01 X-1.3852 Y0.9337 
G01 X-1.3785 Y0.9351 
G01 X-1.3715 Y0.9351 
G01 X-1.0512 Y0.9351 
G01 X-1.0490 Y0.9352 
G01 X-1.0478 Y0.9351 
G01 X-1.0465 Y0.9351 
G01 X-1.0444 Y0.9347 
G01 X-1.0421 Y0.9344 
G01 X-1.0410 Y0.9340 
G01 X-1.0398 Y0.9337 
G01 X-1.0377 Y0.9329 
G01 X-1.0356 Y0.9322 
G01 X-1.0345 Y0.9316 
G01 X-1.0334 Y0.9311 
G01 X-1.0315 Y0.9298 
G01 X-0.5390 Y0.6484 
G01 X-0.5372 Y0.6495 
G01 X-0.5294 Y0.6527 
G01 X-0.5212 Y0.6549 
G01 X-0.5128 Y0.6560 
G01 X-0.5043 Y0.6560 
G01 X-0.5022 Y0.6557 
G01 X-0.5025 Y0.6579 
G01 X-0.5025 Y0.6664 
G01 X-0.5014 Y0.6748 
G01 X-0.4992 Y0.6829 
G01 X-0.4959 Y0.6908 
G01 X-0.4917 Y0.6981 
G01 X-0.4865 Y0.7048 
G01 X-0.4805 Y0.7108 
G01 X-0.4738 Y0.7159 
G01 X-0.4665 Y0.7202 
G01 X-0.4587 Y0.7234 
G01 X-0.4505 Y0.7256 
G01 X-0.4421 Y0.7267 
G01 X-0.4336 Y0.7267 
G01 X-0.4252 Y0.7256 
G01 X-0.4171 Y0.7234 
G01 X-0.4092 Y0.7202 
G01 X-0.4019 Y0.7159 
G01 X-0.3952 Y0.7108 
G01 X-0.3892 Y0.7048 
G01 X-0.3840 Y0.6981 
G01 X-0.3798 Y0.6908 
G01 X-0.3766 Y0.6829 
G01 X-0.3744 Y0.6748 
G01 X-0.3733 Y0.6664 
G01 X-0.3733 Y0.6579 
G01 X-0.3744 Y0.6495 
G01 X-0.3766 Y0.6413 
G01 X-0.3798 Y0.6335 
G01 X-0.3840 Y0.6262 
G01 X-0.3892 Y0.6194 
G01 X-0.3952 Y0.6135 
G01 X-0.4019 Y0.6083 
G01 X-0.4092 Y0.6041 
G01 X-0.4171 Y0.6008 
G01 X-0.4252 Y0.5986 
G01 X-0.4336 Y0.5975 
G01 X-0.4421 Y0.5975 
G01 X-0.4443 Y0.5978 
G01 X-0.4440 Y0.5957 
G01 X-0.4440 Y0.5872 
G01 X-0.4451 Y0.5788 
G01 X-0.4473 Y0.5706 
G01 X-0.4505 Y0.5628 
G01 X-0.4548 Y0.5555 
G01 X-0.4599 Y0.5487 
G01 X-0.4649 Y0.5437 
G01 X-0.4649 Y0.4215 
G01 X-0.4663 Y0.4148 
G01 X-0.4689 Y0.4084 
G01 X-0.4727 Y0.4026 
G01 X-0.4776 Y0.3977 
G01 X-0.4776 Y0.3977 
G01 X-0.6727 Y0.2026 
G01 X-0.6727 Y0.2026 
G01 X-0.6776 Y0.1977 
G01 X-0.6834 Y0.1939 
G01 X-0.6898 Y0.1913 
G01 X-0.6965 Y0.1899 
G01 X-0.7285 Y0.1899 
G01 X-0.7352 Y0.1913 
G01 X-0.7416 Y0.1939 
G01 X-0.7474 Y0.1977 
G01 X-0.7523 Y0.2026 
G01 X-0.7895 Y0.2399 
G01 X-0.9445 Y0.2399 
G01 X-0.9399 Y0.2353 
G01 X-0.9348 Y0.2286 
G01 X-0.9305 Y0.2212 
G01 X-0.9273 Y0.2134 
G01 X-0.9251 Y0.2052 
G01 X-0.9240 Y0.1968 
G01 X-0.9240 Y0.1884 
G01 X-0.9251 Y0.1800 
G01 X-0.9273 Y0.1718 
G01 X-0.9305 Y0.1640 
G01 X-0.9348 Y0.1566 
G01 X-0.9399 Y0.1499 
G01 X-0.9459 Y0.1439 
G01 X-0.9526 Y0.1388 
G01 X-0.9599 Y0.1345 
G01 X-0.9678 Y0.1313 
G01 X-0.9759 Y0.1291 
G01 X-0.9843 Y0.1280 
G01 X-0.9928 Y0.1280 
G01 X-1.0012 Y0.1291 
G01 X-1.0094 Y0.1313 
G01 X-1.0172 Y0.1345 
G01 X-1.0245 Y0.1388 
G01 X-1.0313 Y0.1439 
G01 X-1.0372 Y0.1499 
G01 X-1.0424 Y0.1566 
G01 X-1.0466 Y0.1640 
G01 X-1.0470 Y0.1649 
G01 X-1.0894 Y0.1649 
G01 X-1.0919 Y0.1589 
G01 X-1.0962 Y0.1515 
G01 X-1.1013 Y0.1448 
G01 X-1.1073 Y0.1388 
G01 X-1.1140 Y0.1337 
G01 X-1.1214 Y0.1294 
G01 X-1.1292 Y0.1262 
G01 X-1.1374 Y0.1240 
G01 X-1.1458 Y0.1229 
G01 X-1.1542 Y0.1229 
G01 X-1.1626 Y0.1240 
G01 X-1.1708 Y0.1262 
G01 X-1.1786 Y0.1294 
G01 X-1.1860 Y0.1337 
G01 X-1.1927 Y0.1388 
G01 X-1.1987 Y0.1448 
G01 X-1.2000 Y0.1466 
G01 X-1.2013 Y0.1448 
G01 X-1.2073 Y0.1388 
G01 X-1.2140 Y0.1337 
G01 X-1.2214 Y0.1294 
G01 X-1.2292 Y0.1262 
G01 X-1.2374 Y0.1240 
G01 X-1.2458 Y0.1229 
G01 X-1.2542 Y0.1229 
G01 X-1.2626 Y0.1240 
G01 X-1.2708 Y0.1262 
G01 X-1.2786 Y0.1294 
G01 X-1.2860 Y0.1337 
G01 X-1.2927 Y0.1388 
G01 X-1.2987 Y0.1448 
G01 X-1.3038 Y0.1515 
G01 X-1.3081 Y0.1589 
G01 X-1.3113 Y0.1667 
G01 X-1.3135 Y0.1749 
G01 X-1.3146 Y0.1833 
G01 X-1.3146 Y0.1917 
G01 X-1.3135 Y0.2001 
G01 X-1.3113 Y0.2083 
G01 X-1.3081 Y0.2161 
G01 X-1.3038 Y0.2235 
G01 X-1.2987 Y0.2302 
G01 X-1.2927 Y0.2362 
G01 X-1.2860 Y0.2413 
G01 X-1.2818 Y0.2437 
G01 X-1.2860 Y0.2462 
G01 X-1.2927 Y0.2513 
G01 X-1.2987 Y0.2573 
G01 X-1.3038 Y0.2640 
G01 X-1.3043 Y0.2649 
G01 X-1.3785 Y0.2649 
G01 X-1.3852 Y0.2663 
G01 X-1.3916 Y0.2689 
G01 X-1.3974 Y0.2727 
G01 X-1.4023 Y0.2776 
G01 X-1.4061 Y0.2834 
G01 X-1.4087 Y0.2898 
G01 X-1.4101 Y0.2965 
G01 X-1.4101 Y0.3035 
G01 X-1.4101 Y0.9035 
(File Footer)
G00 Z0.0200 
G00 Z0.5000 
M05
M02
