(/Applications/EAGLE/ulp/pcb-gcode.ulp)
(Copyright 2005 - 2009 by John Johnson)
(See readme.txt for licensing terms.)
(This file generated from the board:)
(.../eagle/color factory/rgb_led.brd)
(Current profile is /Applications/EAGLE/ulp/profiles/emc.pp  )
(This file generated 2/13/10 1:50 PM)
G20
(Absolute Coordinates)
G90
G00 X0.0000 Y0.0000 
M03
G04 P1.000000
G00 Z0.0200 
G00 X-0.6235 Y0.4647 
G01 Z-0.0050 F3.00  
G01 X-0.6235 Y0.5093 F2.50  
G01 X-0.6226 Y0.5139 
G01 X-0.6208 Y0.5181 
G01 X-0.6183 Y0.5220 
G01 X-0.6150 Y0.5253 
G01 X-0.6111 Y0.5278 
G01 X-0.6069 Y0.5296 
G01 X-0.6023 Y0.5305 
G01 X-0.5977 Y0.5305 
G01 X-0.5931 Y0.5296 
G01 X-0.5889 Y0.5278 
G01 X-0.5850 Y0.5253 
G01 X-0.5817 Y0.5220 
G01 X-0.5792 Y0.5181 
G01 X-0.5774 Y0.5139 
G01 X-0.5765 Y0.5093 
G01 X-0.5765 Y0.4647 
G01 X-0.5774 Y0.4601 
G01 X-0.5788 Y0.4568 
G01 X-0.5454 Y0.4235 
G01 X-0.5139 Y0.4235 
G01 X-0.5110 Y0.4235 
G01 X-0.5083 Y0.4227 
G01 X-0.5057 Y0.4213 
G01 X-0.3574 Y0.2729 
G01 X-0.3567 Y0.2734 
G01 X-0.3493 Y0.2764 
G01 X-0.3415 Y0.2780 
G01 X-0.3335 Y0.2780 
G01 X-0.3257 Y0.2764 
G01 X-0.3183 Y0.2734 
G01 X-0.3117 Y0.2690 
G01 X-0.3060 Y0.2633 
G01 X-0.3016 Y0.2567 
G01 X-0.2986 Y0.2493 
G01 X-0.2970 Y0.2415 
G01 X-0.2970 Y0.2335 
G01 X-0.2986 Y0.2257 
G01 X-0.3016 Y0.2183 
G01 X-0.3060 Y0.2117 
G01 X-0.3117 Y0.2060 
G01 X-0.3183 Y0.2016 
G01 X-0.3257 Y0.1986 
G01 X-0.3335 Y0.1970 
G01 X-0.3415 Y0.1970 
G01 X-0.3493 Y0.1986 
G01 X-0.3567 Y0.2016 
G01 X-0.3633 Y0.2060 
G01 X-0.3690 Y0.2117 
G01 X-0.3734 Y0.2183 
G01 X-0.3764 Y0.2257 
G01 X-0.3780 Y0.2335 
G01 X-0.3780 Y0.2415 
G01 X-0.3764 Y0.2493 
G01 X-0.3734 Y0.2567 
G01 X-0.3729 Y0.2574 
G01 X-0.5171 Y0.4015 
G01 X-0.5514 Y0.4015 
G01 X-0.5542 Y0.4022 
G01 X-0.5568 Y0.4037 
G01 X-0.5588 Y0.4057 
G01 X-0.5967 Y0.4437 
G01 X-0.5977 Y0.4435 
G01 X-0.6023 Y0.4435 
G01 X-0.6069 Y0.4444 
G01 X-0.6111 Y0.4462 
G01 X-0.6150 Y0.4487 
G01 X-0.6183 Y0.4520 
G01 X-0.6208 Y0.4559 
G01 X-0.6226 Y0.4601 
G01 X-0.6235 Y0.4647 
G00 Z0.0200 
G00 X-0.5245 Y0.7003 
G01 Z-0.0050 F3.00  
G01 X-0.5245 Y0.6970 F2.50  
G01 X-0.4860 Y0.7356 
G01 X-0.4860 Y0.9579 
G01 X-0.5046 Y0.9765 
G01 X-0.6954 Y0.9765 
G01 X-0.7271 Y0.9449 
G01 X-0.7266 Y0.9442 
G01 X-0.7236 Y0.9368 
G01 X-0.7220 Y0.9290 
G01 X-0.7220 Y0.9210 
G01 X-0.7236 Y0.9132 
G01 X-0.7266 Y0.9058 
G01 X-0.7310 Y0.8992 
G01 X-0.7367 Y0.8935 
G01 X-0.7433 Y0.8891 
G01 X-0.7507 Y0.8861 
G01 X-0.7585 Y0.8845 
G01 X-0.7665 Y0.8845 
G01 X-0.7743 Y0.8861 
G01 X-0.7817 Y0.8891 
G01 X-0.7883 Y0.8935 
G01 X-0.7940 Y0.8992 
G01 X-0.7984 Y0.9058 
G01 X-0.8014 Y0.9132 
G01 X-0.8030 Y0.9210 
G01 X-0.8030 Y0.9290 
G01 X-0.8014 Y0.9368 
G01 X-0.7984 Y0.9442 
G01 X-0.7940 Y0.9508 
G01 X-0.7883 Y0.9565 
G01 X-0.7817 Y0.9609 
G01 X-0.7743 Y0.9639 
G01 X-0.7665 Y0.9655 
G01 X-0.7585 Y0.9655 
G01 X-0.7507 Y0.9639 
G01 X-0.7433 Y0.9609 
G01 X-0.7426 Y0.9604 
G01 X-0.7068 Y0.9963 
G01 X-0.7042 Y0.9977 
G01 X-0.7014 Y0.9985 
G01 X-0.6985 Y0.9985 
G01 X-0.4985 Y0.9985 
G01 X-0.4958 Y0.9977 
G01 X-0.4932 Y0.9963 
G01 X-0.4912 Y0.9943 
G01 X-0.4662 Y0.9693 
G01 X-0.4647 Y0.9667 
G01 X-0.4640 Y0.9639 
G01 X-0.4640 Y0.9610 
G01 X-0.4640 Y0.7295 
G01 X-0.4647 Y0.7268 
G01 X-0.4662 Y0.7242 
G01 X-0.4682 Y0.7222 
G01 X-0.5245 Y0.6659 
G01 X-0.5245 Y0.6557 
G01 X-0.5254 Y0.6511 
G01 X-0.5272 Y0.6469 
G01 X-0.5297 Y0.6430 
G01 X-0.5330 Y0.6397 
G01 X-0.5369 Y0.6372 
G01 X-0.5411 Y0.6354 
G01 X-0.5457 Y0.6345 
G01 X-0.5503 Y0.6345 
G01 X-0.5549 Y0.6354 
G01 X-0.5591 Y0.6372 
G01 X-0.5630 Y0.6397 
G01 X-0.5663 Y0.6430 
G01 X-0.5688 Y0.6469 
G01 X-0.5706 Y0.6511 
G01 X-0.5715 Y0.6557 
G01 X-0.5715 Y0.7003 
G01 X-0.5706 Y0.7049 
G01 X-0.5688 Y0.7091 
G01 X-0.5663 Y0.7130 
G01 X-0.5630 Y0.7163 
G01 X-0.5591 Y0.7188 
G01 X-0.5549 Y0.7206 
G01 X-0.5503 Y0.7215 
G01 X-0.5457 Y0.7215 
G01 X-0.5411 Y0.7206 
G01 X-0.5369 Y0.7188 
G01 X-0.5330 Y0.7163 
G01 X-0.5297 Y0.7130 
G01 X-0.5272 Y0.7091 
G01 X-0.5254 Y0.7049 
G01 X-0.5245 Y0.7003 
G00 Z0.0200 
G00 X-0.5235 Y0.4647 
G01 Z-0.0050 F3.00  
G01 X-0.5235 Y0.5093 F2.50  
G01 X-0.5226 Y0.5139 
G01 X-0.5208 Y0.5181 
G01 X-0.5183 Y0.5220 
G01 X-0.5150 Y0.5253 
G01 X-0.5111 Y0.5278 
G01 X-0.5069 Y0.5296 
G01 X-0.5023 Y0.5305 
G01 X-0.4977 Y0.5305 
G01 X-0.4931 Y0.5296 
G01 X-0.4889 Y0.5278 
G01 X-0.4850 Y0.5253 
G01 X-0.4817 Y0.5220 
G01 X-0.4792 Y0.5181 
G01 X-0.4774 Y0.5139 
G01 X-0.4765 Y0.5093 
G01 X-0.4765 Y0.4647 
G01 X-0.4774 Y0.4601 
G01 X-0.4788 Y0.4568 
G01 X-0.3829 Y0.3610 
G01 X-0.3016 Y0.3610 
G01 X-0.3014 Y0.3618 
G01 X-0.2984 Y0.3692 
G01 X-0.2940 Y0.3758 
G01 X-0.2883 Y0.3815 
G01 X-0.2817 Y0.3859 
G01 X-0.2743 Y0.3889 
G01 X-0.2665 Y0.3905 
G01 X-0.2585 Y0.3905 
G01 X-0.2507 Y0.3889 
G01 X-0.2433 Y0.3859 
G01 X-0.2367 Y0.3815 
G01 X-0.2310 Y0.3758 
G01 X-0.2266 Y0.3692 
G01 X-0.2236 Y0.3618 
G01 X-0.2220 Y0.3540 
G01 X-0.2220 Y0.3460 
G01 X-0.2236 Y0.3382 
G01 X-0.2266 Y0.3308 
G01 X-0.2310 Y0.3242 
G01 X-0.2367 Y0.3185 
G01 X-0.2433 Y0.3141 
G01 X-0.2507 Y0.3111 
G01 X-0.2585 Y0.3095 
G01 X-0.2665 Y0.3095 
G01 X-0.2743 Y0.3111 
G01 X-0.2817 Y0.3141 
G01 X-0.2883 Y0.3185 
G01 X-0.2940 Y0.3242 
G01 X-0.2984 Y0.3308 
G01 X-0.3014 Y0.3382 
G01 X-0.3016 Y0.3390 
G01 X-0.3889 Y0.3390 
G01 X-0.3917 Y0.3397 
G01 X-0.3943 Y0.3412 
G01 X-0.3963 Y0.3432 
G01 X-0.4967 Y0.4437 
G01 X-0.4977 Y0.4435 
G01 X-0.5023 Y0.4435 
G01 X-0.5069 Y0.4444 
G01 X-0.5111 Y0.4462 
G01 X-0.5150 Y0.4487 
G01 X-0.5183 Y0.4520 
G01 X-0.5208 Y0.4559 
G01 X-0.5226 Y0.4601 
G01 X-0.5235 Y0.4647 
G00 Z0.0200 
G00 X-0.2780 Y0.8210 
G01 Z-0.0050 F3.00  
G01 X-0.2780 Y0.8290 F2.50  
G01 X-0.2764 Y0.8368 
G01 X-0.2734 Y0.8442 
G01 X-0.2690 Y0.8508 
G01 X-0.2633 Y0.8565 
G01 X-0.2567 Y0.8609 
G01 X-0.2493 Y0.8639 
G01 X-0.2415 Y0.8655 
G01 X-0.2335 Y0.8655 
G01 X-0.2257 Y0.8639 
G01 X-0.2183 Y0.8609 
G01 X-0.2117 Y0.8565 
G01 X-0.2060 Y0.8508 
G01 X-0.2016 Y0.8442 
G01 X-0.1986 Y0.8368 
G01 X-0.1970 Y0.8290 
G01 X-0.1970 Y0.8210 
G01 X-0.1986 Y0.8132 
G01 X-0.2016 Y0.8058 
G01 X-0.2060 Y0.7992 
G01 X-0.2117 Y0.7935 
G01 X-0.2183 Y0.7891 
G01 X-0.2257 Y0.7861 
G01 X-0.2335 Y0.7845 
G01 X-0.2415 Y0.7845 
G01 X-0.2485 Y0.7859 
G01 X-0.4307 Y0.6037 
G01 X-0.4333 Y0.6022 
G01 X-0.4360 Y0.6015 
G01 X-0.4389 Y0.6015 
G01 X-0.6049 Y0.6015 
G01 X-0.6077 Y0.6022 
G01 X-0.6103 Y0.6037 
G01 X-0.6123 Y0.6057 
G01 X-0.6420 Y0.6355 
G01 X-0.6421 Y0.6354 
G01 X-0.6467 Y0.6345 
G01 X-0.6513 Y0.6345 
G01 X-0.6559 Y0.6354 
G01 X-0.6601 Y0.6372 
G01 X-0.6640 Y0.6397 
G01 X-0.6673 Y0.6430 
G01 X-0.6698 Y0.6469 
G01 X-0.6716 Y0.6511 
G01 X-0.6725 Y0.6557 
G01 X-0.6725 Y0.7003 
G01 X-0.6716 Y0.7049 
G01 X-0.6698 Y0.7091 
G01 X-0.6673 Y0.7130 
G01 X-0.6640 Y0.7163 
G01 X-0.6601 Y0.7188 
G01 X-0.6559 Y0.7206 
G01 X-0.6513 Y0.7215 
G01 X-0.6467 Y0.7215 
G01 X-0.6421 Y0.7206 
G01 X-0.6379 Y0.7188 
G01 X-0.6340 Y0.7163 
G01 X-0.6307 Y0.7130 
G01 X-0.6282 Y0.7091 
G01 X-0.6264 Y0.7049 
G01 X-0.6255 Y0.7003 
G01 X-0.6255 Y0.6557 
G01 X-0.6264 Y0.6511 
G01 X-0.6265 Y0.6510 
G01 X-0.5989 Y0.6235 
G01 X-0.4421 Y0.6235 
G01 X-0.2677 Y0.7979 
G01 X-0.2690 Y0.7992 
G01 X-0.2734 Y0.8058 
G01 X-0.2764 Y0.8132 
G01 X-0.2780 Y0.8210 
G00 Z0.0200 
G00 X-0.6780 Y0.2335 
G01 Z-0.0050 F3.00  
G01 X-0.6780 Y0.2415 F2.50  
G01 X-0.6764 Y0.2493 
G01 X-0.6734 Y0.2567 
G01 X-0.6690 Y0.2633 
G01 X-0.6633 Y0.2690 
G01 X-0.6610 Y0.2705 
G01 X-0.6610 Y0.3704 
G01 X-0.8088 Y0.5182 
G01 X-0.8102 Y0.5208 
G01 X-0.8110 Y0.5235 
G01 X-0.8110 Y0.5264 
G01 X-0.8110 Y0.7985 
G01 X-0.8110 Y0.8014 
G01 X-0.8102 Y0.8042 
G01 X-0.8088 Y0.8068 
G01 X-0.8016 Y0.8140 
G01 X-0.8030 Y0.8210 
G01 X-0.8030 Y0.8290 
G01 X-0.8014 Y0.8368 
G01 X-0.7984 Y0.8442 
G01 X-0.7940 Y0.8508 
G01 X-0.7883 Y0.8565 
G01 X-0.7817 Y0.8609 
G01 X-0.7743 Y0.8639 
G01 X-0.7665 Y0.8655 
G01 X-0.7585 Y0.8655 
G01 X-0.7507 Y0.8639 
G01 X-0.7433 Y0.8609 
G01 X-0.7367 Y0.8565 
G01 X-0.7310 Y0.8508 
G01 X-0.7266 Y0.8442 
G01 X-0.7236 Y0.8368 
G01 X-0.7220 Y0.8290 
G01 X-0.7220 Y0.8210 
G01 X-0.7236 Y0.8132 
G01 X-0.7266 Y0.8058 
G01 X-0.7310 Y0.7992 
G01 X-0.7367 Y0.7935 
G01 X-0.7433 Y0.7891 
G01 X-0.7507 Y0.7861 
G01 X-0.7585 Y0.7845 
G01 X-0.7665 Y0.7845 
G01 X-0.7743 Y0.7861 
G01 X-0.7817 Y0.7891 
G01 X-0.7883 Y0.7935 
G01 X-0.7890 Y0.7942 
G01 X-0.7890 Y0.5296 
G01 X-0.6412 Y0.3818 
G01 X-0.6397 Y0.3792 
G01 X-0.6390 Y0.3764 
G01 X-0.6390 Y0.3735 
G01 X-0.6390 Y0.2780 
G01 X-0.6335 Y0.2780 
G01 X-0.6257 Y0.2764 
G01 X-0.6183 Y0.2734 
G01 X-0.6117 Y0.2690 
G01 X-0.6060 Y0.2633 
G01 X-0.6016 Y0.2567 
G01 X-0.5986 Y0.2493 
G01 X-0.5970 Y0.2415 
G01 X-0.5970 Y0.2335 
G01 X-0.5986 Y0.2257 
G01 X-0.6016 Y0.2183 
G01 X-0.6060 Y0.2117 
G01 X-0.6117 Y0.2060 
G01 X-0.6183 Y0.2016 
G01 X-0.6257 Y0.1986 
G01 X-0.6335 Y0.1970 
G01 X-0.6415 Y0.1970 
G01 X-0.6493 Y0.1986 
G01 X-0.6567 Y0.2016 
G01 X-0.6633 Y0.2060 
G01 X-0.6690 Y0.2117 
G01 X-0.6734 Y0.2183 
G01 X-0.6764 Y0.2257 
G01 X-0.6780 Y0.2335 
G00 Z0.0200 
G00 X-0.7030 Y0.8210 
G01 Z-0.0050 F3.00  
G01 X-0.7030 Y0.8290 F2.50  
G01 X-0.7014 Y0.8368 
G01 X-0.6984 Y0.8442 
G01 X-0.6940 Y0.8508 
G01 X-0.6883 Y0.8565 
G01 X-0.6817 Y0.8609 
G01 X-0.6743 Y0.8639 
G01 X-0.6665 Y0.8655 
G01 X-0.6585 Y0.8655 
G01 X-0.6507 Y0.8639 
G01 X-0.6433 Y0.8609 
G01 X-0.6367 Y0.8565 
G01 X-0.6310 Y0.8508 
G01 X-0.6266 Y0.8442 
G01 X-0.6236 Y0.8368 
G01 X-0.6220 Y0.8290 
G01 X-0.6220 Y0.8210 
G01 X-0.6236 Y0.8132 
G01 X-0.6266 Y0.8058 
G01 X-0.6310 Y0.7992 
G01 X-0.6367 Y0.7935 
G01 X-0.6433 Y0.7891 
G01 X-0.6507 Y0.7861 
G01 X-0.6585 Y0.7845 
G01 X-0.6665 Y0.7845 
G01 X-0.6743 Y0.7861 
G01 X-0.6817 Y0.7891 
G01 X-0.6883 Y0.7935 
G01 X-0.6896 Y0.7948 
G01 X-0.7390 Y0.7454 
G01 X-0.7390 Y0.5296 
G01 X-0.5896 Y0.3802 
G01 X-0.5883 Y0.3815 
G01 X-0.5817 Y0.3859 
G01 X-0.5743 Y0.3889 
G01 X-0.5665 Y0.3905 
G01 X-0.5585 Y0.3905 
G01 X-0.5507 Y0.3889 
G01 X-0.5433 Y0.3859 
G01 X-0.5367 Y0.3815 
G01 X-0.5310 Y0.3758 
G01 X-0.5266 Y0.3692 
G01 X-0.5236 Y0.3618 
G01 X-0.5220 Y0.3540 
G01 X-0.5220 Y0.3460 
G01 X-0.5236 Y0.3382 
G01 X-0.5266 Y0.3308 
G01 X-0.5310 Y0.3242 
G01 X-0.5367 Y0.3185 
G01 X-0.5433 Y0.3141 
G01 X-0.5507 Y0.3111 
G01 X-0.5585 Y0.3095 
G01 X-0.5665 Y0.3095 
G01 X-0.5743 Y0.3111 
G01 X-0.5817 Y0.3141 
G01 X-0.5883 Y0.3185 
G01 X-0.5940 Y0.3242 
G01 X-0.5984 Y0.3308 
G01 X-0.6014 Y0.3382 
G01 X-0.6030 Y0.3460 
G01 X-0.6030 Y0.3540 
G01 X-0.6016 Y0.3610 
G01 X-0.7568 Y0.5162 
G01 X-0.7588 Y0.5182 
G01 X-0.7602 Y0.5208 
G01 X-0.7610 Y0.5235 
G01 X-0.7610 Y0.7485 
G01 X-0.7610 Y0.7514 
G01 X-0.7602 Y0.7542 
G01 X-0.7588 Y0.7568 
G01 X-0.7016 Y0.8140 
G01 X-0.7030 Y0.8210 
G00 Z0.0200 
G00 X-0.7030 Y0.9210 
G01 Z-0.0050 F3.00  
G01 X-0.7030 Y0.9290 F2.50  
G01 X-0.7014 Y0.9368 
G01 X-0.6984 Y0.9442 
G01 X-0.6940 Y0.9508 
G01 X-0.6883 Y0.9565 
G01 X-0.6817 Y0.9609 
G01 X-0.6743 Y0.9639 
G01 X-0.6665 Y0.9655 
G01 X-0.6585 Y0.9655 
G01 X-0.6507 Y0.9639 
G01 X-0.6433 Y0.9609 
G01 X-0.6367 Y0.9565 
G01 X-0.6310 Y0.9508 
G01 X-0.6266 Y0.9442 
G01 X-0.6236 Y0.9368 
G01 X-0.6234 Y0.9360 
G01 X-0.6014 Y0.9360 
G01 X-0.5985 Y0.9360 
G01 X-0.5958 Y0.9352 
G01 X-0.5932 Y0.9338 
G01 X-0.5307 Y0.8713 
G01 X-0.5287 Y0.8693 
G01 X-0.5272 Y0.8667 
G01 X-0.5265 Y0.8641 
G01 X-0.5257 Y0.8639 
G01 X-0.5183 Y0.8609 
G01 X-0.5117 Y0.8565 
G01 X-0.5060 Y0.8508 
G01 X-0.5016 Y0.8442 
G01 X-0.4986 Y0.8368 
G01 X-0.4970 Y0.8290 
G01 X-0.4970 Y0.8210 
G01 X-0.4986 Y0.8132 
G01 X-0.5016 Y0.8058 
G01 X-0.5060 Y0.7992 
G01 X-0.5117 Y0.7935 
G01 X-0.5183 Y0.7891 
G01 X-0.5257 Y0.7861 
G01 X-0.5335 Y0.7845 
G01 X-0.5415 Y0.7845 
G01 X-0.5493 Y0.7861 
G01 X-0.5567 Y0.7891 
G01 X-0.5633 Y0.7935 
G01 X-0.5690 Y0.7992 
G01 X-0.5734 Y0.8058 
G01 X-0.5764 Y0.8132 
G01 X-0.5780 Y0.8210 
G01 X-0.5780 Y0.8290 
G01 X-0.5764 Y0.8368 
G01 X-0.5734 Y0.8442 
G01 X-0.5690 Y0.8508 
G01 X-0.5633 Y0.8565 
G01 X-0.5567 Y0.8609 
G01 X-0.5530 Y0.8624 
G01 X-0.6046 Y0.9140 
G01 X-0.6234 Y0.9140 
G01 X-0.6236 Y0.9132 
G01 X-0.6266 Y0.9058 
G01 X-0.6310 Y0.8992 
G01 X-0.6367 Y0.8935 
G01 X-0.6433 Y0.8891 
G01 X-0.6507 Y0.8861 
G01 X-0.6585 Y0.8845 
G01 X-0.6665 Y0.8845 
G01 X-0.6743 Y0.8861 
G01 X-0.6817 Y0.8891 
G01 X-0.6883 Y0.8935 
G01 X-0.6940 Y0.8992 
G01 X-0.6984 Y0.9058 
G01 X-0.7014 Y0.9132 
G01 X-0.7030 Y0.9210 
G00 Z0.0200 
G00 X-0.7080 Y0.8214 
G01 Z-0.0050 F3.00  
G01 X-0.7080 Y0.8286 F2.50  
G01 X-0.7069 Y0.8357 
G01 X-0.7047 Y0.8425 
G01 X-0.7014 Y0.8488 
G01 X-0.6972 Y0.8546 
G01 X-0.6921 Y0.8597 
G01 X-0.6863 Y0.8639 
G01 X-0.6800 Y0.8672 
G01 X-0.6732 Y0.8694 
G01 X-0.6661 Y0.8705 
G01 X-0.6589 Y0.8705 
G01 X-0.6518 Y0.8694 
G01 X-0.6450 Y0.8672 
G01 X-0.6386 Y0.8639 
G01 X-0.6329 Y0.8597 
G01 X-0.6278 Y0.8546 
G01 X-0.6236 Y0.8488 
G01 X-0.6203 Y0.8425 
G01 X-0.6181 Y0.8357 
G01 X-0.6170 Y0.8286 
G01 X-0.6170 Y0.8214 
G01 X-0.6181 Y0.8143 
G01 X-0.6203 Y0.8075 
G01 X-0.6236 Y0.8011 
G01 X-0.6278 Y0.7954 
G01 X-0.6329 Y0.7903 
G01 X-0.6386 Y0.7861 
G01 X-0.6450 Y0.7828 
G01 X-0.6518 Y0.7806 
G01 X-0.6589 Y0.7795 
G01 X-0.6661 Y0.7795 
G01 X-0.6732 Y0.7806 
G01 X-0.6800 Y0.7828 
G01 X-0.6863 Y0.7861 
G01 X-0.6892 Y0.7882 
G01 X-0.7340 Y0.7434 
G01 X-0.7340 Y0.5316 
G01 X-0.5892 Y0.3868 
G01 X-0.5863 Y0.3889 
G01 X-0.5800 Y0.3922 
G01 X-0.5732 Y0.3944 
G01 X-0.5661 Y0.3955 
G01 X-0.5589 Y0.3955 
G01 X-0.5518 Y0.3944 
G01 X-0.5450 Y0.3922 
G01 X-0.5386 Y0.3889 
G01 X-0.5329 Y0.3847 
G01 X-0.5278 Y0.3796 
G01 X-0.5236 Y0.3738 
G01 X-0.5203 Y0.3675 
G01 X-0.5181 Y0.3607 
G01 X-0.5170 Y0.3536 
G01 X-0.5170 Y0.3464 
G01 X-0.5181 Y0.3393 
G01 X-0.5203 Y0.3325 
G01 X-0.5236 Y0.3261 
G01 X-0.5278 Y0.3204 
G01 X-0.5329 Y0.3153 
G01 X-0.5386 Y0.3111 
G01 X-0.5450 Y0.3078 
G01 X-0.5518 Y0.3056 
G01 X-0.5589 Y0.3045 
G01 X-0.5661 Y0.3045 
G01 X-0.5732 Y0.3056 
G01 X-0.5800 Y0.3078 
G01 X-0.5863 Y0.3111 
G01 X-0.5921 Y0.3153 
G01 X-0.5972 Y0.3204 
G01 X-0.6014 Y0.3261 
G01 X-0.6047 Y0.3325 
G01 X-0.6069 Y0.3393 
G01 X-0.6080 Y0.3464 
G01 X-0.6080 Y0.3536 
G01 X-0.6071 Y0.3594 
G01 X-0.7598 Y0.5122 
G01 X-0.7628 Y0.5152 
G01 X-0.7649 Y0.5188 
G01 X-0.7660 Y0.5229 
G01 X-0.7660 Y0.7479 
G01 X-0.7660 Y0.7521 
G01 X-0.7649 Y0.7562 
G01 X-0.7628 Y0.7598 
G01 X-0.7071 Y0.8156 
G01 X-0.7080 Y0.8214 
G00 Z0.0200 
G00 X-0.6830 Y0.2339 
G01 Z-0.0050 F3.00  
G01 X-0.6830 Y0.2411 F2.50  
G01 X-0.6819 Y0.2482 
G01 X-0.6797 Y0.2550 
G01 X-0.6764 Y0.2613 
G01 X-0.6722 Y0.2671 
G01 X-0.6671 Y0.2722 
G01 X-0.6660 Y0.2730 
G01 X-0.6660 Y0.3684 
G01 X-0.8128 Y0.5152 
G01 X-0.8149 Y0.5188 
G01 X-0.8160 Y0.5229 
G01 X-0.8160 Y0.5271 
G01 X-0.8160 Y0.7979 
G01 X-0.8160 Y0.8021 
G01 X-0.8149 Y0.8062 
G01 X-0.8128 Y0.8098 
G01 X-0.8071 Y0.8156 
G01 X-0.8080 Y0.8214 
G01 X-0.8080 Y0.8286 
G01 X-0.8069 Y0.8357 
G01 X-0.8047 Y0.8425 
G01 X-0.8014 Y0.8488 
G01 X-0.7972 Y0.8546 
G01 X-0.7921 Y0.8597 
G01 X-0.7863 Y0.8639 
G01 X-0.7800 Y0.8672 
G01 X-0.7732 Y0.8694 
G01 X-0.7661 Y0.8705 
G01 X-0.7589 Y0.8705 
G01 X-0.7518 Y0.8694 
G01 X-0.7450 Y0.8672 
G01 X-0.7386 Y0.8639 
G01 X-0.7329 Y0.8597 
G01 X-0.7278 Y0.8546 
G01 X-0.7236 Y0.8488 
G01 X-0.7203 Y0.8425 
G01 X-0.7181 Y0.8357 
G01 X-0.7170 Y0.8286 
G01 X-0.7170 Y0.8214 
G01 X-0.7181 Y0.8143 
G01 X-0.7203 Y0.8075 
G01 X-0.7236 Y0.8011 
G01 X-0.7278 Y0.7954 
G01 X-0.7329 Y0.7903 
G01 X-0.7386 Y0.7861 
G01 X-0.7450 Y0.7828 
G01 X-0.7518 Y0.7806 
G01 X-0.7589 Y0.7795 
G01 X-0.7661 Y0.7795 
G01 X-0.7732 Y0.7806 
G01 X-0.7800 Y0.7828 
G01 X-0.7840 Y0.7849 
G01 X-0.7840 Y0.5316 
G01 X-0.6372 Y0.3848 
G01 X-0.6351 Y0.3812 
G01 X-0.6340 Y0.3771 
G01 X-0.6340 Y0.3729 
G01 X-0.6340 Y0.2830 
G01 X-0.6268 Y0.2819 
G01 X-0.6200 Y0.2797 
G01 X-0.6136 Y0.2764 
G01 X-0.6079 Y0.2722 
G01 X-0.6028 Y0.2671 
G01 X-0.5986 Y0.2613 
G01 X-0.5953 Y0.2550 
G01 X-0.5931 Y0.2482 
G01 X-0.5920 Y0.2411 
G01 X-0.5920 Y0.2339 
G01 X-0.5931 Y0.2268 
G01 X-0.5953 Y0.2200 
G01 X-0.5986 Y0.2136 
G01 X-0.6028 Y0.2079 
G01 X-0.6079 Y0.2028 
G01 X-0.6136 Y0.1986 
G01 X-0.6200 Y0.1953 
G01 X-0.6268 Y0.1931 
G01 X-0.6339 Y0.1920 
G01 X-0.6411 Y0.1920 
G01 X-0.6482 Y0.1931 
G01 X-0.6550 Y0.1953 
G01 X-0.6613 Y0.1986 
G01 X-0.6671 Y0.2028 
G01 X-0.6722 Y0.2079 
G01 X-0.6764 Y0.2136 
G01 X-0.6797 Y0.2200 
G01 X-0.6819 Y0.2268 
G01 X-0.6830 Y0.2339 
G00 Z0.0200 
G00 X-0.5830 Y0.8214 
G01 Z-0.0050 F3.00  
G01 X-0.5830 Y0.8286 F2.50  
G01 X-0.5819 Y0.8357 
G01 X-0.5797 Y0.8425 
G01 X-0.5764 Y0.8488 
G01 X-0.5722 Y0.8546 
G01 X-0.5671 Y0.8597 
G01 X-0.5615 Y0.8638 
G01 X-0.6066 Y0.9090 
G01 X-0.6199 Y0.9090 
G01 X-0.6203 Y0.9075 
G01 X-0.6236 Y0.9011 
G01 X-0.6278 Y0.8954 
G01 X-0.6329 Y0.8903 
G01 X-0.6386 Y0.8861 
G01 X-0.6450 Y0.8828 
G01 X-0.6518 Y0.8806 
G01 X-0.6589 Y0.8795 
G01 X-0.6661 Y0.8795 
G01 X-0.6732 Y0.8806 
G01 X-0.6800 Y0.8828 
G01 X-0.6863 Y0.8861 
G01 X-0.6921 Y0.8903 
G01 X-0.6972 Y0.8954 
G01 X-0.7014 Y0.9011 
G01 X-0.7047 Y0.9075 
G01 X-0.7069 Y0.9143 
G01 X-0.7080 Y0.9214 
G01 X-0.7080 Y0.9286 
G01 X-0.7069 Y0.9357 
G01 X-0.7047 Y0.9425 
G01 X-0.7014 Y0.9488 
G01 X-0.6972 Y0.9546 
G01 X-0.6921 Y0.9597 
G01 X-0.6863 Y0.9639 
G01 X-0.6800 Y0.9672 
G01 X-0.6732 Y0.9694 
G01 X-0.6661 Y0.9705 
G01 X-0.6589 Y0.9705 
G01 X-0.6518 Y0.9694 
G01 X-0.6450 Y0.9672 
G01 X-0.6386 Y0.9639 
G01 X-0.6329 Y0.9597 
G01 X-0.6278 Y0.9546 
G01 X-0.6236 Y0.9488 
G01 X-0.6203 Y0.9425 
G01 X-0.6199 Y0.9410 
G01 X-0.6021 Y0.9410 
G01 X-0.5979 Y0.9410 
G01 X-0.5938 Y0.9399 
G01 X-0.5902 Y0.9378 
G01 X-0.5277 Y0.8753 
G01 X-0.5247 Y0.8723 
G01 X-0.5226 Y0.8687 
G01 X-0.5224 Y0.8679 
G01 X-0.5200 Y0.8672 
G01 X-0.5136 Y0.8639 
G01 X-0.5079 Y0.8597 
G01 X-0.5028 Y0.8546 
G01 X-0.4986 Y0.8488 
G01 X-0.4953 Y0.8425 
G01 X-0.4931 Y0.8357 
G01 X-0.4920 Y0.8286 
G01 X-0.4920 Y0.8214 
G01 X-0.4931 Y0.8143 
G01 X-0.4953 Y0.8075 
G01 X-0.4986 Y0.8011 
G01 X-0.5028 Y0.7954 
G01 X-0.5079 Y0.7903 
G01 X-0.5136 Y0.7861 
G01 X-0.5200 Y0.7828 
G01 X-0.5268 Y0.7806 
G01 X-0.5339 Y0.7795 
G01 X-0.5411 Y0.7795 
G01 X-0.5482 Y0.7806 
G01 X-0.5550 Y0.7828 
G01 X-0.5613 Y0.7861 
G01 X-0.5671 Y0.7903 
G01 X-0.5722 Y0.7954 
G01 X-0.5764 Y0.8011 
G01 X-0.5797 Y0.8075 
G01 X-0.5819 Y0.8143 
G01 X-0.5830 Y0.8214 
G00 Z0.0200 
G00 X-0.2830 Y0.8214 
G01 Z-0.0050 F3.00  
G01 X-0.2830 Y0.8286 F2.50  
G01 X-0.2819 Y0.8357 
G01 X-0.2797 Y0.8425 
G01 X-0.2764 Y0.8488 
G01 X-0.2722 Y0.8546 
G01 X-0.2671 Y0.8597 
G01 X-0.2613 Y0.8639 
G01 X-0.2550 Y0.8672 
G01 X-0.2482 Y0.8694 
G01 X-0.2411 Y0.8705 
G01 X-0.2339 Y0.8705 
G01 X-0.2268 Y0.8694 
G01 X-0.2200 Y0.8672 
G01 X-0.2136 Y0.8639 
G01 X-0.2079 Y0.8597 
G01 X-0.2028 Y0.8546 
G01 X-0.1986 Y0.8488 
G01 X-0.1953 Y0.8425 
G01 X-0.1931 Y0.8357 
G01 X-0.1920 Y0.8286 
G01 X-0.1920 Y0.8214 
G01 X-0.1931 Y0.8143 
G01 X-0.1953 Y0.8075 
G01 X-0.1986 Y0.8011 
G01 X-0.2028 Y0.7954 
G01 X-0.2079 Y0.7903 
G01 X-0.2136 Y0.7861 
G01 X-0.2200 Y0.7828 
G01 X-0.2268 Y0.7806 
G01 X-0.2339 Y0.7795 
G01 X-0.2411 Y0.7795 
G01 X-0.2469 Y0.7804 
G01 X-0.4277 Y0.5997 
G01 X-0.4313 Y0.5976 
G01 X-0.4354 Y0.5965 
G01 X-0.4396 Y0.5965 
G01 X-0.6056 Y0.5965 
G01 X-0.6097 Y0.5976 
G01 X-0.6133 Y0.5997 
G01 X-0.6163 Y0.6027 
G01 X-0.6436 Y0.6300 
G01 X-0.6462 Y0.6295 
G01 X-0.6518 Y0.6295 
G01 X-0.6573 Y0.6306 
G01 X-0.6625 Y0.6327 
G01 X-0.6672 Y0.6359 
G01 X-0.6711 Y0.6398 
G01 X-0.6743 Y0.6445 
G01 X-0.6764 Y0.6497 
G01 X-0.6775 Y0.6552 
G01 X-0.6775 Y0.7008 
G01 X-0.6764 Y0.7063 
G01 X-0.6743 Y0.7115 
G01 X-0.6711 Y0.7162 
G01 X-0.6672 Y0.7201 
G01 X-0.6625 Y0.7233 
G01 X-0.6573 Y0.7254 
G01 X-0.6518 Y0.7265 
G01 X-0.6462 Y0.7265 
G01 X-0.6407 Y0.7254 
G01 X-0.6355 Y0.7233 
G01 X-0.6308 Y0.7201 
G01 X-0.6269 Y0.7162 
G01 X-0.6237 Y0.7115 
G01 X-0.6216 Y0.7063 
G01 X-0.6205 Y0.7008 
G01 X-0.6205 Y0.6552 
G01 X-0.6210 Y0.6526 
G01 X-0.5969 Y0.6285 
G01 X-0.4441 Y0.6285 
G01 X-0.2743 Y0.7983 
G01 X-0.2764 Y0.8011 
G01 X-0.2797 Y0.8075 
G01 X-0.2819 Y0.8143 
G01 X-0.2830 Y0.8214 
G00 Z0.0200 
G00 X-0.5285 Y0.4642 
G01 Z-0.0050 F3.00  
G01 X-0.5285 Y0.5098 F2.50  
G01 X-0.5274 Y0.5153 
G01 X-0.5253 Y0.5205 
G01 X-0.5221 Y0.5252 
G01 X-0.5182 Y0.5291 
G01 X-0.5135 Y0.5323 
G01 X-0.5083 Y0.5344 
G01 X-0.5028 Y0.5355 
G01 X-0.4972 Y0.5355 
G01 X-0.4917 Y0.5344 
G01 X-0.4865 Y0.5323 
G01 X-0.4818 Y0.5291 
G01 X-0.4779 Y0.5252 
G01 X-0.4747 Y0.5205 
G01 X-0.4726 Y0.5153 
G01 X-0.4715 Y0.5098 
G01 X-0.4715 Y0.4642 
G01 X-0.4726 Y0.4587 
G01 X-0.4729 Y0.4580 
G01 X-0.3809 Y0.3660 
G01 X-0.3051 Y0.3660 
G01 X-0.3047 Y0.3675 
G01 X-0.3014 Y0.3738 
G01 X-0.2972 Y0.3796 
G01 X-0.2921 Y0.3847 
G01 X-0.2863 Y0.3889 
G01 X-0.2800 Y0.3922 
G01 X-0.2732 Y0.3944 
G01 X-0.2661 Y0.3955 
G01 X-0.2589 Y0.3955 
G01 X-0.2518 Y0.3944 
G01 X-0.2450 Y0.3922 
G01 X-0.2386 Y0.3889 
G01 X-0.2329 Y0.3847 
G01 X-0.2278 Y0.3796 
G01 X-0.2236 Y0.3738 
G01 X-0.2203 Y0.3675 
G01 X-0.2181 Y0.3607 
G01 X-0.2170 Y0.3536 
G01 X-0.2170 Y0.3464 
G01 X-0.2181 Y0.3393 
G01 X-0.2203 Y0.3325 
G01 X-0.2236 Y0.3261 
G01 X-0.2278 Y0.3204 
G01 X-0.2329 Y0.3153 
G01 X-0.2386 Y0.3111 
G01 X-0.2450 Y0.3078 
G01 X-0.2518 Y0.3056 
G01 X-0.2589 Y0.3045 
G01 X-0.2661 Y0.3045 
G01 X-0.2732 Y0.3056 
G01 X-0.2800 Y0.3078 
G01 X-0.2863 Y0.3111 
G01 X-0.2921 Y0.3153 
G01 X-0.2972 Y0.3204 
G01 X-0.3014 Y0.3261 
G01 X-0.3047 Y0.3325 
G01 X-0.3051 Y0.3340 
G01 X-0.3896 Y0.3340 
G01 X-0.3937 Y0.3351 
G01 X-0.3973 Y0.3372 
G01 X-0.4003 Y0.3402 
G01 X-0.4986 Y0.4385 
G01 X-0.5028 Y0.4385 
G01 X-0.5083 Y0.4396 
G01 X-0.5135 Y0.4417 
G01 X-0.5182 Y0.4449 
G01 X-0.5221 Y0.4488 
G01 X-0.5253 Y0.4535 
G01 X-0.5274 Y0.4587 
G01 X-0.5285 Y0.4642 
G00 Z0.0200 
G00 X-0.5195 Y0.6552 
G01 Z-0.0050 F3.00  
G01 X-0.5206 Y0.6497 F2.50  
G01 X-0.5227 Y0.6445 
G01 X-0.5259 Y0.6398 
G01 X-0.5298 Y0.6359 
G01 X-0.5345 Y0.6327 
G01 X-0.5397 Y0.6306 
G01 X-0.5452 Y0.6295 
G01 X-0.5508 Y0.6295 
G01 X-0.5563 Y0.6306 
G01 X-0.5615 Y0.6327 
G01 X-0.5662 Y0.6359 
G01 X-0.5701 Y0.6398 
G01 X-0.5733 Y0.6445 
G01 X-0.5754 Y0.6497 
G01 X-0.5765 Y0.6552 
G01 X-0.5765 Y0.7008 
G01 X-0.5754 Y0.7063 
G01 X-0.5733 Y0.7115 
G01 X-0.5701 Y0.7162 
G01 X-0.5662 Y0.7201 
G01 X-0.5615 Y0.7233 
G01 X-0.5563 Y0.7254 
G01 X-0.5508 Y0.7265 
G01 X-0.5452 Y0.7265 
G01 X-0.5397 Y0.7254 
G01 X-0.5345 Y0.7233 
G01 X-0.5298 Y0.7201 
G01 X-0.5259 Y0.7162 
G01 X-0.5227 Y0.7115 
G01 X-0.5211 Y0.7075 
G01 X-0.4910 Y0.7376 
G01 X-0.4910 Y0.9559 
G01 X-0.5066 Y0.9715 
G01 X-0.6934 Y0.9715 
G01 X-0.7210 Y0.9438 
G01 X-0.7203 Y0.9425 
G01 X-0.7181 Y0.9357 
G01 X-0.7170 Y0.9286 
G01 X-0.7170 Y0.9214 
G01 X-0.7181 Y0.9143 
G01 X-0.7203 Y0.9075 
G01 X-0.7236 Y0.9011 
G01 X-0.7278 Y0.8954 
G01 X-0.7329 Y0.8903 
G01 X-0.7386 Y0.8861 
G01 X-0.7450 Y0.8828 
G01 X-0.7518 Y0.8806 
G01 X-0.7589 Y0.8795 
G01 X-0.7661 Y0.8795 
G01 X-0.7732 Y0.8806 
G01 X-0.7800 Y0.8828 
G01 X-0.7863 Y0.8861 
G01 X-0.7921 Y0.8903 
G01 X-0.7972 Y0.8954 
G01 X-0.8014 Y0.9011 
G01 X-0.8047 Y0.9075 
G01 X-0.8069 Y0.9143 
G01 X-0.8080 Y0.9214 
G01 X-0.8080 Y0.9286 
G01 X-0.8069 Y0.9357 
G01 X-0.8047 Y0.9425 
G01 X-0.8014 Y0.9488 
G01 X-0.7972 Y0.9546 
G01 X-0.7921 Y0.9597 
G01 X-0.7863 Y0.9639 
G01 X-0.7800 Y0.9672 
G01 X-0.7732 Y0.9694 
G01 X-0.7661 Y0.9705 
G01 X-0.7589 Y0.9705 
G01 X-0.7518 Y0.9694 
G01 X-0.7450 Y0.9672 
G01 X-0.7437 Y0.9665 
G01 X-0.7098 Y1.0003 
G01 X-0.7062 Y1.0024 
G01 X-0.7021 Y1.0035 
G01 X-0.6979 Y1.0035 
G01 X-0.4979 Y1.0035 
G01 X-0.4938 Y1.0024 
G01 X-0.4902 Y1.0003 
G01 X-0.4872 Y0.9973 
G01 X-0.4622 Y0.9723 
G01 X-0.4601 Y0.9687 
G01 X-0.4590 Y0.9646 
G01 X-0.4590 Y0.9604 
G01 X-0.4590 Y0.7289 
G01 X-0.4601 Y0.7248 
G01 X-0.4622 Y0.7212 
G01 X-0.4652 Y0.7182 
G01 X-0.5195 Y0.6639 
G01 X-0.5195 Y0.6552 
G00 Z0.0200 
G00 X-0.6285 Y0.4642 
G01 Z-0.0050 F3.00  
G01 X-0.6285 Y0.5098 F2.50  
G01 X-0.6274 Y0.5153 
G01 X-0.6253 Y0.5205 
G01 X-0.6221 Y0.5252 
G01 X-0.6182 Y0.5291 
G01 X-0.6135 Y0.5323 
G01 X-0.6083 Y0.5344 
G01 X-0.6028 Y0.5355 
G01 X-0.5972 Y0.5355 
G01 X-0.5917 Y0.5344 
G01 X-0.5865 Y0.5323 
G01 X-0.5818 Y0.5291 
G01 X-0.5779 Y0.5252 
G01 X-0.5747 Y0.5205 
G01 X-0.5726 Y0.5153 
G01 X-0.5715 Y0.5098 
G01 X-0.5715 Y0.4642 
G01 X-0.5726 Y0.4587 
G01 X-0.5729 Y0.4580 
G01 X-0.5434 Y0.4285 
G01 X-0.5146 Y0.4285 
G01 X-0.5104 Y0.4285 
G01 X-0.5063 Y0.4274 
G01 X-0.5027 Y0.4253 
G01 X-0.3563 Y0.2790 
G01 X-0.3550 Y0.2797 
G01 X-0.3482 Y0.2819 
G01 X-0.3411 Y0.2830 
G01 X-0.3339 Y0.2830 
G01 X-0.3268 Y0.2819 
G01 X-0.3200 Y0.2797 
G01 X-0.3136 Y0.2764 
G01 X-0.3079 Y0.2722 
G01 X-0.3028 Y0.2671 
G01 X-0.2986 Y0.2613 
G01 X-0.2953 Y0.2550 
G01 X-0.2931 Y0.2482 
G01 X-0.2920 Y0.2411 
G01 X-0.2920 Y0.2339 
G01 X-0.2931 Y0.2268 
G01 X-0.2953 Y0.2200 
G01 X-0.2986 Y0.2136 
G01 X-0.3028 Y0.2079 
G01 X-0.3079 Y0.2028 
G01 X-0.3136 Y0.1986 
G01 X-0.3200 Y0.1953 
G01 X-0.3268 Y0.1931 
G01 X-0.3339 Y0.1920 
G01 X-0.3411 Y0.1920 
G01 X-0.3482 Y0.1931 
G01 X-0.3550 Y0.1953 
G01 X-0.3613 Y0.1986 
G01 X-0.3671 Y0.2028 
G01 X-0.3722 Y0.2079 
G01 X-0.3764 Y0.2136 
G01 X-0.3797 Y0.2200 
G01 X-0.3819 Y0.2268 
G01 X-0.3830 Y0.2339 
G01 X-0.3830 Y0.2411 
G01 X-0.3819 Y0.2482 
G01 X-0.3797 Y0.2550 
G01 X-0.3790 Y0.2563 
G01 X-0.5191 Y0.3965 
G01 X-0.5521 Y0.3965 
G01 X-0.5562 Y0.3976 
G01 X-0.5598 Y0.3997 
G01 X-0.5628 Y0.4027 
G01 X-0.5986 Y0.4385 
G01 X-0.6028 Y0.4385 
G01 X-0.6083 Y0.4396 
G01 X-0.6135 Y0.4417 
G01 X-0.6182 Y0.4449 
G01 X-0.6221 Y0.4488 
G01 X-0.6253 Y0.4535 
G01 X-0.6274 Y0.4587 
G01 X-0.6285 Y0.4642 
G00 Z0.0200 
G00 X-0.6913 Y0.9665 
G01 Z-0.0050 F3.00  
G01 X-0.6913 Y0.9665 F2.50  
G00 Z0.0200 
G00 X-0.7132 Y0.9368 
G01 Z-0.0050 F3.00  
G01 X-0.7125 Y0.9321 F2.50  
G01 X-0.7118 Y0.9368 
G01 X-0.7093 Y0.9444 
G01 X-0.7057 Y0.9515 
G01 X-0.7040 Y0.9538 
G01 X-0.7151 Y0.9427 
G01 X-0.7132 Y0.9368 
G00 Z0.0200 
G00 X-0.6743 Y0.8757 
G01 Z-0.0050 F3.00  
G01 X-0.6819 Y0.8782 F2.50  
G01 X-0.6890 Y0.8818 
G01 X-0.6954 Y0.8865 
G01 X-0.7010 Y0.8921 
G01 X-0.7057 Y0.8985 
G01 X-0.7093 Y0.9056 
G01 X-0.7118 Y0.9132 
G01 X-0.7125 Y0.9179 
G01 X-0.7132 Y0.9132 
G01 X-0.7157 Y0.9056 
G01 X-0.7193 Y0.8985 
G01 X-0.7240 Y0.8921 
G01 X-0.7296 Y0.8865 
G01 X-0.7360 Y0.8818 
G01 X-0.7431 Y0.8782 
G01 X-0.7507 Y0.8757 
G01 X-0.7554 Y0.8750 
G01 X-0.7507 Y0.8743 
G01 X-0.7431 Y0.8718 
G01 X-0.7360 Y0.8682 
G01 X-0.7296 Y0.8635 
G01 X-0.7240 Y0.8579 
G01 X-0.7193 Y0.8515 
G01 X-0.7157 Y0.8444 
G01 X-0.7132 Y0.8368 
G01 X-0.7125 Y0.8321 
G01 X-0.7118 Y0.8368 
G01 X-0.7093 Y0.8444 
G01 X-0.7057 Y0.8515 
G01 X-0.7010 Y0.8579 
G01 X-0.6954 Y0.8635 
G01 X-0.6890 Y0.8682 
G01 X-0.6819 Y0.8718 
G01 X-0.6743 Y0.8743 
G01 X-0.6696 Y0.8750 
G01 X-0.6743 Y0.8757 
G00 Z0.0200 
G00 X-0.7710 Y0.5257 
G01 Z-0.0050 F3.00  
G01 X-0.7710 Y0.7472 F2.50  
G01 X-0.7710 Y0.7528 
G01 X-0.7696 Y0.7581 
G01 X-0.7668 Y0.7629 
G01 X-0.7546 Y0.7751 
G01 X-0.7585 Y0.7745 
G01 X-0.7665 Y0.7745 
G01 X-0.7743 Y0.7757 
G01 X-0.7790 Y0.7773 
G01 X-0.7790 Y0.5337 
G01 X-0.7710 Y0.5257 
G00 Z0.0200 
G00 X-0.5181 Y0.8718 
G01 Z-0.0050 F3.00  
G01 X-0.5110 Y0.8682 F2.50  
G01 X-0.5046 Y0.8635 
G01 X-0.4990 Y0.8579 
G01 X-0.4960 Y0.8538 
G01 X-0.4960 Y0.9538 
G01 X-0.5087 Y0.9665 
G01 X-0.6337 Y0.9665 
G01 X-0.6296 Y0.9635 
G01 X-0.6240 Y0.9579 
G01 X-0.6193 Y0.9515 
G01 X-0.6165 Y0.9460 
G01 X-0.6028 Y0.9460 
G01 X-0.5972 Y0.9460 
G01 X-0.5919 Y0.9446 
G01 X-0.5871 Y0.9418 
G01 X-0.5246 Y0.8793 
G01 X-0.5207 Y0.8754 
G01 X-0.5187 Y0.8720 
G01 X-0.5181 Y0.8718 
G00 Z0.0200 
G00 X-0.7125 Y0.8179 
G01 Z-0.0050 F3.00  
G01 X-0.7126 Y0.8171 F2.50  
G01 X-0.7124 Y0.8173 
G01 X-0.7125 Y0.8179 
G00 Z0.0200 
G00 X-0.5335 Y0.4637 
G01 Z-0.0050 F3.00  
G01 X-0.5335 Y0.5103 F2.50  
G01 X-0.5322 Y0.5168 
G01 X-0.5297 Y0.5229 
G01 X-0.5260 Y0.5284 
G01 X-0.5214 Y0.5330 
G01 X-0.5159 Y0.5367 
G01 X-0.5098 Y0.5392 
G01 X-0.5033 Y0.5405 
G01 X-0.4967 Y0.5405 
G01 X-0.4902 Y0.5392 
G01 X-0.4841 Y0.5367 
G01 X-0.4786 Y0.5330 
G01 X-0.4740 Y0.5284 
G01 X-0.4703 Y0.5229 
G01 X-0.4678 Y0.5168 
G01 X-0.4665 Y0.5103 
G01 X-0.4665 Y0.4637 
G01 X-0.4673 Y0.4595 
G01 X-0.3788 Y0.3710 
G01 X-0.3085 Y0.3710 
G01 X-0.3057 Y0.3765 
G01 X-0.3010 Y0.3829 
G01 X-0.2954 Y0.3885 
G01 X-0.2890 Y0.3932 
G01 X-0.2819 Y0.3968 
G01 X-0.2743 Y0.3993 
G01 X-0.2665 Y0.4005 
G01 X-0.2585 Y0.4005 
G01 X-0.2507 Y0.3993 
G01 X-0.2431 Y0.3968 
G01 X-0.2360 Y0.3932 
G01 X-0.2296 Y0.3885 
G01 X-0.2240 Y0.3829 
G01 X-0.2193 Y0.3765 
G01 X-0.2157 Y0.3694 
G01 X-0.2132 Y0.3618 
G01 X-0.2120 Y0.3540 
G01 X-0.2120 Y0.3460 
G01 X-0.2132 Y0.3382 
G01 X-0.2157 Y0.3306 
G01 X-0.2193 Y0.3235 
G01 X-0.2240 Y0.3171 
G01 X-0.2296 Y0.3115 
G01 X-0.2360 Y0.3068 
G01 X-0.2431 Y0.3032 
G01 X-0.2507 Y0.3007 
G01 X-0.2585 Y0.2995 
G01 X-0.2665 Y0.2995 
G01 X-0.2743 Y0.3007 
G01 X-0.2819 Y0.3032 
G01 X-0.2890 Y0.3068 
G01 X-0.2954 Y0.3115 
G01 X-0.3010 Y0.3171 
G01 X-0.3057 Y0.3235 
G01 X-0.3085 Y0.3290 
G01 X-0.3903 Y0.3290 
G01 X-0.3956 Y0.3304 
G01 X-0.4004 Y0.3332 
G01 X-0.4043 Y0.3371 
G01 X-0.5007 Y0.4335 
G01 X-0.5033 Y0.4335 
G01 X-0.5098 Y0.4348 
G01 X-0.5159 Y0.4373 
G01 X-0.5214 Y0.4410 
G01 X-0.5260 Y0.4456 
G01 X-0.5297 Y0.4511 
G01 X-0.5322 Y0.4572 
G01 X-0.5335 Y0.4637 
G00 Z0.0200 
G00 X-0.2880 Y0.8210 
G01 Z-0.0050 F3.00  
G01 X-0.2880 Y0.8290 F2.50  
G01 X-0.2868 Y0.8368 
G01 X-0.2843 Y0.8444 
G01 X-0.2807 Y0.8515 
G01 X-0.2760 Y0.8579 
G01 X-0.2704 Y0.8635 
G01 X-0.2640 Y0.8682 
G01 X-0.2569 Y0.8718 
G01 X-0.2493 Y0.8743 
G01 X-0.2415 Y0.8755 
G01 X-0.2335 Y0.8755 
G01 X-0.2257 Y0.8743 
G01 X-0.2181 Y0.8718 
G01 X-0.2110 Y0.8682 
G01 X-0.2046 Y0.8635 
G01 X-0.1990 Y0.8579 
G01 X-0.1943 Y0.8515 
G01 X-0.1907 Y0.8444 
G01 X-0.1882 Y0.8368 
G01 X-0.1870 Y0.8290 
G01 X-0.1870 Y0.8210 
G01 X-0.1882 Y0.8132 
G01 X-0.1907 Y0.8056 
G01 X-0.1943 Y0.7985 
G01 X-0.1990 Y0.7921 
G01 X-0.2046 Y0.7865 
G01 X-0.2110 Y0.7818 
G01 X-0.2181 Y0.7782 
G01 X-0.2257 Y0.7757 
G01 X-0.2335 Y0.7745 
G01 X-0.2415 Y0.7745 
G01 X-0.2452 Y0.7751 
G01 X-0.4246 Y0.5957 
G01 X-0.4294 Y0.5929 
G01 X-0.4347 Y0.5915 
G01 X-0.4403 Y0.5915 
G01 X-0.6063 Y0.5915 
G01 X-0.6116 Y0.5929 
G01 X-0.6164 Y0.5957 
G01 X-0.6203 Y0.5996 
G01 X-0.6453 Y0.6246 
G01 X-0.6457 Y0.6245 
G01 X-0.6523 Y0.6245 
G01 X-0.6588 Y0.6258 
G01 X-0.6649 Y0.6283 
G01 X-0.6704 Y0.6320 
G01 X-0.6750 Y0.6366 
G01 X-0.6787 Y0.6421 
G01 X-0.6812 Y0.6482 
G01 X-0.6825 Y0.6547 
G01 X-0.6825 Y0.7013 
G01 X-0.6812 Y0.7078 
G01 X-0.6787 Y0.7139 
G01 X-0.6750 Y0.7194 
G01 X-0.6704 Y0.7240 
G01 X-0.6649 Y0.7277 
G01 X-0.6588 Y0.7302 
G01 X-0.6523 Y0.7315 
G01 X-0.6457 Y0.7315 
G01 X-0.6392 Y0.7302 
G01 X-0.6331 Y0.7277 
G01 X-0.6276 Y0.7240 
G01 X-0.6230 Y0.7194 
G01 X-0.6193 Y0.7139 
G01 X-0.6168 Y0.7078 
G01 X-0.6155 Y0.7013 
G01 X-0.6155 Y0.6547 
G01 X-0.6156 Y0.6543 
G01 X-0.5948 Y0.6335 
G01 X-0.5709 Y0.6335 
G01 X-0.5740 Y0.6366 
G01 X-0.5777 Y0.6421 
G01 X-0.5802 Y0.6482 
G01 X-0.5815 Y0.6547 
G01 X-0.5815 Y0.7013 
G01 X-0.5802 Y0.7078 
G01 X-0.5777 Y0.7139 
G01 X-0.5740 Y0.7194 
G01 X-0.5694 Y0.7240 
G01 X-0.5639 Y0.7277 
G01 X-0.5578 Y0.7302 
G01 X-0.5513 Y0.7315 
G01 X-0.5447 Y0.7315 
G01 X-0.5382 Y0.7302 
G01 X-0.5321 Y0.7277 
G01 X-0.5266 Y0.7240 
G01 X-0.5220 Y0.7194 
G01 X-0.5197 Y0.7160 
G01 X-0.4960 Y0.7397 
G01 X-0.4960 Y0.7962 
G01 X-0.4990 Y0.7921 
G01 X-0.5046 Y0.7865 
G01 X-0.5110 Y0.7818 
G01 X-0.5181 Y0.7782 
G01 X-0.5257 Y0.7757 
G01 X-0.5335 Y0.7745 
G01 X-0.5415 Y0.7745 
G01 X-0.5493 Y0.7757 
G01 X-0.5569 Y0.7782 
G01 X-0.5640 Y0.7818 
G01 X-0.5704 Y0.7865 
G01 X-0.5760 Y0.7921 
G01 X-0.5807 Y0.7985 
G01 X-0.5843 Y0.8056 
G01 X-0.5868 Y0.8132 
G01 X-0.5880 Y0.8210 
G01 X-0.5880 Y0.8290 
G01 X-0.5868 Y0.8368 
G01 X-0.5843 Y0.8444 
G01 X-0.5807 Y0.8515 
G01 X-0.5760 Y0.8579 
G01 X-0.5704 Y0.8635 
G01 X-0.5691 Y0.8644 
G01 X-0.6087 Y0.9040 
G01 X-0.6165 Y0.9040 
G01 X-0.6193 Y0.8985 
G01 X-0.6240 Y0.8921 
G01 X-0.6296 Y0.8865 
G01 X-0.6360 Y0.8818 
G01 X-0.6431 Y0.8782 
G01 X-0.6507 Y0.8757 
G01 X-0.6554 Y0.8750 
G01 X-0.6507 Y0.8743 
G01 X-0.6431 Y0.8718 
G01 X-0.6360 Y0.8682 
G01 X-0.6296 Y0.8635 
G01 X-0.6240 Y0.8579 
G01 X-0.6193 Y0.8515 
G01 X-0.6157 Y0.8444 
G01 X-0.6132 Y0.8368 
G01 X-0.6120 Y0.8290 
G01 X-0.6120 Y0.8210 
G01 X-0.6132 Y0.8132 
G01 X-0.6157 Y0.8056 
G01 X-0.6193 Y0.7985 
G01 X-0.6240 Y0.7921 
G01 X-0.6296 Y0.7865 
G01 X-0.6360 Y0.7818 
G01 X-0.6431 Y0.7782 
G01 X-0.6507 Y0.7757 
G01 X-0.6585 Y0.7745 
G01 X-0.6665 Y0.7745 
G01 X-0.6743 Y0.7757 
G01 X-0.6819 Y0.7782 
G01 X-0.6886 Y0.7816 
G01 X-0.7290 Y0.7413 
G01 X-0.7290 Y0.5337 
G01 X-0.5886 Y0.3933 
G01 X-0.5819 Y0.3968 
G01 X-0.5743 Y0.3993 
G01 X-0.5675 Y0.4003 
G01 X-0.6007 Y0.4335 
G01 X-0.6033 Y0.4335 
G01 X-0.6098 Y0.4348 
G01 X-0.6159 Y0.4373 
G01 X-0.6214 Y0.4410 
G01 X-0.6260 Y0.4456 
G01 X-0.6297 Y0.4511 
G01 X-0.6322 Y0.4572 
G01 X-0.6335 Y0.4637 
G01 X-0.6335 Y0.5103 
G01 X-0.6322 Y0.5168 
G01 X-0.6297 Y0.5229 
G01 X-0.6260 Y0.5284 
G01 X-0.6214 Y0.5330 
G01 X-0.6159 Y0.5367 
G01 X-0.6098 Y0.5392 
G01 X-0.6033 Y0.5405 
G01 X-0.5967 Y0.5405 
G01 X-0.5902 Y0.5392 
G01 X-0.5841 Y0.5367 
G01 X-0.5786 Y0.5330 
G01 X-0.5740 Y0.5284 
G01 X-0.5703 Y0.5229 
G01 X-0.5678 Y0.5168 
G01 X-0.5665 Y0.5103 
G01 X-0.5665 Y0.4637 
G01 X-0.5673 Y0.4595 
G01 X-0.5413 Y0.4335 
G01 X-0.5153 Y0.4335 
G01 X-0.5097 Y0.4335 
G01 X-0.5044 Y0.4321 
G01 X-0.4996 Y0.4293 
G01 X-0.3552 Y0.2849 
G01 X-0.3493 Y0.2868 
G01 X-0.3415 Y0.2880 
G01 X-0.3335 Y0.2880 
G01 X-0.3257 Y0.2868 
G01 X-0.3181 Y0.2843 
G01 X-0.3110 Y0.2807 
G01 X-0.3046 Y0.2760 
G01 X-0.2990 Y0.2704 
G01 X-0.2943 Y0.2640 
G01 X-0.2907 Y0.2569 
G01 X-0.2882 Y0.2493 
G01 X-0.2870 Y0.2415 
G01 X-0.2870 Y0.2335 
G01 X-0.2882 Y0.2257 
G01 X-0.2907 Y0.2181 
G01 X-0.2943 Y0.2110 
G01 X-0.2990 Y0.2046 
G01 X-0.3046 Y0.1990 
G01 X-0.3110 Y0.1943 
G01 X-0.3181 Y0.1907 
G01 X-0.3257 Y0.1882 
G01 X-0.3335 Y0.1870 
G01 X-0.3415 Y0.1870 
G01 X-0.3493 Y0.1882 
G01 X-0.3569 Y0.1907 
G01 X-0.3640 Y0.1943 
G01 X-0.3704 Y0.1990 
G01 X-0.3760 Y0.2046 
G01 X-0.3807 Y0.2110 
G01 X-0.3843 Y0.2181 
G01 X-0.3868 Y0.2257 
G01 X-0.3880 Y0.2335 
G01 X-0.3880 Y0.2415 
G01 X-0.3868 Y0.2493 
G01 X-0.3849 Y0.2552 
G01 X-0.5212 Y0.3915 
G01 X-0.5337 Y0.3915 
G01 X-0.5296 Y0.3885 
G01 X-0.5240 Y0.3829 
G01 X-0.5193 Y0.3765 
G01 X-0.5157 Y0.3694 
G01 X-0.5132 Y0.3618 
G01 X-0.5120 Y0.3540 
G01 X-0.5120 Y0.3460 
G01 X-0.5132 Y0.3382 
G01 X-0.5157 Y0.3306 
G01 X-0.5193 Y0.3235 
G01 X-0.5240 Y0.3171 
G01 X-0.5296 Y0.3115 
G01 X-0.5360 Y0.3068 
G01 X-0.5431 Y0.3032 
G01 X-0.5507 Y0.3007 
G01 X-0.5585 Y0.2995 
G01 X-0.5665 Y0.2995 
G01 X-0.5743 Y0.3007 
G01 X-0.5819 Y0.3032 
G01 X-0.5890 Y0.3068 
G01 X-0.5954 Y0.3115 
G01 X-0.6010 Y0.3171 
G01 X-0.6057 Y0.3235 
G01 X-0.6093 Y0.3306 
G01 X-0.6118 Y0.3382 
G01 X-0.6130 Y0.3460 
G01 X-0.6130 Y0.3540 
G01 X-0.6124 Y0.3577 
G01 X-0.6290 Y0.3743 
G01 X-0.6290 Y0.3722 
G01 X-0.6290 Y0.2873 
G01 X-0.6257 Y0.2868 
G01 X-0.6181 Y0.2843 
G01 X-0.6110 Y0.2807 
G01 X-0.6046 Y0.2760 
G01 X-0.5990 Y0.2704 
G01 X-0.5943 Y0.2640 
G01 X-0.5907 Y0.2569 
G01 X-0.5882 Y0.2493 
G01 X-0.5870 Y0.2415 
G01 X-0.5870 Y0.2335 
G01 X-0.5882 Y0.2257 
G01 X-0.5907 Y0.2181 
G01 X-0.5943 Y0.2110 
G01 X-0.5990 Y0.2046 
G01 X-0.6046 Y0.1990 
G01 X-0.6110 Y0.1943 
G01 X-0.6181 Y0.1907 
G01 X-0.6257 Y0.1882 
G01 X-0.6335 Y0.1870 
G01 X-0.6415 Y0.1870 
G01 X-0.6493 Y0.1882 
G01 X-0.6569 Y0.1907 
G01 X-0.6640 Y0.1943 
G01 X-0.6704 Y0.1990 
G01 X-0.6760 Y0.2046 
G01 X-0.6807 Y0.2110 
G01 X-0.6843 Y0.2181 
G01 X-0.6868 Y0.2257 
G01 X-0.6880 Y0.2335 
G01 X-0.6880 Y0.2415 
G01 X-0.6868 Y0.2493 
G01 X-0.6843 Y0.2569 
G01 X-0.6807 Y0.2640 
G01 X-0.6760 Y0.2704 
G01 X-0.6710 Y0.2754 
G01 X-0.6710 Y0.3663 
G01 X-0.8168 Y0.5121 
G01 X-0.8196 Y0.5169 
G01 X-0.8210 Y0.5222 
G01 X-0.8210 Y0.5278 
G01 X-0.8210 Y0.7972 
G01 X-0.8210 Y0.8028 
G01 X-0.8196 Y0.8081 
G01 X-0.8168 Y0.8129 
G01 X-0.8124 Y0.8173 
G01 X-0.8130 Y0.8210 
G01 X-0.8130 Y0.8290 
G01 X-0.8118 Y0.8368 
G01 X-0.8093 Y0.8444 
G01 X-0.8057 Y0.8515 
G01 X-0.8010 Y0.8579 
G01 X-0.7954 Y0.8635 
G01 X-0.7890 Y0.8682 
G01 X-0.7819 Y0.8718 
G01 X-0.7743 Y0.8743 
G01 X-0.7696 Y0.8750 
G01 X-0.7743 Y0.8757 
G01 X-0.7819 Y0.8782 
G01 X-0.7890 Y0.8818 
G01 X-0.7954 Y0.8865 
G01 X-0.8010 Y0.8921 
G01 X-0.8057 Y0.8985 
G01 X-0.8093 Y0.9056 
G01 X-0.8118 Y0.9132 
G01 X-0.8130 Y0.9210 
G01 X-0.8130 Y0.9290 
G01 X-0.8118 Y0.9368 
G01 X-0.8093 Y0.9444 
G01 X-0.8057 Y0.9515 
G01 X-0.8010 Y0.9579 
G01 X-0.7954 Y0.9635 
G01 X-0.7890 Y0.9682 
G01 X-0.7819 Y0.9718 
G01 X-0.7743 Y0.9743 
G01 X-0.7665 Y0.9755 
G01 X-0.7585 Y0.9755 
G01 X-0.7507 Y0.9743 
G01 X-0.7448 Y0.9724 
G01 X-0.7129 Y1.0043 
G01 X-0.7081 Y1.0071 
G01 X-0.7028 Y1.0085 
G01 X-0.6972 Y1.0085 
G01 X-0.4972 Y1.0085 
G01 X-0.4919 Y1.0071 
G01 X-0.4871 Y1.0043 
G01 X-0.4832 Y1.0004 
G01 X-0.4582 Y0.9754 
G01 X-0.4554 Y0.9706 
G01 X-0.4540 Y0.9653 
G01 X-0.4540 Y0.9597 
G01 X-0.4540 Y0.7282 
G01 X-0.4554 Y0.7229 
G01 X-0.4582 Y0.7181 
G01 X-0.4621 Y0.7142 
G01 X-0.5145 Y0.6618 
G01 X-0.5145 Y0.6547 
G01 X-0.5158 Y0.6482 
G01 X-0.5183 Y0.6421 
G01 X-0.5220 Y0.6366 
G01 X-0.5251 Y0.6335 
G01 X-0.4462 Y0.6335 
G01 X-0.2808 Y0.7988 
G01 X-0.2843 Y0.8056 
G01 X-0.2868 Y0.8132 
G01 X-0.2880 Y0.8210 
G00 Z0.0200 
G00 X-0.6916 Y0.8775 
G01 Z-0.0050 F3.00  
G01 X-0.6987 Y0.8827 F2.50  
G01 X-0.7048 Y0.8888 
G01 X-0.7100 Y0.8959 
G01 X-0.7125 Y0.9009 
G01 X-0.7150 Y0.8959 
G01 X-0.7202 Y0.8888 
G01 X-0.7263 Y0.8827 
G01 X-0.7334 Y0.8775 
G01 X-0.7384 Y0.8750 
G01 X-0.7334 Y0.8725 
G01 X-0.7263 Y0.8673 
G01 X-0.7202 Y0.8612 
G01 X-0.7150 Y0.8541 
G01 X-0.7125 Y0.8491 
G01 X-0.7100 Y0.8541 
G01 X-0.7048 Y0.8612 
G01 X-0.6987 Y0.8673 
G01 X-0.6916 Y0.8725 
G01 X-0.6866 Y0.8750 
G01 X-0.6916 Y0.8775 
G00 Z0.0200 
G00 X-0.7730 Y0.7623 
G01 Z-0.0050 F3.00  
G01 X-0.7702 Y0.7666 F2.50  
G01 X-0.7672 Y0.7696 
G01 X-0.7740 Y0.7706 
G01 X-0.7740 Y0.7600 
G01 X-0.7730 Y0.7623 
G00 Z0.0200 
G00 X-0.5084 Y0.8725 
G01 Z-0.0050 F3.00  
G01 X-0.5013 Y0.8673 F2.50  
G01 X-0.5010 Y0.8670 
G01 X-0.5010 Y0.9517 
G01 X-0.5108 Y0.9615 
G01 X-0.6205 Y0.9615 
G01 X-0.6202 Y0.9612 
G01 X-0.6150 Y0.9541 
G01 X-0.6135 Y0.9510 
G01 X-0.6026 Y0.9510 
G01 X-0.5974 Y0.9510 
G01 X-0.5924 Y0.9500 
G01 X-0.5877 Y0.9480 
G01 X-0.5834 Y0.9452 
G01 X-0.5209 Y0.8827 
G01 X-0.5173 Y0.8791 
G01 X-0.5152 Y0.8759 
G01 X-0.5084 Y0.8725 
G00 Z0.0200 
G00 X-0.2930 Y0.8206 
G01 Z-0.0050 F3.00  
G01 X-0.2930 Y0.8294 F2.50  
G01 X-0.2916 Y0.8380 
G01 X-0.2889 Y0.8463 
G01 X-0.2850 Y0.8541 
G01 X-0.2798 Y0.8612 
G01 X-0.2737 Y0.8673 
G01 X-0.2666 Y0.8725 
G01 X-0.2588 Y0.8764 
G01 X-0.2505 Y0.8791 
G01 X-0.2419 Y0.8805 
G01 X-0.2331 Y0.8805 
G01 X-0.2245 Y0.8791 
G01 X-0.2162 Y0.8764 
G01 X-0.2084 Y0.8725 
G01 X-0.2013 Y0.8673 
G01 X-0.1952 Y0.8612 
G01 X-0.1900 Y0.8541 
G01 X-0.1861 Y0.8463 
G01 X-0.1834 Y0.8380 
G01 X-0.1820 Y0.8294 
G01 X-0.1820 Y0.8206 
G01 X-0.1834 Y0.8120 
G01 X-0.1861 Y0.8037 
G01 X-0.1900 Y0.7959 
G01 X-0.1952 Y0.7888 
G01 X-0.2013 Y0.7827 
G01 X-0.2084 Y0.7775 
G01 X-0.2162 Y0.7736 
G01 X-0.2245 Y0.7709 
G01 X-0.2331 Y0.7695 
G01 X-0.2419 Y0.7695 
G01 X-0.2435 Y0.7698 
G01 X-0.4209 Y0.5923 
G01 X-0.4252 Y0.5895 
G01 X-0.4299 Y0.5875 
G01 X-0.4349 Y0.5865 
G01 X-0.4401 Y0.5865 
G01 X-0.6061 Y0.5865 
G01 X-0.6111 Y0.5875 
G01 X-0.6158 Y0.5895 
G01 X-0.6201 Y0.5923 
G01 X-0.6237 Y0.5959 
G01 X-0.6473 Y0.6195 
G01 X-0.6528 Y0.6195 
G01 X-0.6602 Y0.6210 
G01 X-0.6672 Y0.6239 
G01 X-0.6735 Y0.6281 
G01 X-0.6789 Y0.6335 
G01 X-0.6831 Y0.6398 
G01 X-0.6860 Y0.6468 
G01 X-0.6875 Y0.6542 
G01 X-0.6875 Y0.7018 
G01 X-0.6860 Y0.7092 
G01 X-0.6831 Y0.7162 
G01 X-0.6789 Y0.7225 
G01 X-0.6735 Y0.7279 
G01 X-0.6672 Y0.7321 
G01 X-0.6602 Y0.7350 
G01 X-0.6528 Y0.7365 
G01 X-0.6452 Y0.7365 
G01 X-0.6378 Y0.7350 
G01 X-0.6308 Y0.7321 
G01 X-0.6245 Y0.7279 
G01 X-0.6191 Y0.7225 
G01 X-0.6149 Y0.7162 
G01 X-0.6120 Y0.7092 
G01 X-0.6105 Y0.7018 
G01 X-0.6105 Y0.6563 
G01 X-0.5927 Y0.6385 
G01 X-0.5813 Y0.6385 
G01 X-0.5821 Y0.6398 
G01 X-0.5850 Y0.6468 
G01 X-0.5865 Y0.6542 
G01 X-0.5865 Y0.7018 
G01 X-0.5850 Y0.7092 
G01 X-0.5821 Y0.7162 
G01 X-0.5779 Y0.7225 
G01 X-0.5725 Y0.7279 
G01 X-0.5662 Y0.7321 
G01 X-0.5592 Y0.7350 
G01 X-0.5518 Y0.7365 
G01 X-0.5442 Y0.7365 
G01 X-0.5368 Y0.7350 
G01 X-0.5298 Y0.7321 
G01 X-0.5235 Y0.7279 
G01 X-0.5192 Y0.7236 
G01 X-0.5010 Y0.7418 
G01 X-0.5010 Y0.7830 
G01 X-0.5013 Y0.7827 
G01 X-0.5084 Y0.7775 
G01 X-0.5162 Y0.7736 
G01 X-0.5245 Y0.7709 
G01 X-0.5331 Y0.7695 
G01 X-0.5419 Y0.7695 
G01 X-0.5505 Y0.7709 
G01 X-0.5588 Y0.7736 
G01 X-0.5666 Y0.7775 
G01 X-0.5737 Y0.7827 
G01 X-0.5798 Y0.7888 
G01 X-0.5850 Y0.7959 
G01 X-0.5889 Y0.8037 
G01 X-0.5916 Y0.8120 
G01 X-0.5930 Y0.8206 
G01 X-0.5930 Y0.8294 
G01 X-0.5916 Y0.8380 
G01 X-0.5889 Y0.8463 
G01 X-0.5850 Y0.8541 
G01 X-0.5798 Y0.8612 
G01 X-0.5764 Y0.8646 
G01 X-0.6108 Y0.8990 
G01 X-0.6135 Y0.8990 
G01 X-0.6150 Y0.8959 
G01 X-0.6202 Y0.8888 
G01 X-0.6263 Y0.8827 
G01 X-0.6334 Y0.8775 
G01 X-0.6384 Y0.8750 
G01 X-0.6334 Y0.8725 
G01 X-0.6263 Y0.8673 
G01 X-0.6202 Y0.8612 
G01 X-0.6150 Y0.8541 
G01 X-0.6111 Y0.8463 
G01 X-0.6084 Y0.8380 
G01 X-0.6070 Y0.8294 
G01 X-0.6070 Y0.8206 
G01 X-0.6084 Y0.8120 
G01 X-0.6111 Y0.8037 
G01 X-0.6150 Y0.7959 
G01 X-0.6202 Y0.7888 
G01 X-0.6263 Y0.7827 
G01 X-0.6334 Y0.7775 
G01 X-0.6412 Y0.7736 
G01 X-0.6495 Y0.7709 
G01 X-0.6581 Y0.7695 
G01 X-0.6669 Y0.7695 
G01 X-0.6755 Y0.7709 
G01 X-0.6838 Y0.7736 
G01 X-0.6877 Y0.7755 
G01 X-0.7240 Y0.7392 
G01 X-0.7240 Y0.5358 
G01 X-0.5877 Y0.3994 
G01 X-0.5838 Y0.4014 
G01 X-0.5777 Y0.4034 
G01 X-0.6028 Y0.4285 
G01 X-0.6038 Y0.4285 
G01 X-0.6112 Y0.4300 
G01 X-0.6182 Y0.4329 
G01 X-0.6245 Y0.4371 
G01 X-0.6299 Y0.4425 
G01 X-0.6341 Y0.4488 
G01 X-0.6370 Y0.4558 
G01 X-0.6385 Y0.4632 
G01 X-0.6385 Y0.5108 
G01 X-0.6370 Y0.5182 
G01 X-0.6341 Y0.5252 
G01 X-0.6299 Y0.5315 
G01 X-0.6245 Y0.5369 
G01 X-0.6182 Y0.5411 
G01 X-0.6112 Y0.5440 
G01 X-0.6038 Y0.5455 
G01 X-0.5962 Y0.5455 
G01 X-0.5888 Y0.5440 
G01 X-0.5818 Y0.5411 
G01 X-0.5755 Y0.5369 
G01 X-0.5701 Y0.5315 
G01 X-0.5659 Y0.5252 
G01 X-0.5630 Y0.5182 
G01 X-0.5615 Y0.5108 
G01 X-0.5615 Y0.4632 
G01 X-0.5619 Y0.4612 
G01 X-0.5392 Y0.4385 
G01 X-0.5259 Y0.4385 
G01 X-0.5299 Y0.4425 
G01 X-0.5341 Y0.4488 
G01 X-0.5370 Y0.4558 
G01 X-0.5385 Y0.4632 
G01 X-0.5385 Y0.5108 
G01 X-0.5370 Y0.5182 
G01 X-0.5341 Y0.5252 
G01 X-0.5299 Y0.5315 
G01 X-0.5245 Y0.5369 
G01 X-0.5182 Y0.5411 
G01 X-0.5112 Y0.5440 
G01 X-0.5038 Y0.5455 
G01 X-0.4962 Y0.5455 
G01 X-0.4888 Y0.5440 
G01 X-0.4818 Y0.5411 
G01 X-0.4755 Y0.5369 
G01 X-0.4701 Y0.5315 
G01 X-0.4659 Y0.5252 
G01 X-0.4630 Y0.5182 
G01 X-0.4615 Y0.5108 
G01 X-0.4615 Y0.4632 
G01 X-0.4619 Y0.4612 
G01 X-0.3767 Y0.3760 
G01 X-0.3115 Y0.3760 
G01 X-0.3100 Y0.3791 
G01 X-0.3048 Y0.3862 
G01 X-0.2987 Y0.3923 
G01 X-0.2916 Y0.3975 
G01 X-0.2838 Y0.4014 
G01 X-0.2755 Y0.4041 
G01 X-0.2669 Y0.4055 
G01 X-0.2581 Y0.4055 
G01 X-0.2495 Y0.4041 
G01 X-0.2412 Y0.4014 
G01 X-0.2334 Y0.3975 
G01 X-0.2263 Y0.3923 
G01 X-0.2202 Y0.3862 
G01 X-0.2150 Y0.3791 
G01 X-0.2111 Y0.3713 
G01 X-0.2084 Y0.3630 
G01 X-0.2070 Y0.3544 
G01 X-0.2070 Y0.3456 
G01 X-0.2084 Y0.3370 
G01 X-0.2111 Y0.3287 
G01 X-0.2150 Y0.3209 
G01 X-0.2202 Y0.3138 
G01 X-0.2263 Y0.3077 
G01 X-0.2334 Y0.3025 
G01 X-0.2412 Y0.2986 
G01 X-0.2495 Y0.2959 
G01 X-0.2581 Y0.2945 
G01 X-0.2669 Y0.2945 
G01 X-0.2755 Y0.2959 
G01 X-0.2838 Y0.2986 
G01 X-0.2916 Y0.3025 
G01 X-0.2987 Y0.3077 
G01 X-0.3048 Y0.3138 
G01 X-0.3100 Y0.3209 
G01 X-0.3115 Y0.3240 
G01 X-0.3872 Y0.3240 
G01 X-0.3538 Y0.2906 
G01 X-0.3505 Y0.2916 
G01 X-0.3419 Y0.2930 
G01 X-0.3331 Y0.2930 
G01 X-0.3245 Y0.2916 
G01 X-0.3162 Y0.2889 
G01 X-0.3084 Y0.2850 
G01 X-0.3013 Y0.2798 
G01 X-0.2952 Y0.2737 
G01 X-0.2900 Y0.2666 
G01 X-0.2861 Y0.2588 
G01 X-0.2834 Y0.2505 
G01 X-0.2820 Y0.2419 
G01 X-0.2820 Y0.2331 
G01 X-0.2834 Y0.2245 
G01 X-0.2861 Y0.2162 
G01 X-0.2900 Y0.2084 
G01 X-0.2952 Y0.2013 
G01 X-0.3013 Y0.1952 
G01 X-0.3084 Y0.1900 
G01 X-0.3162 Y0.1861 
G01 X-0.3245 Y0.1834 
G01 X-0.3331 Y0.1820 
G01 X-0.3419 Y0.1820 
G01 X-0.3505 Y0.1834 
G01 X-0.3588 Y0.1861 
G01 X-0.3666 Y0.1900 
G01 X-0.3737 Y0.1952 
G01 X-0.3798 Y0.2013 
G01 X-0.3850 Y0.2084 
G01 X-0.3889 Y0.2162 
G01 X-0.3916 Y0.2245 
G01 X-0.3930 Y0.2331 
G01 X-0.3930 Y0.2419 
G01 X-0.3916 Y0.2505 
G01 X-0.3906 Y0.2538 
G01 X-0.5142 Y0.3774 
G01 X-0.5111 Y0.3713 
G01 X-0.5084 Y0.3630 
G01 X-0.5070 Y0.3544 
G01 X-0.5070 Y0.3456 
G01 X-0.5084 Y0.3370 
G01 X-0.5111 Y0.3287 
G01 X-0.5150 Y0.3209 
G01 X-0.5202 Y0.3138 
G01 X-0.5263 Y0.3077 
G01 X-0.5334 Y0.3025 
G01 X-0.5412 Y0.2986 
G01 X-0.5495 Y0.2959 
G01 X-0.5581 Y0.2945 
G01 X-0.5669 Y0.2945 
G01 X-0.5755 Y0.2959 
G01 X-0.5838 Y0.2986 
G01 X-0.5916 Y0.3025 
G01 X-0.5987 Y0.3077 
G01 X-0.6048 Y0.3138 
G01 X-0.6100 Y0.3209 
G01 X-0.6139 Y0.3287 
G01 X-0.6166 Y0.3370 
G01 X-0.6180 Y0.3456 
G01 X-0.6180 Y0.3544 
G01 X-0.6177 Y0.3560 
G01 X-0.6240 Y0.3622 
G01 X-0.6240 Y0.2915 
G01 X-0.6162 Y0.2889 
G01 X-0.6084 Y0.2850 
G01 X-0.6013 Y0.2798 
G01 X-0.5952 Y0.2737 
G01 X-0.5900 Y0.2666 
G01 X-0.5861 Y0.2588 
G01 X-0.5834 Y0.2505 
G01 X-0.5820 Y0.2419 
G01 X-0.5820 Y0.2331 
G01 X-0.5834 Y0.2245 
G01 X-0.5861 Y0.2162 
G01 X-0.5900 Y0.2084 
G01 X-0.5952 Y0.2013 
G01 X-0.6013 Y0.1952 
G01 X-0.6084 Y0.1900 
G01 X-0.6162 Y0.1861 
G01 X-0.6245 Y0.1834 
G01 X-0.6331 Y0.1820 
G01 X-0.6419 Y0.1820 
G01 X-0.6505 Y0.1834 
G01 X-0.6588 Y0.1861 
G01 X-0.6666 Y0.1900 
G01 X-0.6737 Y0.1952 
G01 X-0.6798 Y0.2013 
G01 X-0.6850 Y0.2084 
G01 X-0.6889 Y0.2162 
G01 X-0.6916 Y0.2245 
G01 X-0.6930 Y0.2331 
G01 X-0.6930 Y0.2419 
G01 X-0.6916 Y0.2505 
G01 X-0.6889 Y0.2588 
G01 X-0.6850 Y0.2666 
G01 X-0.6798 Y0.2737 
G01 X-0.6760 Y0.2775 
G01 X-0.6760 Y0.3642 
G01 X-0.8202 Y0.5084 
G01 X-0.8230 Y0.5127 
G01 X-0.8250 Y0.5174 
G01 X-0.8260 Y0.5224 
G01 X-0.8260 Y0.5276 
G01 X-0.8260 Y0.7974 
G01 X-0.8260 Y0.8026 
G01 X-0.8250 Y0.8076 
G01 X-0.8230 Y0.8123 
G01 X-0.8202 Y0.8166 
G01 X-0.8177 Y0.8190 
G01 X-0.8180 Y0.8206 
G01 X-0.8180 Y0.8294 
G01 X-0.8166 Y0.8380 
G01 X-0.8139 Y0.8463 
G01 X-0.8100 Y0.8541 
G01 X-0.8048 Y0.8612 
G01 X-0.7987 Y0.8673 
G01 X-0.7916 Y0.8725 
G01 X-0.7866 Y0.8750 
G01 X-0.7916 Y0.8775 
G01 X-0.7987 Y0.8827 
G01 X-0.8048 Y0.8888 
G01 X-0.8100 Y0.8959 
G01 X-0.8139 Y0.9037 
G01 X-0.8166 Y0.9120 
G01 X-0.8180 Y0.9206 
G01 X-0.8180 Y0.9294 
G01 X-0.8166 Y0.9380 
G01 X-0.8139 Y0.9463 
G01 X-0.8100 Y0.9541 
G01 X-0.8048 Y0.9612 
G01 X-0.7987 Y0.9673 
G01 X-0.7916 Y0.9725 
G01 X-0.7838 Y0.9764 
G01 X-0.7755 Y0.9791 
G01 X-0.7669 Y0.9805 
G01 X-0.7581 Y0.9805 
G01 X-0.7495 Y0.9791 
G01 X-0.7462 Y0.9781 
G01 X-0.7166 Y1.0077 
G01 X-0.7123 Y1.0105 
G01 X-0.7076 Y1.0125 
G01 X-0.7026 Y1.0135 
G01 X-0.6974 Y1.0135 
G01 X-0.4974 Y1.0135 
G01 X-0.4924 Y1.0125 
G01 X-0.4877 Y1.0105 
G01 X-0.4834 Y1.0077 
G01 X-0.4798 Y1.0041 
G01 X-0.4548 Y0.9791 
G01 X-0.4520 Y0.9748 
G01 X-0.4500 Y0.9701 
G01 X-0.4490 Y0.9651 
G01 X-0.4490 Y0.9599 
G01 X-0.4490 Y0.7284 
G01 X-0.4500 Y0.7234 
G01 X-0.4520 Y0.7187 
G01 X-0.4548 Y0.7144 
G01 X-0.4584 Y0.7108 
G01 X-0.5095 Y0.6597 
G01 X-0.5095 Y0.6542 
G01 X-0.5110 Y0.6468 
G01 X-0.5139 Y0.6398 
G01 X-0.5147 Y0.6385 
G01 X-0.4483 Y0.6385 
G01 X-0.2869 Y0.7998 
G01 X-0.2889 Y0.8037 
G01 X-0.2916 Y0.8120 
G01 X-0.2930 Y0.8206 
G00 Z0.0200 
G00 X-0.7019 Y0.8789 
G01 Z-0.0050 F3.00  
G01 X-0.7086 Y0.8856 F2.50  
G01 X-0.7125 Y0.8909 
G01 X-0.7164 Y0.8856 
G01 X-0.7231 Y0.8789 
G01 X-0.7284 Y0.8750 
G01 X-0.7231 Y0.8711 
G01 X-0.7164 Y0.8644 
G01 X-0.7125 Y0.8591 
G01 X-0.7086 Y0.8644 
G01 X-0.7019 Y0.8711 
G01 X-0.6966 Y0.8750 
G01 X-0.7019 Y0.8789 
G00 Z0.0200 
G00 X-0.5060 Y0.8768 
G01 Z-0.0050 F3.00  
G01 X-0.5060 Y0.9497 F2.50  
G01 X-0.5128 Y0.9565 
G01 X-0.6107 Y0.9565 
G01 X-0.6104 Y0.9560 
G01 X-0.6031 Y0.9560 
G01 X-0.5969 Y0.9560 
G01 X-0.5910 Y0.9548 
G01 X-0.5853 Y0.9525 
G01 X-0.5802 Y0.9491 
G01 X-0.5177 Y0.8866 
G01 X-0.5134 Y0.8823 
G01 X-0.5118 Y0.8798 
G01 X-0.5060 Y0.8768 
G00 Z0.0200 
G00 X-0.6055 Y0.7014 
G01 Z-0.0050 F3.00  
G01 X-0.6055 Y0.6583 F2.50  
G01 X-0.5907 Y0.6435 
G01 X-0.5890 Y0.6435 
G01 X-0.5904 Y0.6478 
G01 X-0.5915 Y0.6546 
G01 X-0.5915 Y0.7014 
G01 X-0.5904 Y0.7082 
G01 X-0.5883 Y0.7147 
G01 X-0.5852 Y0.7208 
G01 X-0.5812 Y0.7263 
G01 X-0.5763 Y0.7312 
G01 X-0.5708 Y0.7352 
G01 X-0.5647 Y0.7383 
G01 X-0.5582 Y0.7404 
G01 X-0.5514 Y0.7415 
G01 X-0.5446 Y0.7415 
G01 X-0.5378 Y0.7404 
G01 X-0.5313 Y0.7383 
G01 X-0.5252 Y0.7352 
G01 X-0.5197 Y0.7312 
G01 X-0.5192 Y0.7307 
G01 X-0.5060 Y0.7438 
G01 X-0.5060 Y0.7732 
G01 X-0.5143 Y0.7689 
G01 X-0.5233 Y0.7660 
G01 X-0.5327 Y0.7645 
G01 X-0.5423 Y0.7645 
G01 X-0.5517 Y0.7660 
G01 X-0.5607 Y0.7689 
G01 X-0.5692 Y0.7733 
G01 X-0.5769 Y0.7789 
G01 X-0.5836 Y0.7856 
G01 X-0.5892 Y0.7933 
G01 X-0.5936 Y0.8018 
G01 X-0.5965 Y0.8108 
G01 X-0.5980 Y0.8202 
G01 X-0.5980 Y0.8298 
G01 X-0.5965 Y0.8392 
G01 X-0.5936 Y0.8482 
G01 X-0.5892 Y0.8567 
G01 X-0.5836 Y0.8644 
G01 X-0.5834 Y0.8646 
G01 X-0.6113 Y0.8925 
G01 X-0.6164 Y0.8856 
G01 X-0.6231 Y0.8789 
G01 X-0.6284 Y0.8750 
G01 X-0.6231 Y0.8711 
G01 X-0.6164 Y0.8644 
G01 X-0.6108 Y0.8567 
G01 X-0.6064 Y0.8482 
G01 X-0.6035 Y0.8392 
G01 X-0.6020 Y0.8298 
G01 X-0.6020 Y0.8202 
G01 X-0.6035 Y0.8108 
G01 X-0.6064 Y0.8018 
G01 X-0.6108 Y0.7933 
G01 X-0.6164 Y0.7856 
G01 X-0.6231 Y0.7789 
G01 X-0.6308 Y0.7733 
G01 X-0.6393 Y0.7689 
G01 X-0.6483 Y0.7660 
G01 X-0.6577 Y0.7645 
G01 X-0.6673 Y0.7645 
G01 X-0.6767 Y0.7660 
G01 X-0.6857 Y0.7689 
G01 X-0.6867 Y0.7694 
G01 X-0.7190 Y0.7372 
G01 X-0.7190 Y0.5378 
G01 X-0.6433 Y0.4621 
G01 X-0.6435 Y0.4636 
G01 X-0.6435 Y0.5104 
G01 X-0.6424 Y0.5172 
G01 X-0.6403 Y0.5237 
G01 X-0.6372 Y0.5298 
G01 X-0.6332 Y0.5353 
G01 X-0.6283 Y0.5402 
G01 X-0.6228 Y0.5442 
G01 X-0.6167 Y0.5473 
G01 X-0.6102 Y0.5494 
G01 X-0.6034 Y0.5505 
G01 X-0.5966 Y0.5505 
G01 X-0.5898 Y0.5494 
G01 X-0.5833 Y0.5473 
G01 X-0.5772 Y0.5442 
G01 X-0.5717 Y0.5402 
G01 X-0.5668 Y0.5353 
G01 X-0.5628 Y0.5298 
G01 X-0.5597 Y0.5237 
G01 X-0.5576 Y0.5172 
G01 X-0.5565 Y0.5104 
G01 X-0.5565 Y0.4636 
G01 X-0.5566 Y0.4629 
G01 X-0.5372 Y0.4435 
G01 X-0.5367 Y0.4435 
G01 X-0.5372 Y0.4442 
G01 X-0.5403 Y0.4503 
G01 X-0.5424 Y0.4568 
G01 X-0.5435 Y0.4636 
G01 X-0.5435 Y0.5104 
G01 X-0.5424 Y0.5172 
G01 X-0.5403 Y0.5237 
G01 X-0.5372 Y0.5298 
G01 X-0.5332 Y0.5353 
G01 X-0.5283 Y0.5402 
G01 X-0.5228 Y0.5442 
G01 X-0.5167 Y0.5473 
G01 X-0.5102 Y0.5494 
G01 X-0.5034 Y0.5505 
G01 X-0.4966 Y0.5505 
G01 X-0.4898 Y0.5494 
G01 X-0.4833 Y0.5473 
G01 X-0.4772 Y0.5442 
G01 X-0.4717 Y0.5402 
G01 X-0.4668 Y0.5353 
G01 X-0.4628 Y0.5298 
G01 X-0.4597 Y0.5237 
G01 X-0.4576 Y0.5172 
G01 X-0.4565 Y0.5104 
G01 X-0.4565 Y0.4636 
G01 X-0.4566 Y0.4629 
G01 X-0.3747 Y0.3810 
G01 X-0.3146 Y0.3810 
G01 X-0.3142 Y0.3817 
G01 X-0.3086 Y0.3894 
G01 X-0.3019 Y0.3961 
G01 X-0.2942 Y0.4017 
G01 X-0.2857 Y0.4061 
G01 X-0.2767 Y0.4090 
G01 X-0.2673 Y0.4105 
G01 X-0.2577 Y0.4105 
G01 X-0.2483 Y0.4090 
G01 X-0.2393 Y0.4061 
G01 X-0.2308 Y0.4017 
G01 X-0.2231 Y0.3961 
G01 X-0.2164 Y0.3894 
G01 X-0.2108 Y0.3817 
G01 X-0.2064 Y0.3732 
G01 X-0.2035 Y0.3642 
G01 X-0.2020 Y0.3548 
G01 X-0.2020 Y0.3452 
G01 X-0.2035 Y0.3358 
G01 X-0.2064 Y0.3268 
G01 X-0.2108 Y0.3183 
G01 X-0.2164 Y0.3106 
G01 X-0.2231 Y0.3039 
G01 X-0.2308 Y0.2983 
G01 X-0.2393 Y0.2939 
G01 X-0.2483 Y0.2910 
G01 X-0.2577 Y0.2895 
G01 X-0.2673 Y0.2895 
G01 X-0.2767 Y0.2910 
G01 X-0.2857 Y0.2939 
G01 X-0.2942 Y0.2983 
G01 X-0.3019 Y0.3039 
G01 X-0.3086 Y0.3106 
G01 X-0.3142 Y0.3183 
G01 X-0.3146 Y0.3190 
G01 X-0.3752 Y0.3190 
G01 X-0.3524 Y0.2963 
G01 X-0.3517 Y0.2965 
G01 X-0.3423 Y0.2980 
G01 X-0.3327 Y0.2980 
G01 X-0.3233 Y0.2965 
G01 X-0.3143 Y0.2936 
G01 X-0.3058 Y0.2892 
G01 X-0.2981 Y0.2836 
G01 X-0.2914 Y0.2769 
G01 X-0.2858 Y0.2692 
G01 X-0.2814 Y0.2607 
G01 X-0.2785 Y0.2517 
G01 X-0.2770 Y0.2423 
G01 X-0.2770 Y0.2327 
G01 X-0.2785 Y0.2233 
G01 X-0.2814 Y0.2143 
G01 X-0.2858 Y0.2058 
G01 X-0.2914 Y0.1981 
G01 X-0.2981 Y0.1914 
G01 X-0.3058 Y0.1858 
G01 X-0.3143 Y0.1814 
G01 X-0.3233 Y0.1785 
G01 X-0.3327 Y0.1770 
G01 X-0.3423 Y0.1770 
G01 X-0.3517 Y0.1785 
G01 X-0.3607 Y0.1814 
G01 X-0.3692 Y0.1858 
G01 X-0.3769 Y0.1914 
G01 X-0.3836 Y0.1981 
G01 X-0.3892 Y0.2058 
G01 X-0.3936 Y0.2143 
G01 X-0.3965 Y0.2233 
G01 X-0.3980 Y0.2327 
G01 X-0.3980 Y0.2423 
G01 X-0.3965 Y0.2517 
G01 X-0.3963 Y0.2524 
G01 X-0.5026 Y0.3588 
G01 X-0.5020 Y0.3548 
G01 X-0.5020 Y0.3452 
G01 X-0.5035 Y0.3358 
G01 X-0.5064 Y0.3268 
G01 X-0.5108 Y0.3183 
G01 X-0.5164 Y0.3106 
G01 X-0.5231 Y0.3039 
G01 X-0.5308 Y0.2983 
G01 X-0.5393 Y0.2939 
G01 X-0.5483 Y0.2910 
G01 X-0.5577 Y0.2895 
G01 X-0.5673 Y0.2895 
G01 X-0.5767 Y0.2910 
G01 X-0.5857 Y0.2939 
G01 X-0.5942 Y0.2983 
G01 X-0.6019 Y0.3039 
G01 X-0.6086 Y0.3106 
G01 X-0.6142 Y0.3183 
G01 X-0.6186 Y0.3268 
G01 X-0.6190 Y0.3281 
G01 X-0.6190 Y0.2951 
G01 X-0.6143 Y0.2936 
G01 X-0.6058 Y0.2892 
G01 X-0.5981 Y0.2836 
G01 X-0.5914 Y0.2769 
G01 X-0.5858 Y0.2692 
G01 X-0.5814 Y0.2607 
G01 X-0.5785 Y0.2517 
G01 X-0.5770 Y0.2423 
G01 X-0.5770 Y0.2327 
G01 X-0.5785 Y0.2233 
G01 X-0.5814 Y0.2143 
G01 X-0.5858 Y0.2058 
G01 X-0.5914 Y0.1981 
G01 X-0.5981 Y0.1914 
G01 X-0.6058 Y0.1858 
G01 X-0.6143 Y0.1814 
G01 X-0.6233 Y0.1785 
G01 X-0.6327 Y0.1770 
G01 X-0.6423 Y0.1770 
G01 X-0.6517 Y0.1785 
G01 X-0.6607 Y0.1814 
G01 X-0.6692 Y0.1858 
G01 X-0.6769 Y0.1914 
G01 X-0.6836 Y0.1981 
G01 X-0.6892 Y0.2058 
G01 X-0.6936 Y0.2143 
G01 X-0.6965 Y0.2233 
G01 X-0.6980 Y0.2327 
G01 X-0.6980 Y0.2423 
G01 X-0.6965 Y0.2517 
G01 X-0.6936 Y0.2607 
G01 X-0.6892 Y0.2692 
G01 X-0.6836 Y0.2769 
G01 X-0.6810 Y0.2796 
G01 X-0.6810 Y0.3622 
G01 X-0.8241 Y0.5052 
G01 X-0.8275 Y0.5103 
G01 X-0.8298 Y0.5160 
G01 X-0.8310 Y0.5219 
G01 X-0.8310 Y0.5281 
G01 X-0.8310 Y0.7969 
G01 X-0.8310 Y0.8031 
G01 X-0.8298 Y0.8090 
G01 X-0.8275 Y0.8147 
G01 X-0.8241 Y0.8198 
G01 X-0.8230 Y0.8208 
G01 X-0.8230 Y0.8298 
G01 X-0.8215 Y0.8392 
G01 X-0.8186 Y0.8482 
G01 X-0.8142 Y0.8567 
G01 X-0.8086 Y0.8644 
G01 X-0.8019 Y0.8711 
G01 X-0.7966 Y0.8750 
G01 X-0.8019 Y0.8789 
G01 X-0.8086 Y0.8856 
G01 X-0.8142 Y0.8933 
G01 X-0.8186 Y0.9018 
G01 X-0.8215 Y0.9108 
G01 X-0.8230 Y0.9202 
G01 X-0.8230 Y0.9298 
G01 X-0.8215 Y0.9392 
G01 X-0.8186 Y0.9482 
G01 X-0.8142 Y0.9567 
G01 X-0.8086 Y0.9644 
G01 X-0.8019 Y0.9711 
G01 X-0.7942 Y0.9767 
G01 X-0.7857 Y0.9811 
G01 X-0.7767 Y0.9840 
G01 X-0.7673 Y0.9855 
G01 X-0.7577 Y0.9855 
G01 X-0.7483 Y0.9840 
G01 X-0.7476 Y0.9838 
G01 X-0.7198 Y1.0116 
G01 X-0.7147 Y1.0150 
G01 X-0.7090 Y1.0173 
G01 X-0.7031 Y1.0185 
G01 X-0.6969 Y1.0185 
G01 X-0.4969 Y1.0185 
G01 X-0.4910 Y1.0173 
G01 X-0.4853 Y1.0150 
G01 X-0.4802 Y1.0116 
G01 X-0.4759 Y1.0073 
G01 X-0.4509 Y0.9823 
G01 X-0.4475 Y0.9772 
G01 X-0.4452 Y0.9715 
G01 X-0.4440 Y0.9656 
G01 X-0.4440 Y0.9594 
G01 X-0.4440 Y0.7279 
G01 X-0.4452 Y0.7220 
G01 X-0.4475 Y0.7163 
G01 X-0.4509 Y0.7112 
G01 X-0.4552 Y0.7069 
G01 X-0.5045 Y0.6577 
G01 X-0.5045 Y0.6546 
G01 X-0.5056 Y0.6478 
G01 X-0.5070 Y0.6435 
G01 X-0.4503 Y0.6435 
G01 X-0.2931 Y0.8008 
G01 X-0.2936 Y0.8018 
G01 X-0.2965 Y0.8108 
G01 X-0.2980 Y0.8202 
G01 X-0.2980 Y0.8298 
G01 X-0.2965 Y0.8392 
G01 X-0.2936 Y0.8482 
G01 X-0.2892 Y0.8567 
G01 X-0.2836 Y0.8644 
G01 X-0.2769 Y0.8711 
G01 X-0.2692 Y0.8767 
G01 X-0.2607 Y0.8811 
G01 X-0.2517 Y0.8840 
G01 X-0.2423 Y0.8855 
G01 X-0.2327 Y0.8855 
G01 X-0.2233 Y0.8840 
G01 X-0.2143 Y0.8811 
G01 X-0.2058 Y0.8767 
G01 X-0.1981 Y0.8711 
G01 X-0.1914 Y0.8644 
G01 X-0.1858 Y0.8567 
G01 X-0.1814 Y0.8482 
G01 X-0.1785 Y0.8392 
G01 X-0.1770 Y0.8298 
G01 X-0.1770 Y0.8202 
G01 X-0.1785 Y0.8108 
G01 X-0.1814 Y0.8018 
G01 X-0.1858 Y0.7933 
G01 X-0.1914 Y0.7856 
G01 X-0.1981 Y0.7789 
G01 X-0.2058 Y0.7733 
G01 X-0.2143 Y0.7689 
G01 X-0.2233 Y0.7660 
G01 X-0.2327 Y0.7645 
G01 X-0.2417 Y0.7645 
G01 X-0.4177 Y0.5884 
G01 X-0.4228 Y0.5850 
G01 X-0.4285 Y0.5827 
G01 X-0.4344 Y0.5815 
G01 X-0.4406 Y0.5815 
G01 X-0.6066 Y0.5815 
G01 X-0.6125 Y0.5827 
G01 X-0.6182 Y0.5850 
G01 X-0.6233 Y0.5884 
G01 X-0.6276 Y0.5927 
G01 X-0.6493 Y0.6145 
G01 X-0.6524 Y0.6145 
G01 X-0.6592 Y0.6156 
G01 X-0.6657 Y0.6177 
G01 X-0.6718 Y0.6208 
G01 X-0.6773 Y0.6248 
G01 X-0.6822 Y0.6297 
G01 X-0.6862 Y0.6352 
G01 X-0.6893 Y0.6413 
G01 X-0.6914 Y0.6478 
G01 X-0.6925 Y0.6546 
G01 X-0.6925 Y0.7014 
G01 X-0.6914 Y0.7082 
G01 X-0.6893 Y0.7147 
G01 X-0.6862 Y0.7208 
G01 X-0.6822 Y0.7263 
G01 X-0.6773 Y0.7312 
G01 X-0.6718 Y0.7352 
G01 X-0.6657 Y0.7383 
G01 X-0.6592 Y0.7404 
G01 X-0.6524 Y0.7415 
G01 X-0.6456 Y0.7415 
G01 X-0.6388 Y0.7404 
G01 X-0.6323 Y0.7383 
G01 X-0.6262 Y0.7352 
G01 X-0.6207 Y0.7312 
G01 X-0.6158 Y0.7263 
G01 X-0.6118 Y0.7208 
G01 X-0.6087 Y0.7147 
G01 X-0.6066 Y0.7082 
G01 X-0.6055 Y0.7014 
G00 Z0.0200 
G00 X-0.7625 Y0.9250 
G01 Z-0.1000 F3.00  
G00 Z0.0200 
G00 X-0.6625 Y0.9250 
G01 Z-0.1000 F3.00  
G00 Z0.0200 
G00 X-0.7625 Y0.8250 
G01 Z-0.1000 F3.00  
G00 Z0.0200 
G00 X-0.6625 Y0.8250 
G01 Z-0.1000 F3.00  
G00 Z0.0200 
G00 X-0.2000 Y0.5750 
G01 Z-0.1000 F3.00  
G00 Z0.0200 
G00 X-0.9500 Y0.5750 
G01 Z-0.1000 F3.00  
G00 Z0.0200 
G00 X-0.5625 Y0.3500 
G01 Z-0.1000 F3.00  
G00 Z0.0200 
G00 X-0.2625 Y0.3500 
G01 Z-0.1000 F3.00  
G00 Z0.0200 
G00 X-0.6375 Y0.2375 
G01 Z-0.1000 F3.00  
G00 Z0.0200 
G00 X-0.3375 Y0.2375 
G01 Z-0.1000 F3.00  
G00 Z0.0200 
G00 X-0.5375 Y0.8250 
G01 Z-0.1000 F3.00  
G00 Z0.0200 
G00 X-0.2375 Y0.8250 
G01 Z-0.1000 F3.00  
G00 Z0.0200 
G00 X-0.6000 Y0.5070 
G01 Z-0.1000 F3.00  
G00 Z0.0200 
G00 X-0.5480 Y0.6580 
G01 Z-0.1000 F3.00  
G00 Z0.0200 
G00 X-0.6490 Y0.6580 
G01 Z-0.1000 F3.00  
G00 Z0.0200 
G00 X-0.5000 Y0.5070 
G01 Z-0.1000 F3.00  
G00 Z0.0200 
G00 X-0.5000 Y0.5580 
G01 Z-0.1000 F3.00  
G00 Z0.0200 
G00 X-0.5520 Y0.5910 
G01 Z-0.1000 F3.00  
G00 Z0.0200 
G00 X-0.6000 Y0.5580 
G01 Z-0.1000 F3.00  
G00 Z0.0200 
G00 X-0.6510 Y0.5910 
G01 Z-0.1000 F3.00  
G00 Z0.0200 
G00 Z0.5000 
M05
M02
