( This gcode generated by /Applications/EAGLE/ulp/pcb-gcode.ulp )
( Copyright 2005 by John Johnson. See readme.txt for licensing terms. )

( This file generated from the board /Users/gregorywitt/Documents/eagle/color factory/rgb_led.brd )
( This file generated 2/13/10 12:46 PM )

G20

G90
G00 Z0.5000 
G00 X0 Y0
M03
G04 P3.000000
G00 Z0.0200 
G00 X-0.7071 Y0.8215 
G01 Z-0.0050 F2.50  
G01 X-0.7071 Y0.8285 
G01 X-0.7060 Y0.8354 
G01 X-0.7038 Y0.8421 
G01 X-0.7006 Y0.8484 
G01 X-0.6965 Y0.8540 
G01 X-0.6915 Y0.8590 
G01 X-0.6859 Y0.8631 
G01 X-0.6796 Y0.8663 
G01 X-0.6729 Y0.8685 
G01 X-0.6660 Y0.8696 
G01 X-0.6590 Y0.8696 
G01 X-0.6521 Y0.8685 
G01 X-0.6454 Y0.8663 
G01 X-0.6391 Y0.8631 
G01 X-0.6334 Y0.8590 
G01 X-0.6285 Y0.8540 
G01 X-0.6244 Y0.8484 
G01 X-0.6212 Y0.8421 
G01 X-0.6190 Y0.8354 
G01 X-0.6179 Y0.8285 
G01 X-0.6179 Y0.8215 
G01 X-0.6190 Y0.8146 
G01 X-0.6212 Y0.8079 
G01 X-0.6244 Y0.8016 
G01 X-0.6285 Y0.7959 
G01 X-0.6334 Y0.7910 
G01 X-0.6391 Y0.7869 
G01 X-0.6454 Y0.7837 
G01 X-0.6521 Y0.7815 
G01 X-0.6590 Y0.7804 
G01 X-0.6660 Y0.7804 
G01 X-0.6729 Y0.7815 
G01 X-0.6796 Y0.7837 
G01 X-0.6859 Y0.7869 
G01 X-0.6893 Y0.7894 
G01 X-0.7349 Y0.7437 
G01 X-0.7349 Y0.5313 
G01 X-0.5893 Y0.3856 
G01 X-0.5859 Y0.3881 
G01 X-0.5796 Y0.3913 
G01 X-0.5729 Y0.3935 
G01 X-0.5660 Y0.3946 
G01 X-0.5590 Y0.3946 
G01 X-0.5521 Y0.3935 
G01 X-0.5454 Y0.3913 
G01 X-0.5391 Y0.3881 
G01 X-0.5334 Y0.3840 
G01 X-0.5285 Y0.3790 
G01 X-0.5244 Y0.3734 
G01 X-0.5212 Y0.3671 
G01 X-0.5190 Y0.3604 
G01 X-0.5179 Y0.3535 
G01 X-0.5179 Y0.3465 
G01 X-0.5190 Y0.3396 
G01 X-0.5212 Y0.3329 
G01 X-0.5244 Y0.3266 
G01 X-0.5285 Y0.3209 
G01 X-0.5334 Y0.3160 
G01 X-0.5391 Y0.3119 
G01 X-0.5454 Y0.3087 
G01 X-0.5521 Y0.3065 
G01 X-0.5590 Y0.3054 
G01 X-0.5660 Y0.3054 
G01 X-0.5729 Y0.3065 
G01 X-0.5796 Y0.3087 
G01 X-0.5859 Y0.3119 
G01 X-0.5915 Y0.3160 
G01 X-0.5965 Y0.3209 
G01 X-0.6006 Y0.3266 
G01 X-0.6038 Y0.3329 
G01 X-0.6060 Y0.3396 
G01 X-0.6071 Y0.3465 
G01 X-0.6071 Y0.3535 
G01 X-0.6061 Y0.3598 
G01 X-0.7593 Y0.5129 
G01 X-0.7621 Y0.5157 
G01 X-0.7641 Y0.5192 
G01 X-0.7651 Y0.5230 
G01 X-0.7651 Y0.7480 
G01 X-0.7651 Y0.7520 
G01 X-0.7641 Y0.7558 
G01 X-0.7621 Y0.7593 
G01 X-0.7061 Y0.8152 
G01 X-0.7071 Y0.8215 
G00 Z0.0200 
G00 X-0.6821 Y0.2340 
G01 Z-0.0050 F2.50  
G01 X-0.6821 Y0.2410 
G01 X-0.6810 Y0.2479 
G01 X-0.6788 Y0.2546 
G01 X-0.6756 Y0.2609 
G01 X-0.6715 Y0.2665 
G01 X-0.6665 Y0.2715 
G01 X-0.6651 Y0.2726 
G01 X-0.6651 Y0.3687 
G01 X-0.8121 Y0.5157 
G01 X-0.8141 Y0.5192 
G01 X-0.8151 Y0.5230 
G01 X-0.8151 Y0.5270 
G01 X-0.8151 Y0.5270 
G01 X-0.8151 Y0.7980 
G01 X-0.8151 Y0.8020 
G01 X-0.8141 Y0.8058 
G01 X-0.8121 Y0.8093 
G01 X-0.8061 Y0.8152 
G01 X-0.8071 Y0.8215 
G01 X-0.8071 Y0.8285 
G01 X-0.8060 Y0.8354 
G01 X-0.8038 Y0.8421 
G01 X-0.8006 Y0.8484 
G01 X-0.7965 Y0.8540 
G01 X-0.7915 Y0.8590 
G01 X-0.7859 Y0.8631 
G01 X-0.7796 Y0.8663 
G01 X-0.7729 Y0.8685 
G01 X-0.7660 Y0.8696 
G01 X-0.7590 Y0.8696 
G01 X-0.7521 Y0.8685 
G01 X-0.7454 Y0.8663 
G01 X-0.7391 Y0.8631 
G01 X-0.7334 Y0.8590 
G01 X-0.7285 Y0.8540 
G01 X-0.7244 Y0.8484 
G01 X-0.7212 Y0.8421 
G01 X-0.7190 Y0.8354 
G01 X-0.7179 Y0.8285 
G01 X-0.7179 Y0.8215 
G01 X-0.7190 Y0.8146 
G01 X-0.7212 Y0.8079 
G01 X-0.7244 Y0.8016 
G01 X-0.7285 Y0.7959 
G01 X-0.7334 Y0.7910 
G01 X-0.7391 Y0.7869 
G01 X-0.7454 Y0.7837 
G01 X-0.7521 Y0.7815 
G01 X-0.7590 Y0.7804 
G01 X-0.7660 Y0.7804 
G01 X-0.7729 Y0.7815 
G01 X-0.7796 Y0.7837 
G01 X-0.7849 Y0.7864 
G01 X-0.7849 Y0.5313 
G01 X-0.6379 Y0.3843 
G01 X-0.6359 Y0.3808 
G01 X-0.6349 Y0.3770 
G01 X-0.6349 Y0.3730 
G01 X-0.6349 Y0.2821 
G01 X-0.6340 Y0.2821 
G01 X-0.6271 Y0.2810 
G01 X-0.6204 Y0.2788 
G01 X-0.6141 Y0.2756 
G01 X-0.6084 Y0.2715 
G01 X-0.6035 Y0.2665 
G01 X-0.5994 Y0.2609 
G01 X-0.5962 Y0.2546 
G01 X-0.5940 Y0.2479 
G01 X-0.5929 Y0.2410 
G01 X-0.5929 Y0.2340 
G01 X-0.5940 Y0.2271 
G01 X-0.5962 Y0.2204 
G01 X-0.5994 Y0.2141 
G01 X-0.6035 Y0.2084 
G01 X-0.6084 Y0.2035 
G01 X-0.6141 Y0.1994 
G01 X-0.6204 Y0.1962 
G01 X-0.6271 Y0.1940 
G01 X-0.6340 Y0.1929 
G01 X-0.6410 Y0.1929 
G01 X-0.6479 Y0.1940 
G01 X-0.6546 Y0.1962 
G01 X-0.6609 Y0.1994 
G01 X-0.6665 Y0.2035 
G01 X-0.6715 Y0.2084 
G01 X-0.6756 Y0.2141 
G01 X-0.6788 Y0.2204 
G01 X-0.6810 Y0.2271 
G01 X-0.6821 Y0.2340 
G00 Z0.0200 
G00 X-0.5821 Y0.8215 
G01 Z-0.0050 F2.50  
G01 X-0.5821 Y0.8285 
G01 X-0.5810 Y0.8354 
G01 X-0.5788 Y0.8421 
G01 X-0.5756 Y0.8484 
G01 X-0.5715 Y0.8540 
G01 X-0.5665 Y0.8590 
G01 X-0.5609 Y0.8631 
G01 X-0.5599 Y0.8636 
G01 X-0.6063 Y0.9099 
G01 X-0.6205 Y0.9099 
G01 X-0.6212 Y0.9079 
G01 X-0.6244 Y0.9016 
G01 X-0.6285 Y0.8959 
G01 X-0.6334 Y0.8910 
G01 X-0.6391 Y0.8869 
G01 X-0.6454 Y0.8837 
G01 X-0.6521 Y0.8815 
G01 X-0.6590 Y0.8804 
G01 X-0.6660 Y0.8804 
G01 X-0.6729 Y0.8815 
G01 X-0.6796 Y0.8837 
G01 X-0.6859 Y0.8869 
G01 X-0.6915 Y0.8910 
G01 X-0.6965 Y0.8959 
G01 X-0.7006 Y0.9016 
G01 X-0.7038 Y0.9079 
G01 X-0.7060 Y0.9146 
G01 X-0.7071 Y0.9215 
G01 X-0.7071 Y0.9285 
G01 X-0.7060 Y0.9354 
G01 X-0.7038 Y0.9421 
G01 X-0.7006 Y0.9484 
G01 X-0.6965 Y0.9540 
G01 X-0.6915 Y0.9590 
G01 X-0.6859 Y0.9631 
G01 X-0.6796 Y0.9663 
G01 X-0.6729 Y0.9685 
G01 X-0.6660 Y0.9696 
G01 X-0.6590 Y0.9696 
G01 X-0.6521 Y0.9685 
G01 X-0.6454 Y0.9663 
G01 X-0.6391 Y0.9631 
G01 X-0.6334 Y0.9590 
G01 X-0.6285 Y0.9540 
G01 X-0.6244 Y0.9484 
G01 X-0.6212 Y0.9421 
G01 X-0.6205 Y0.9401 
G01 X-0.6020 Y0.9401 
G01 X-0.5980 Y0.9401 
G01 X-0.5942 Y0.9391 
G01 X-0.5907 Y0.9371 
G01 X-0.5282 Y0.8746 
G01 X-0.5254 Y0.8718 
G01 X-0.5234 Y0.8683 
G01 X-0.5231 Y0.8672 
G01 X-0.5204 Y0.8663 
G01 X-0.5141 Y0.8631 
G01 X-0.5084 Y0.8590 
G01 X-0.5035 Y0.8540 
G01 X-0.4994 Y0.8484 
G01 X-0.4962 Y0.8421 
G01 X-0.4940 Y0.8354 
G01 X-0.4929 Y0.8285 
G01 X-0.4929 Y0.8215 
G01 X-0.4940 Y0.8146 
G01 X-0.4962 Y0.8079 
G01 X-0.4994 Y0.8016 
G01 X-0.5035 Y0.7959 
G01 X-0.5084 Y0.7910 
G01 X-0.5141 Y0.7869 
G01 X-0.5204 Y0.7837 
G01 X-0.5271 Y0.7815 
G01 X-0.5340 Y0.7804 
G01 X-0.5410 Y0.7804 
G01 X-0.5479 Y0.7815 
G01 X-0.5546 Y0.7837 
G01 X-0.5609 Y0.7869 
G01 X-0.5665 Y0.7910 
G01 X-0.5715 Y0.7959 
G01 X-0.5756 Y0.8016 
G01 X-0.5788 Y0.8079 
G01 X-0.5810 Y0.8146 
G01 X-0.5821 Y0.8215 
G00 Z0.0200 
G00 X-0.2821 Y0.8215 
G01 Z-0.0050 F2.50  
G01 X-0.2821 Y0.8285 
G01 X-0.2810 Y0.8354 
G01 X-0.2788 Y0.8421 
G01 X-0.2756 Y0.8484 
G01 X-0.2715 Y0.8540 
G01 X-0.2665 Y0.8590 
G01 X-0.2609 Y0.8631 
G01 X-0.2546 Y0.8663 
G01 X-0.2479 Y0.8685 
G01 X-0.2410 Y0.8696 
G01 X-0.2340 Y0.8696 
G01 X-0.2271 Y0.8685 
G01 X-0.2204 Y0.8663 
G01 X-0.2141 Y0.8631 
G01 X-0.2084 Y0.8590 
G01 X-0.2035 Y0.8540 
G01 X-0.1994 Y0.8484 
G01 X-0.1962 Y0.8421 
G01 X-0.1940 Y0.8354 
G01 X-0.1929 Y0.8285 
G01 X-0.1929 Y0.8215 
G01 X-0.1940 Y0.8146 
G01 X-0.1962 Y0.8079 
G01 X-0.1994 Y0.8016 
G01 X-0.2035 Y0.7959 
G01 X-0.2084 Y0.7910 
G01 X-0.2141 Y0.7869 
G01 X-0.2204 Y0.7837 
G01 X-0.2271 Y0.7815 
G01 X-0.2340 Y0.7804 
G01 X-0.2410 Y0.7804 
G01 X-0.2473 Y0.7814 
G01 X-0.4282 Y0.6004 
G01 X-0.4317 Y0.5984 
G01 X-0.4355 Y0.5974 
G01 X-0.4395 Y0.5974 
G01 X-0.6055 Y0.5974 
G01 X-0.6093 Y0.5984 
G01 X-0.6128 Y0.6004 
G01 X-0.6156 Y0.6032 
G01 X-0.6433 Y0.6310 
G01 X-0.6463 Y0.6304 
G01 X-0.6517 Y0.6304 
G01 X-0.6570 Y0.6315 
G01 X-0.6621 Y0.6335 
G01 X-0.6666 Y0.6366 
G01 X-0.6704 Y0.6404 
G01 X-0.6734 Y0.6449 
G01 X-0.6755 Y0.6499 
G01 X-0.6766 Y0.6553 
G01 X-0.6766 Y0.7007 
G01 X-0.6755 Y0.7060 
G01 X-0.6734 Y0.7111 
G01 X-0.6704 Y0.7156 
G01 X-0.6666 Y0.7194 
G01 X-0.6621 Y0.7224 
G01 X-0.6570 Y0.7245 
G01 X-0.6517 Y0.7256 
G01 X-0.6463 Y0.7256 
G01 X-0.6409 Y0.7245 
G01 X-0.6359 Y0.7224 
G01 X-0.6314 Y0.7194 
G01 X-0.6276 Y0.7156 
G01 X-0.6245 Y0.7111 
G01 X-0.6225 Y0.7060 
G01 X-0.6214 Y0.7007 
G01 X-0.6214 Y0.6553 
G01 X-0.6220 Y0.6523 
G01 X-0.5972 Y0.6276 
G01 X-0.4438 Y0.6276 
G01 X-0.2731 Y0.7982 
G01 X-0.2756 Y0.8016 
G01 X-0.2788 Y0.8079 
G01 X-0.2810 Y0.8146 
G01 X-0.2821 Y0.8215 
G00 Z0.0200 
G00 X-0.5276 Y0.4643 
G01 Z-0.0050 F2.50  
G01 X-0.5276 Y0.5097 
G01 X-0.5265 Y0.5150 
G01 X-0.5244 Y0.5201 
G01 X-0.5214 Y0.5246 
G01 X-0.5176 Y0.5284 
G01 X-0.5131 Y0.5314 
G01 X-0.5080 Y0.5335 
G01 X-0.5027 Y0.5346 
G01 X-0.4973 Y0.5346 
G01 X-0.4919 Y0.5335 
G01 X-0.4869 Y0.5314 
G01 X-0.4824 Y0.5284 
G01 X-0.4786 Y0.5246 
G01 X-0.4755 Y0.5201 
G01 X-0.4735 Y0.5150 
G01 X-0.4724 Y0.5097 
G01 X-0.4724 Y0.4643 
G01 X-0.4735 Y0.4589 
G01 X-0.4739 Y0.4578 
G01 X-0.3812 Y0.3651 
G01 X-0.3045 Y0.3651 
G01 X-0.3038 Y0.3671 
G01 X-0.3006 Y0.3734 
G01 X-0.2965 Y0.3790 
G01 X-0.2915 Y0.3840 
G01 X-0.2859 Y0.3881 
G01 X-0.2796 Y0.3913 
G01 X-0.2729 Y0.3935 
G01 X-0.2660 Y0.3946 
G01 X-0.2590 Y0.3946 
G01 X-0.2521 Y0.3935 
G01 X-0.2454 Y0.3913 
G01 X-0.2391 Y0.3881 
G01 X-0.2334 Y0.3840 
G01 X-0.2285 Y0.3790 
G01 X-0.2244 Y0.3734 
G01 X-0.2212 Y0.3671 
G01 X-0.2190 Y0.3604 
G01 X-0.2179 Y0.3535 
G01 X-0.2179 Y0.3465 
G01 X-0.2190 Y0.3396 
G01 X-0.2212 Y0.3329 
G01 X-0.2244 Y0.3266 
G01 X-0.2285 Y0.3209 
G01 X-0.2334 Y0.3160 
G01 X-0.2391 Y0.3119 
G01 X-0.2454 Y0.3087 
G01 X-0.2521 Y0.3065 
G01 X-0.2590 Y0.3054 
G01 X-0.2660 Y0.3054 
G01 X-0.2729 Y0.3065 
G01 X-0.2796 Y0.3087 
G01 X-0.2859 Y0.3119 
G01 X-0.2915 Y0.3160 
G01 X-0.2965 Y0.3209 
G01 X-0.3006 Y0.3266 
G01 X-0.3038 Y0.3329 
G01 X-0.3045 Y0.3349 
G01 X-0.3895 Y0.3349 
G01 X-0.3933 Y0.3359 
G01 X-0.3968 Y0.3379 
G01 X-0.3996 Y0.3407 
G01 X-0.4983 Y0.4394 
G01 X-0.5027 Y0.4394 
G01 X-0.5080 Y0.4405 
G01 X-0.5131 Y0.4425 
G01 X-0.5176 Y0.4456 
G01 X-0.5214 Y0.4494 
G01 X-0.5244 Y0.4539 
G01 X-0.5265 Y0.4589 
G01 X-0.5276 Y0.4643 
G00 Z0.0200 
G00 X-0.5204 Y0.6553 
G01 Z-0.0050 F2.50  
G01 X-0.5215 Y0.6499 
G01 X-0.5235 Y0.6449 
G01 X-0.5266 Y0.6404 
G01 X-0.5304 Y0.6366 
G01 X-0.5349 Y0.6335 
G01 X-0.5399 Y0.6315 
G01 X-0.5453 Y0.6304 
G01 X-0.5507 Y0.6304 
G01 X-0.5560 Y0.6315 
G01 X-0.5611 Y0.6335 
G01 X-0.5656 Y0.6366 
G01 X-0.5694 Y0.6404 
G01 X-0.5724 Y0.6449 
G01 X-0.5745 Y0.6499 
G01 X-0.5756 Y0.6553 
G01 X-0.5756 Y0.7007 
G01 X-0.5745 Y0.7060 
G01 X-0.5724 Y0.7111 
G01 X-0.5694 Y0.7156 
G01 X-0.5656 Y0.7194 
G01 X-0.5611 Y0.7224 
G01 X-0.5560 Y0.7245 
G01 X-0.5507 Y0.7256 
G01 X-0.5453 Y0.7256 
G01 X-0.5399 Y0.7245 
G01 X-0.5349 Y0.7224 
G01 X-0.5304 Y0.7194 
G01 X-0.5266 Y0.7156 
G01 X-0.5235 Y0.7111 
G01 X-0.5215 Y0.7060 
G01 X-0.5214 Y0.7059 
G01 X-0.4901 Y0.7373 
G01 X-0.4901 Y0.9562 
G01 X-0.5063 Y0.9724 
G01 X-0.6937 Y0.9724 
G01 X-0.7221 Y0.9440 
G01 X-0.7212 Y0.9421 
G01 X-0.7190 Y0.9354 
G01 X-0.7179 Y0.9285 
G01 X-0.7179 Y0.9215 
G01 X-0.7190 Y0.9146 
G01 X-0.7212 Y0.9079 
G01 X-0.7244 Y0.9016 
G01 X-0.7285 Y0.8959 
G01 X-0.7334 Y0.8910 
G01 X-0.7391 Y0.8869 
G01 X-0.7454 Y0.8837 
G01 X-0.7521 Y0.8815 
G01 X-0.7590 Y0.8804 
G01 X-0.7660 Y0.8804 
G01 X-0.7729 Y0.8815 
G01 X-0.7796 Y0.8837 
G01 X-0.7859 Y0.8869 
G01 X-0.7915 Y0.8910 
G01 X-0.7965 Y0.8959 
G01 X-0.8006 Y0.9016 
G01 X-0.8038 Y0.9079 
G01 X-0.8060 Y0.9146 
G01 X-0.8071 Y0.9215 
G01 X-0.8071 Y0.9285 
G01 X-0.8060 Y0.9354 
G01 X-0.8038 Y0.9421 
G01 X-0.8006 Y0.9484 
G01 X-0.7965 Y0.9540 
G01 X-0.7915 Y0.9590 
G01 X-0.7859 Y0.9631 
G01 X-0.7796 Y0.9663 
G01 X-0.7729 Y0.9685 
G01 X-0.7660 Y0.9696 
G01 X-0.7590 Y0.9696 
G01 X-0.7521 Y0.9685 
G01 X-0.7454 Y0.9663 
G01 X-0.7435 Y0.9654 
G01 X-0.7093 Y0.9996 
G01 X-0.7058 Y1.0016 
G01 X-0.7020 Y1.0026 
G01 X-0.6980 Y1.0026 
G01 X-0.4980 Y1.0026 
G01 X-0.4942 Y1.0016 
G01 X-0.4907 Y0.9996 
G01 X-0.4879 Y0.9968 
G01 X-0.4629 Y0.9718 
G01 X-0.4609 Y0.9683 
G01 X-0.4599 Y0.9645 
G01 X-0.4599 Y0.9605 
G01 X-0.4599 Y0.7290 
G01 X-0.4609 Y0.7252 
G01 X-0.4629 Y0.7217 
G01 X-0.4657 Y0.7189 
G01 X-0.5204 Y0.6642 
G01 X-0.5204 Y0.6553 
G00 Z0.0200 
G00 X-0.6276 Y0.4643 
G01 Z-0.0050 F2.50  
G01 X-0.6276 Y0.5097 
G01 X-0.6265 Y0.5150 
G01 X-0.6244 Y0.5201 
G01 X-0.6214 Y0.5246 
G01 X-0.6176 Y0.5284 
G01 X-0.6131 Y0.5314 
G01 X-0.6080 Y0.5335 
G01 X-0.6027 Y0.5346 
G01 X-0.5973 Y0.5346 
G01 X-0.5919 Y0.5335 
G01 X-0.5869 Y0.5314 
G01 X-0.5824 Y0.5284 
G01 X-0.5786 Y0.5246 
G01 X-0.5755 Y0.5201 
G01 X-0.5735 Y0.5150 
G01 X-0.5724 Y0.5097 
G01 X-0.5724 Y0.4643 
G01 X-0.5735 Y0.4589 
G01 X-0.5739 Y0.4578 
G01 X-0.5437 Y0.4276 
G01 X-0.5145 Y0.4276 
G01 X-0.5105 Y0.4276 
G01 X-0.5067 Y0.4266 
G01 X-0.5032 Y0.4246 
G01 X-0.3565 Y0.2779 
G01 X-0.3546 Y0.2788 
G01 X-0.3479 Y0.2810 
G01 X-0.3410 Y0.2821 
G01 X-0.3340 Y0.2821 
G01 X-0.3271 Y0.2810 
G01 X-0.3204 Y0.2788 
G01 X-0.3141 Y0.2756 
G01 X-0.3084 Y0.2715 
G01 X-0.3035 Y0.2665 
G01 X-0.2994 Y0.2609 
G01 X-0.2962 Y0.2546 
G01 X-0.2940 Y0.2479 
G01 X-0.2929 Y0.2410 
G01 X-0.2929 Y0.2340 
G01 X-0.2940 Y0.2271 
G01 X-0.2962 Y0.2204 
G01 X-0.2994 Y0.2141 
G01 X-0.3035 Y0.2084 
G01 X-0.3084 Y0.2035 
G01 X-0.3141 Y0.1994 
G01 X-0.3204 Y0.1962 
G01 X-0.3271 Y0.1940 
G01 X-0.3340 Y0.1929 
G01 X-0.3410 Y0.1929 
G01 X-0.3479 Y0.1940 
G01 X-0.3546 Y0.1962 
G01 X-0.3609 Y0.1994 
G01 X-0.3665 Y0.2035 
G01 X-0.3715 Y0.2084 
G01 X-0.3756 Y0.2141 
G01 X-0.3788 Y0.2204 
G01 X-0.3810 Y0.2271 
G01 X-0.3821 Y0.2340 
G01 X-0.3821 Y0.2410 
G01 X-0.3810 Y0.2479 
G01 X-0.3788 Y0.2546 
G01 X-0.3779 Y0.2565 
G01 X-0.5188 Y0.3974 
G01 X-0.5520 Y0.3974 
G01 X-0.5558 Y0.3984 
G01 X-0.5593 Y0.4004 
G01 X-0.5621 Y0.4032 
G01 X-0.5983 Y0.4394 
G01 X-0.6027 Y0.4394 
G01 X-0.6080 Y0.4405 
G01 X-0.6131 Y0.4425 
G01 X-0.6176 Y0.4456 
G01 X-0.6214 Y0.4494 
G01 X-0.6244 Y0.4539 
G01 X-0.6265 Y0.4589 
G01 X-0.6276 Y0.4643 
G00 Z0.0200 
G00 X-0.7701 Y0.5235 
G01 Z-0.0050 F2.50  
G01 X-0.7701 Y0.7474 
G01 X-0.7701 Y0.7526 
G01 X-0.7687 Y0.7578 
G01 X-0.7661 Y0.7623 
G01 X-0.7519 Y0.7765 
G01 X-0.7586 Y0.7754 
G01 X-0.7664 Y0.7754 
G01 X-0.7741 Y0.7766 
G01 X-0.7799 Y0.7785 
G01 X-0.7799 Y0.5333 
G01 X-0.7701 Y0.5235 
G00 Z0.0200 
G00 X-0.5185 Y0.8710 
G01 Z-0.0050 F2.50  
G01 X-0.5115 Y0.8674 
G01 X-0.5052 Y0.8628 
G01 X-0.4997 Y0.8573 
G01 X-0.4951 Y0.8510 
G01 X-0.4951 Y0.9542 
G01 X-0.5083 Y0.9674 
G01 X-0.6365 Y0.9674 
G01 X-0.6302 Y0.9628 
G01 X-0.6247 Y0.9573 
G01 X-0.6201 Y0.9510 
G01 X-0.6171 Y0.9451 
G01 X-0.6026 Y0.9451 
G01 X-0.5974 Y0.9451 
G01 X-0.5922 Y0.9437 
G01 X-0.5877 Y0.9411 
G01 X-0.5252 Y0.8786 
G01 X-0.5214 Y0.8748 
G01 X-0.5194 Y0.8712 
G01 X-0.5185 Y0.8710 
G00 Z0.0200 
G00 X-0.5326 Y0.4638 
G01 Z-0.0050 F2.50  
G01 X-0.5326 Y0.5102 
G01 X-0.5313 Y0.5165 
G01 X-0.5289 Y0.5224 
G01 X-0.5253 Y0.5278 
G01 X-0.5208 Y0.5323 
G01 X-0.5154 Y0.5359 
G01 X-0.5095 Y0.5383 
G01 X-0.5032 Y0.5396 
G01 X-0.4968 Y0.5396 
G01 X-0.4905 Y0.5383 
G01 X-0.4846 Y0.5359 
G01 X-0.4792 Y0.5323 
G01 X-0.4747 Y0.5278 
G01 X-0.4711 Y0.5224 
G01 X-0.4687 Y0.5165 
G01 X-0.4674 Y0.5102 
G01 X-0.4674 Y0.4638 
G01 X-0.4683 Y0.4592 
G01 X-0.3792 Y0.3701 
G01 X-0.3079 Y0.3701 
G01 X-0.3049 Y0.3760 
G01 X-0.3003 Y0.3823 
G01 X-0.2948 Y0.3878 
G01 X-0.2885 Y0.3924 
G01 X-0.2815 Y0.3960 
G01 X-0.2741 Y0.3984 
G01 X-0.2664 Y0.3996 
G01 X-0.2586 Y0.3996 
G01 X-0.2509 Y0.3984 
G01 X-0.2435 Y0.3960 
G01 X-0.2365 Y0.3924 
G01 X-0.2302 Y0.3878 
G01 X-0.2247 Y0.3823 
G01 X-0.2201 Y0.3760 
G01 X-0.2165 Y0.3690 
G01 X-0.2141 Y0.3616 
G01 X-0.2129 Y0.3539 
G01 X-0.2129 Y0.3461 
G01 X-0.2141 Y0.3384 
G01 X-0.2165 Y0.3310 
G01 X-0.2201 Y0.3240 
G01 X-0.2247 Y0.3177 
G01 X-0.2302 Y0.3122 
G01 X-0.2365 Y0.3076 
G01 X-0.2435 Y0.3040 
G01 X-0.2509 Y0.3016 
G01 X-0.2586 Y0.3004 
G01 X-0.2664 Y0.3004 
G01 X-0.2741 Y0.3016 
G01 X-0.2815 Y0.3040 
G01 X-0.2885 Y0.3076 
G01 X-0.2948 Y0.3122 
G01 X-0.3003 Y0.3177 
G01 X-0.3049 Y0.3240 
G01 X-0.3079 Y0.3299 
G01 X-0.3901 Y0.3299 
G01 X-0.3953 Y0.3313 
G01 X-0.3998 Y0.3339 
G01 X-0.4036 Y0.3377 
G01 X-0.5003 Y0.4344 
G01 X-0.5032 Y0.4344 
G01 X-0.5095 Y0.4357 
G01 X-0.5154 Y0.4381 
G01 X-0.5208 Y0.4417 
G01 X-0.5253 Y0.4462 
G01 X-0.5289 Y0.4516 
G01 X-0.5313 Y0.4575 
G01 X-0.5326 Y0.4638 
G00 Z0.0200 
G00 X-0.2871 Y0.8211 
G01 Z-0.0050 F2.50  
G01 X-0.2871 Y0.8289 
G01 X-0.2859 Y0.8366 
G01 X-0.2835 Y0.8440 
G01 X-0.2799 Y0.8510 
G01 X-0.2753 Y0.8573 
G01 X-0.2698 Y0.8628 
G01 X-0.2635 Y0.8674 
G01 X-0.2565 Y0.8710 
G01 X-0.2491 Y0.8734 
G01 X-0.2414 Y0.8746 
G01 X-0.2336 Y0.8746 
G01 X-0.2259 Y0.8734 
G01 X-0.2185 Y0.8710 
G01 X-0.2115 Y0.8674 
G01 X-0.2052 Y0.8628 
G01 X-0.1997 Y0.8573 
G01 X-0.1951 Y0.8510 
G01 X-0.1915 Y0.8440 
G01 X-0.1891 Y0.8366 
G01 X-0.1879 Y0.8289 
G01 X-0.1879 Y0.8211 
G01 X-0.1891 Y0.8134 
G01 X-0.1915 Y0.8060 
G01 X-0.1951 Y0.7990 
G01 X-0.1997 Y0.7927 
G01 X-0.2052 Y0.7872 
G01 X-0.2115 Y0.7826 
G01 X-0.2185 Y0.7790 
G01 X-0.2259 Y0.7766 
G01 X-0.2336 Y0.7754 
G01 X-0.2414 Y0.7754 
G01 X-0.2455 Y0.7761 
G01 X-0.4252 Y0.5964 
G01 X-0.4297 Y0.5938 
G01 X-0.4349 Y0.5924 
G01 X-0.4401 Y0.5924 
G01 X-0.6061 Y0.5924 
G01 X-0.6113 Y0.5938 
G01 X-0.6158 Y0.5964 
G01 X-0.6196 Y0.6002 
G01 X-0.6450 Y0.6256 
G01 X-0.6458 Y0.6254 
G01 X-0.6522 Y0.6254 
G01 X-0.6585 Y0.6267 
G01 X-0.6644 Y0.6291 
G01 X-0.6698 Y0.6327 
G01 X-0.6743 Y0.6372 
G01 X-0.6779 Y0.6426 
G01 X-0.6803 Y0.6485 
G01 X-0.6816 Y0.6548 
G01 X-0.6816 Y0.7012 
G01 X-0.6803 Y0.7075 
G01 X-0.6779 Y0.7134 
G01 X-0.6743 Y0.7188 
G01 X-0.6698 Y0.7233 
G01 X-0.6644 Y0.7269 
G01 X-0.6585 Y0.7293 
G01 X-0.6522 Y0.7306 
G01 X-0.6458 Y0.7306 
G01 X-0.6395 Y0.7293 
G01 X-0.6336 Y0.7269 
G01 X-0.6282 Y0.7233 
G01 X-0.6237 Y0.7188 
G01 X-0.6201 Y0.7134 
G01 X-0.6177 Y0.7075 
G01 X-0.6164 Y0.7012 
G01 X-0.6164 Y0.6548 
G01 X-0.6166 Y0.6540 
G01 X-0.5952 Y0.6326 
G01 X-0.5686 Y0.6326 
G01 X-0.5688 Y0.6327 
G01 X-0.5733 Y0.6372 
G01 X-0.5769 Y0.6426 
G01 X-0.5793 Y0.6485 
G01 X-0.5806 Y0.6548 
G01 X-0.5806 Y0.7012 
G01 X-0.5793 Y0.7075 
G01 X-0.5769 Y0.7134 
G01 X-0.5733 Y0.7188 
G01 X-0.5688 Y0.7233 
G01 X-0.5634 Y0.7269 
G01 X-0.5575 Y0.7293 
G01 X-0.5512 Y0.7306 
G01 X-0.5448 Y0.7306 
G01 X-0.5385 Y0.7293 
G01 X-0.5326 Y0.7269 
G01 X-0.5272 Y0.7233 
G01 X-0.5227 Y0.7188 
G01 X-0.5199 Y0.7145 
G01 X-0.4951 Y0.7393 
G01 X-0.4951 Y0.7990 
G01 X-0.4997 Y0.7927 
G01 X-0.5052 Y0.7872 
G01 X-0.5115 Y0.7826 
G01 X-0.5185 Y0.7790 
G01 X-0.5259 Y0.7766 
G01 X-0.5336 Y0.7754 
G01 X-0.5414 Y0.7754 
G01 X-0.5491 Y0.7766 
G01 X-0.5565 Y0.7790 
G01 X-0.5635 Y0.7826 
G01 X-0.5698 Y0.7872 
G01 X-0.5753 Y0.7927 
G01 X-0.5799 Y0.7990 
G01 X-0.5835 Y0.8060 
G01 X-0.5859 Y0.8134 
G01 X-0.5871 Y0.8211 
G01 X-0.5871 Y0.8289 
G01 X-0.5859 Y0.8366 
G01 X-0.5835 Y0.8440 
G01 X-0.5799 Y0.8510 
G01 X-0.5753 Y0.8573 
G01 X-0.5698 Y0.8628 
G01 X-0.5677 Y0.8643 
G01 X-0.6083 Y0.9049 
G01 X-0.6171 Y0.9049 
G01 X-0.6201 Y0.8990 
G01 X-0.6247 Y0.8927 
G01 X-0.6302 Y0.8872 
G01 X-0.6365 Y0.8826 
G01 X-0.6435 Y0.8790 
G01 X-0.6509 Y0.8766 
G01 X-0.6586 Y0.8754 
G01 X-0.6664 Y0.8754 
G01 X-0.6741 Y0.8766 
G01 X-0.6815 Y0.8790 
G01 X-0.6885 Y0.8826 
G01 X-0.6948 Y0.8872 
G01 X-0.7003 Y0.8927 
G01 X-0.7049 Y0.8990 
G01 X-0.7085 Y0.9060 
G01 X-0.7109 Y0.9134 
G01 X-0.7121 Y0.9211 
G01 X-0.7121 Y0.9289 
G01 X-0.7109 Y0.9366 
G01 X-0.7085 Y0.9440 
G01 X-0.7049 Y0.9510 
G01 X-0.7003 Y0.9573 
G01 X-0.6948 Y0.9628 
G01 X-0.6885 Y0.9674 
G01 X-0.6917 Y0.9674 
G01 X-0.7162 Y0.9429 
G01 X-0.7141 Y0.9366 
G01 X-0.7129 Y0.9289 
G01 X-0.7129 Y0.9211 
G01 X-0.7141 Y0.9134 
G01 X-0.7165 Y0.9060 
G01 X-0.7201 Y0.8990 
G01 X-0.7247 Y0.8927 
G01 X-0.7302 Y0.8872 
G01 X-0.7365 Y0.8826 
G01 X-0.7435 Y0.8790 
G01 X-0.7509 Y0.8766 
G01 X-0.7586 Y0.8754 
G01 X-0.7664 Y0.8754 
G01 X-0.7741 Y0.8766 
G01 X-0.7815 Y0.8790 
G01 X-0.7885 Y0.8826 
G01 X-0.7948 Y0.8872 
G01 X-0.8003 Y0.8927 
G01 X-0.8049 Y0.8990 
G01 X-0.8085 Y0.9060 
G01 X-0.8109 Y0.9134 
G01 X-0.8121 Y0.9211 
G01 X-0.8121 Y0.9289 
G01 X-0.8109 Y0.9366 
G01 X-0.8085 Y0.9440 
G01 X-0.8049 Y0.9510 
G01 X-0.8003 Y0.9573 
G01 X-0.7948 Y0.9628 
G01 X-0.7885 Y0.9674 
G01 X-0.7815 Y0.9710 
G01 X-0.7741 Y0.9734 
G01 X-0.7664 Y0.9746 
G01 X-0.7586 Y0.9746 
G01 X-0.7509 Y0.9734 
G01 X-0.7446 Y0.9713 
G01 X-0.7123 Y1.0036 
G01 X-0.7078 Y1.0062 
G01 X-0.7026 Y1.0076 
G01 X-0.6974 Y1.0076 
G01 X-0.4974 Y1.0076 
G01 X-0.4922 Y1.0062 
G01 X-0.4877 Y1.0036 
G01 X-0.4839 Y0.9998 
G01 X-0.4589 Y0.9748 
G01 X-0.4563 Y0.9703 
G01 X-0.4549 Y0.9651 
G01 X-0.4549 Y0.9599 
G01 X-0.4549 Y0.7284 
G01 X-0.4563 Y0.7232 
G01 X-0.4589 Y0.7187 
G01 X-0.4627 Y0.7149 
G01 X-0.5154 Y0.6622 
G01 X-0.5154 Y0.6548 
G01 X-0.5167 Y0.6485 
G01 X-0.5191 Y0.6426 
G01 X-0.5227 Y0.6372 
G01 X-0.5272 Y0.6327 
G01 X-0.5274 Y0.6326 
G01 X-0.4458 Y0.6326 
G01 X-0.2797 Y0.7987 
G01 X-0.2799 Y0.7990 
G01 X-0.2835 Y0.8060 
G01 X-0.2859 Y0.8134 
G01 X-0.2871 Y0.8211 
G00 Z0.0200 
G00 X-0.6871 Y0.2336 
G01 Z-0.0050 F2.50  
G01 X-0.6871 Y0.2414 
G01 X-0.6859 Y0.2491 
G01 X-0.6835 Y0.2565 
G01 X-0.6799 Y0.2635 
G01 X-0.6753 Y0.2698 
G01 X-0.6701 Y0.2750 
G01 X-0.6701 Y0.3667 
G01 X-0.8161 Y0.5127 
G01 X-0.8187 Y0.5172 
G01 X-0.8201 Y0.5224 
G01 X-0.8201 Y0.5276 
G01 X-0.8201 Y0.5276 
G01 X-0.8201 Y0.7974 
G01 X-0.8201 Y0.8026 
G01 X-0.8187 Y0.8078 
G01 X-0.8161 Y0.8123 
G01 X-0.8114 Y0.8170 
G01 X-0.8121 Y0.8211 
G01 X-0.8121 Y0.8289 
G01 X-0.8109 Y0.8366 
G01 X-0.8085 Y0.8440 
G01 X-0.8049 Y0.8510 
G01 X-0.8003 Y0.8573 
G01 X-0.7948 Y0.8628 
G01 X-0.7885 Y0.8674 
G01 X-0.7815 Y0.8710 
G01 X-0.7741 Y0.8734 
G01 X-0.7664 Y0.8746 
G01 X-0.7586 Y0.8746 
G01 X-0.7509 Y0.8734 
G01 X-0.7435 Y0.8710 
G01 X-0.7365 Y0.8674 
G01 X-0.7302 Y0.8628 
G01 X-0.7247 Y0.8573 
G01 X-0.7201 Y0.8510 
G01 X-0.7165 Y0.8440 
G01 X-0.7141 Y0.8366 
G01 X-0.7129 Y0.8289 
G01 X-0.7129 Y0.8211 
G01 X-0.7140 Y0.8144 
G01 X-0.7114 Y0.8170 
G01 X-0.7121 Y0.8211 
G01 X-0.7121 Y0.8289 
G01 X-0.7109 Y0.8366 
G01 X-0.7085 Y0.8440 
G01 X-0.7049 Y0.8510 
G01 X-0.7003 Y0.8573 
G01 X-0.6948 Y0.8628 
G01 X-0.6885 Y0.8674 
G01 X-0.6815 Y0.8710 
G01 X-0.6741 Y0.8734 
G01 X-0.6664 Y0.8746 
G01 X-0.6586 Y0.8746 
G01 X-0.6509 Y0.8734 
G01 X-0.6435 Y0.8710 
G01 X-0.6365 Y0.8674 
G01 X-0.6302 Y0.8628 
G01 X-0.6247 Y0.8573 
G01 X-0.6201 Y0.8510 
G01 X-0.6165 Y0.8440 
G01 X-0.6141 Y0.8366 
G01 X-0.6129 Y0.8289 
G01 X-0.6129 Y0.8211 
G01 X-0.6141 Y0.8134 
G01 X-0.6165 Y0.8060 
G01 X-0.6201 Y0.7990 
G01 X-0.6247 Y0.7927 
G01 X-0.6302 Y0.7872 
G01 X-0.6365 Y0.7826 
G01 X-0.6435 Y0.7790 
G01 X-0.6509 Y0.7766 
G01 X-0.6586 Y0.7754 
G01 X-0.6664 Y0.7754 
G01 X-0.6741 Y0.7766 
G01 X-0.6815 Y0.7790 
G01 X-0.6885 Y0.7826 
G01 X-0.6888 Y0.7828 
G01 X-0.7299 Y0.7417 
G01 X-0.7299 Y0.5333 
G01 X-0.5888 Y0.3922 
G01 X-0.5885 Y0.3924 
G01 X-0.5815 Y0.3960 
G01 X-0.5741 Y0.3984 
G01 X-0.5664 Y0.3996 
G01 X-0.5655 Y0.3996 
G01 X-0.5661 Y0.4002 
G01 X-0.6003 Y0.4344 
G01 X-0.6032 Y0.4344 
G01 X-0.6095 Y0.4357 
G01 X-0.6154 Y0.4381 
G01 X-0.6208 Y0.4417 
G01 X-0.6253 Y0.4462 
G01 X-0.6289 Y0.4516 
G01 X-0.6313 Y0.4575 
G01 X-0.6326 Y0.4638 
G01 X-0.6326 Y0.5102 
G01 X-0.6313 Y0.5165 
G01 X-0.6289 Y0.5224 
G01 X-0.6253 Y0.5278 
G01 X-0.6208 Y0.5323 
G01 X-0.6154 Y0.5359 
G01 X-0.6095 Y0.5383 
G01 X-0.6032 Y0.5396 
G01 X-0.5968 Y0.5396 
G01 X-0.5905 Y0.5383 
G01 X-0.5846 Y0.5359 
G01 X-0.5792 Y0.5323 
G01 X-0.5747 Y0.5278 
G01 X-0.5711 Y0.5224 
G01 X-0.5687 Y0.5165 
G01 X-0.5674 Y0.5102 
G01 X-0.5674 Y0.4638 
G01 X-0.5683 Y0.4592 
G01 X-0.5417 Y0.4326 
G01 X-0.5151 Y0.4326 
G01 X-0.5099 Y0.4326 
G01 X-0.5047 Y0.4312 
G01 X-0.5002 Y0.4286 
G01 X-0.3554 Y0.2838 
G01 X-0.3491 Y0.2859 
G01 X-0.3414 Y0.2871 
G01 X-0.3336 Y0.2871 
G01 X-0.3259 Y0.2859 
G01 X-0.3185 Y0.2835 
G01 X-0.3115 Y0.2799 
G01 X-0.3052 Y0.2753 
G01 X-0.2997 Y0.2698 
G01 X-0.2951 Y0.2635 
G01 X-0.2915 Y0.2565 
G01 X-0.2891 Y0.2491 
G01 X-0.2879 Y0.2414 
G01 X-0.2879 Y0.2336 
G01 X-0.2891 Y0.2259 
G01 X-0.2915 Y0.2185 
G01 X-0.2951 Y0.2115 
G01 X-0.2997 Y0.2052 
G01 X-0.3052 Y0.1997 
G01 X-0.3115 Y0.1951 
G01 X-0.3185 Y0.1915 
G01 X-0.3259 Y0.1891 
G01 X-0.3336 Y0.1879 
G01 X-0.3414 Y0.1879 
G01 X-0.3491 Y0.1891 
G01 X-0.3565 Y0.1915 
G01 X-0.3635 Y0.1951 
G01 X-0.3698 Y0.1997 
G01 X-0.3753 Y0.2052 
G01 X-0.3799 Y0.2115 
G01 X-0.3835 Y0.2185 
G01 X-0.3859 Y0.2259 
G01 X-0.3871 Y0.2336 
G01 X-0.3871 Y0.2414 
G01 X-0.3859 Y0.2491 
G01 X-0.3838 Y0.2554 
G01 X-0.5208 Y0.3924 
G01 X-0.5365 Y0.3924 
G01 X-0.5302 Y0.3878 
G01 X-0.5247 Y0.3823 
G01 X-0.5201 Y0.3760 
G01 X-0.5165 Y0.3690 
G01 X-0.5141 Y0.3616 
G01 X-0.5129 Y0.3539 
G01 X-0.5129 Y0.3461 
G01 X-0.5141 Y0.3384 
G01 X-0.5165 Y0.3310 
G01 X-0.5201 Y0.3240 
G01 X-0.5247 Y0.3177 
G01 X-0.5302 Y0.3122 
G01 X-0.5365 Y0.3076 
G01 X-0.5435 Y0.3040 
G01 X-0.5509 Y0.3016 
G01 X-0.5586 Y0.3004 
G01 X-0.5664 Y0.3004 
G01 X-0.5741 Y0.3016 
G01 X-0.5815 Y0.3040 
G01 X-0.5885 Y0.3076 
G01 X-0.5948 Y0.3122 
G01 X-0.6003 Y0.3177 
G01 X-0.6049 Y0.3240 
G01 X-0.6085 Y0.3310 
G01 X-0.6109 Y0.3384 
G01 X-0.6121 Y0.3461 
G01 X-0.6121 Y0.3539 
G01 X-0.6114 Y0.3580 
G01 X-0.6299 Y0.3765 
G01 X-0.6299 Y0.3724 
G01 X-0.6299 Y0.2865 
G01 X-0.6259 Y0.2859 
G01 X-0.6185 Y0.2835 
G01 X-0.6115 Y0.2799 
G01 X-0.6052 Y0.2753 
G01 X-0.5997 Y0.2698 
G01 X-0.5951 Y0.2635 
G01 X-0.5915 Y0.2565 
G01 X-0.5891 Y0.2491 
G01 X-0.5879 Y0.2414 
G01 X-0.5879 Y0.2336 
G01 X-0.5891 Y0.2259 
G01 X-0.5915 Y0.2185 
G01 X-0.5951 Y0.2115 
G01 X-0.5997 Y0.2052 
G01 X-0.6052 Y0.1997 
G01 X-0.6115 Y0.1951 
G01 X-0.6185 Y0.1915 
G01 X-0.6259 Y0.1891 
G01 X-0.6336 Y0.1879 
G01 X-0.6414 Y0.1879 
G01 X-0.6491 Y0.1891 
G01 X-0.6565 Y0.1915 
G01 X-0.6635 Y0.1951 
G01 X-0.6698 Y0.1997 
G01 X-0.6753 Y0.2052 
G01 X-0.6799 Y0.2115 
G01 X-0.6835 Y0.2185 
G01 X-0.6859 Y0.2259 
G01 X-0.6871 Y0.2336 
G00 Z0.0200 
G00 X-0.6911 Y0.8783 
G01 Z-0.0050 F2.50  
G01 X-0.6981 Y0.8834 
G01 X-0.7041 Y0.8894 
G01 X-0.7092 Y0.8964 
G01 X-0.7125 Y0.9029 
G01 X-0.7158 Y0.8964 
G01 X-0.7209 Y0.8894 
G01 X-0.7269 Y0.8834 
G01 X-0.7339 Y0.8783 
G01 X-0.7404 Y0.8750 
G01 X-0.7339 Y0.8717 
G01 X-0.7269 Y0.8666 
G01 X-0.7209 Y0.8606 
G01 X-0.7158 Y0.8536 
G01 X-0.7125 Y0.8471 
G01 X-0.7092 Y0.8536 
G01 X-0.7041 Y0.8606 
G01 X-0.6981 Y0.8666 
G01 X-0.6911 Y0.8717 
G01 X-0.6846 Y0.8750 
G01 X-0.6911 Y0.8783 
G00 Z0.0200 
G00 X-0.7741 Y0.7573 
G01 Z-0.0050 F2.50  
G01 X-0.7722 Y0.7619 
G01 X-0.7695 Y0.7660 
G01 X-0.7651 Y0.7704 
G01 X-0.7668 Y0.7704 
G01 X-0.7749 Y0.7717 
G01 X-0.7749 Y0.7534 
G01 X-0.7741 Y0.7573 
G00 Z0.0200 
G00 X-0.5089 Y0.8717 
G01 Z-0.0050 F2.50  
G01 X-0.5019 Y0.8666 
G01 X-0.5001 Y0.8648 
G01 X-0.5001 Y0.9521 
G01 X-0.5104 Y0.9624 
G01 X-0.6227 Y0.9624 
G01 X-0.6209 Y0.9606 
G01 X-0.6158 Y0.9536 
G01 X-0.6140 Y0.9501 
G01 X-0.6025 Y0.9501 
G01 X-0.5975 Y0.9501 
G01 X-0.5927 Y0.9491 
G01 X-0.5881 Y0.9472 
G01 X-0.5840 Y0.9445 
G01 X-0.5215 Y0.8820 
G01 X-0.5180 Y0.8785 
G01 X-0.5158 Y0.8752 
G01 X-0.5089 Y0.8717 
G00 Z0.0200 
G00 X-0.2921 Y0.8207 
G01 Z-0.0050 F2.50  
G01 X-0.2921 Y0.8293 
G01 X-0.2907 Y0.8378 
G01 X-0.2881 Y0.8460 
G01 X-0.2842 Y0.8536 
G01 X-0.2791 Y0.8606 
G01 X-0.2731 Y0.8666 
G01 X-0.2661 Y0.8717 
G01 X-0.2585 Y0.8756 
G01 X-0.2503 Y0.8782 
G01 X-0.2418 Y0.8796 
G01 X-0.2332 Y0.8796 
G01 X-0.2247 Y0.8782 
G01 X-0.2165 Y0.8756 
G01 X-0.2089 Y0.8717 
G01 X-0.2019 Y0.8666 
G01 X-0.1959 Y0.8606 
G01 X-0.1908 Y0.8536 
G01 X-0.1869 Y0.8460 
G01 X-0.1842 Y0.8378 
G01 X-0.1829 Y0.8293 
G01 X-0.1829 Y0.8207 
G01 X-0.1842 Y0.8122 
G01 X-0.1869 Y0.8040 
G01 X-0.1908 Y0.7964 
G01 X-0.1959 Y0.7894 
G01 X-0.2019 Y0.7834 
G01 X-0.2089 Y0.7783 
G01 X-0.2165 Y0.7744 
G01 X-0.2247 Y0.7717 
G01 X-0.2332 Y0.7704 
G01 X-0.2418 Y0.7704 
G01 X-0.2438 Y0.7707 
G01 X-0.4215 Y0.5930 
G01 X-0.4256 Y0.5903 
G01 X-0.4302 Y0.5884 
G01 X-0.4350 Y0.5874 
G01 X-0.4400 Y0.5874 
G01 X-0.6060 Y0.5874 
G01 X-0.6108 Y0.5884 
G01 X-0.6154 Y0.5903 
G01 X-0.6195 Y0.5930 
G01 X-0.6230 Y0.5965 
G01 X-0.6469 Y0.6204 
G01 X-0.6527 Y0.6204 
G01 X-0.6600 Y0.6219 
G01 X-0.6668 Y0.6247 
G01 X-0.6730 Y0.6288 
G01 X-0.6782 Y0.6340 
G01 X-0.6823 Y0.6402 
G01 X-0.6851 Y0.6470 
G01 X-0.6866 Y0.6543 
G01 X-0.6866 Y0.7017 
G01 X-0.6851 Y0.7090 
G01 X-0.6823 Y0.7158 
G01 X-0.6782 Y0.7220 
G01 X-0.6730 Y0.7272 
G01 X-0.6668 Y0.7313 
G01 X-0.6600 Y0.7341 
G01 X-0.6527 Y0.7356 
G01 X-0.6453 Y0.7356 
G01 X-0.6380 Y0.7341 
G01 X-0.6312 Y0.7313 
G01 X-0.6250 Y0.7272 
G01 X-0.6198 Y0.7220 
G01 X-0.6157 Y0.7158 
G01 X-0.6129 Y0.7090 
G01 X-0.6114 Y0.7017 
G01 X-0.6114 Y0.6559 
G01 X-0.5931 Y0.6376 
G01 X-0.5796 Y0.6376 
G01 X-0.5813 Y0.6402 
G01 X-0.5841 Y0.6470 
G01 X-0.5856 Y0.6543 
G01 X-0.5856 Y0.7017 
G01 X-0.5841 Y0.7090 
G01 X-0.5813 Y0.7158 
G01 X-0.5772 Y0.7220 
G01 X-0.5720 Y0.7272 
G01 X-0.5658 Y0.7313 
G01 X-0.5590 Y0.7341 
G01 X-0.5517 Y0.7356 
G01 X-0.5443 Y0.7356 
G01 X-0.5370 Y0.7341 
G01 X-0.5302 Y0.7313 
G01 X-0.5240 Y0.7272 
G01 X-0.5192 Y0.7223 
G01 X-0.5001 Y0.7414 
G01 X-0.5001 Y0.7852 
G01 X-0.5019 Y0.7834 
G01 X-0.5089 Y0.7783 
G01 X-0.5165 Y0.7744 
G01 X-0.5247 Y0.7717 
G01 X-0.5332 Y0.7704 
G01 X-0.5418 Y0.7704 
G01 X-0.5503 Y0.7717 
G01 X-0.5585 Y0.7744 
G01 X-0.5661 Y0.7783 
G01 X-0.5731 Y0.7834 
G01 X-0.5791 Y0.7894 
G01 X-0.5842 Y0.7964 
G01 X-0.5881 Y0.8040 
G01 X-0.5907 Y0.8122 
G01 X-0.5921 Y0.8207 
G01 X-0.5921 Y0.8293 
G01 X-0.5907 Y0.8378 
G01 X-0.5881 Y0.8460 
G01 X-0.5842 Y0.8536 
G01 X-0.5791 Y0.8606 
G01 X-0.5751 Y0.8646 
G01 X-0.6104 Y0.8999 
G01 X-0.6140 Y0.8999 
G01 X-0.6158 Y0.8964 
G01 X-0.6209 Y0.8894 
G01 X-0.6269 Y0.8834 
G01 X-0.6339 Y0.8783 
G01 X-0.6404 Y0.8750 
G01 X-0.6339 Y0.8717 
G01 X-0.6269 Y0.8666 
G01 X-0.6209 Y0.8606 
G01 X-0.6158 Y0.8536 
G01 X-0.6119 Y0.8460 
G01 X-0.6092 Y0.8378 
G01 X-0.6079 Y0.8293 
G01 X-0.6079 Y0.8207 
G01 X-0.6092 Y0.8122 
G01 X-0.6119 Y0.8040 
G01 X-0.6158 Y0.7964 
G01 X-0.6209 Y0.7894 
G01 X-0.6269 Y0.7834 
G01 X-0.6339 Y0.7783 
G01 X-0.6415 Y0.7744 
G01 X-0.6497 Y0.7717 
G01 X-0.6582 Y0.7704 
G01 X-0.6668 Y0.7704 
G01 X-0.6753 Y0.7717 
G01 X-0.6835 Y0.7744 
G01 X-0.6879 Y0.7767 
G01 X-0.7249 Y0.7396 
G01 X-0.7249 Y0.5354 
G01 X-0.5879 Y0.3983 
G01 X-0.5835 Y0.4006 
G01 X-0.5760 Y0.4030 
G01 X-0.6024 Y0.4294 
G01 X-0.6037 Y0.4294 
G01 X-0.6110 Y0.4309 
G01 X-0.6178 Y0.4337 
G01 X-0.6240 Y0.4378 
G01 X-0.6292 Y0.4430 
G01 X-0.6333 Y0.4492 
G01 X-0.6361 Y0.4560 
G01 X-0.6376 Y0.4633 
G01 X-0.6376 Y0.5107 
G01 X-0.6361 Y0.5180 
G01 X-0.6333 Y0.5248 
G01 X-0.6292 Y0.5310 
G01 X-0.6240 Y0.5362 
G01 X-0.6178 Y0.5403 
G01 X-0.6110 Y0.5431 
G01 X-0.6037 Y0.5446 
G01 X-0.5963 Y0.5446 
G01 X-0.5890 Y0.5431 
G01 X-0.5822 Y0.5403 
G01 X-0.5760 Y0.5362 
G01 X-0.5708 Y0.5310 
G01 X-0.5667 Y0.5248 
G01 X-0.5639 Y0.5180 
G01 X-0.5624 Y0.5107 
G01 X-0.5624 Y0.4633 
G01 X-0.5629 Y0.4609 
G01 X-0.5396 Y0.4376 
G01 X-0.5236 Y0.4376 
G01 X-0.5240 Y0.4378 
G01 X-0.5292 Y0.4430 
G01 X-0.5333 Y0.4492 
G01 X-0.5361 Y0.4560 
G01 X-0.5376 Y0.4633 
G01 X-0.5376 Y0.5107 
G01 X-0.5361 Y0.5180 
G01 X-0.5333 Y0.5248 
G01 X-0.5292 Y0.5310 
G01 X-0.5240 Y0.5362 
G01 X-0.5178 Y0.5403 
G01 X-0.5110 Y0.5431 
G01 X-0.5037 Y0.5446 
G01 X-0.4963 Y0.5446 
G01 X-0.4890 Y0.5431 
G01 X-0.4822 Y0.5403 
G01 X-0.4760 Y0.5362 
G01 X-0.4708 Y0.5310 
G01 X-0.4667 Y0.5248 
G01 X-0.4639 Y0.5180 
G01 X-0.4624 Y0.5107 
G01 X-0.4624 Y0.4633 
G01 X-0.4629 Y0.4609 
G01 X-0.3771 Y0.3751 
G01 X-0.3110 Y0.3751 
G01 X-0.3092 Y0.3786 
G01 X-0.3041 Y0.3856 
G01 X-0.2981 Y0.3916 
G01 X-0.2911 Y0.3967 
G01 X-0.2835 Y0.4006 
G01 X-0.2753 Y0.4032 
G01 X-0.2668 Y0.4046 
G01 X-0.2582 Y0.4046 
G01 X-0.2497 Y0.4032 
G01 X-0.2415 Y0.4006 
G01 X-0.2339 Y0.3967 
G01 X-0.2269 Y0.3916 
G01 X-0.2209 Y0.3856 
G01 X-0.2158 Y0.3786 
G01 X-0.2119 Y0.3710 
G01 X-0.2092 Y0.3628 
G01 X-0.2079 Y0.3543 
G01 X-0.2079 Y0.3457 
G01 X-0.2092 Y0.3372 
G01 X-0.2119 Y0.3290 
G01 X-0.2158 Y0.3214 
G01 X-0.2209 Y0.3144 
G01 X-0.2269 Y0.3084 
G01 X-0.2339 Y0.3033 
G01 X-0.2415 Y0.2994 
G01 X-0.2497 Y0.2967 
G01 X-0.2582 Y0.2954 
G01 X-0.2668 Y0.2954 
G01 X-0.2753 Y0.2967 
G01 X-0.2835 Y0.2994 
G01 X-0.2911 Y0.3033 
G01 X-0.2981 Y0.3084 
G01 X-0.3041 Y0.3144 
G01 X-0.3092 Y0.3214 
G01 X-0.3110 Y0.3249 
G01 X-0.3894 Y0.3249 
G01 X-0.3540 Y0.2895 
G01 X-0.3503 Y0.2907 
G01 X-0.3418 Y0.2921 
G01 X-0.3332 Y0.2921 
G01 X-0.3247 Y0.2907 
G01 X-0.3165 Y0.2881 
G01 X-0.3089 Y0.2842 
G01 X-0.3019 Y0.2791 
G01 X-0.2959 Y0.2731 
G01 X-0.2908 Y0.2661 
G01 X-0.2869 Y0.2585 
G01 X-0.2842 Y0.2503 
G01 X-0.2829 Y0.2418 
G01 X-0.2829 Y0.2332 
G01 X-0.2842 Y0.2247 
G01 X-0.2869 Y0.2165 
G01 X-0.2908 Y0.2089 
G01 X-0.2959 Y0.2019 
G01 X-0.3019 Y0.1959 
G01 X-0.3089 Y0.1908 
G01 X-0.3165 Y0.1869 
G01 X-0.3247 Y0.1842 
G01 X-0.3332 Y0.1829 
G01 X-0.3418 Y0.1829 
G01 X-0.3503 Y0.1842 
G01 X-0.3585 Y0.1869 
G01 X-0.3661 Y0.1908 
G01 X-0.3731 Y0.1959 
G01 X-0.3791 Y0.2019 
G01 X-0.3842 Y0.2089 
G01 X-0.3881 Y0.2165 
G01 X-0.3907 Y0.2247 
G01 X-0.3921 Y0.2332 
G01 X-0.3921 Y0.2418 
G01 X-0.3907 Y0.2503 
G01 X-0.3895 Y0.2540 
G01 X-0.5204 Y0.3849 
G01 X-0.5158 Y0.3786 
G01 X-0.5119 Y0.3710 
G01 X-0.5092 Y0.3628 
G01 X-0.5079 Y0.3543 
G01 X-0.5079 Y0.3457 
G01 X-0.5092 Y0.3372 
G01 X-0.5119 Y0.3290 
G01 X-0.5158 Y0.3214 
G01 X-0.5209 Y0.3144 
G01 X-0.5269 Y0.3084 
G01 X-0.5339 Y0.3033 
G01 X-0.5415 Y0.2994 
G01 X-0.5497 Y0.2967 
G01 X-0.5582 Y0.2954 
G01 X-0.5668 Y0.2954 
G01 X-0.5753 Y0.2967 
G01 X-0.5835 Y0.2994 
G01 X-0.5911 Y0.3033 
G01 X-0.5981 Y0.3084 
G01 X-0.6041 Y0.3144 
G01 X-0.6092 Y0.3214 
G01 X-0.6131 Y0.3290 
G01 X-0.6157 Y0.3372 
G01 X-0.6171 Y0.3457 
G01 X-0.6171 Y0.3543 
G01 X-0.6168 Y0.3563 
G01 X-0.6249 Y0.3644 
G01 X-0.6249 Y0.2908 
G01 X-0.6247 Y0.2907 
G01 X-0.6165 Y0.2881 
G01 X-0.6089 Y0.2842 
G01 X-0.6019 Y0.2791 
G01 X-0.5959 Y0.2731 
G01 X-0.5908 Y0.2661 
G01 X-0.5869 Y0.2585 
G01 X-0.5842 Y0.2503 
G01 X-0.5829 Y0.2418 
G01 X-0.5829 Y0.2332 
G01 X-0.5842 Y0.2247 
G01 X-0.5869 Y0.2165 
G01 X-0.5908 Y0.2089 
G01 X-0.5959 Y0.2019 
G01 X-0.6019 Y0.1959 
G01 X-0.6089 Y0.1908 
G01 X-0.6165 Y0.1869 
G01 X-0.6247 Y0.1842 
G01 X-0.6332 Y0.1829 
G01 X-0.6418 Y0.1829 
G01 X-0.6503 Y0.1842 
G01 X-0.6585 Y0.1869 
G01 X-0.6661 Y0.1908 
G01 X-0.6731 Y0.1959 
G01 X-0.6791 Y0.2019 
G01 X-0.6842 Y0.2089 
G01 X-0.6881 Y0.2165 
G01 X-0.6907 Y0.2247 
G01 X-0.6921 Y0.2332 
G01 X-0.6921 Y0.2418 
G01 X-0.6907 Y0.2503 
G01 X-0.6881 Y0.2585 
G01 X-0.6842 Y0.2661 
G01 X-0.6791 Y0.2731 
G01 X-0.6751 Y0.2771 
G01 X-0.6751 Y0.3646 
G01 X-0.8195 Y0.5090 
G01 X-0.8222 Y0.5131 
G01 X-0.8241 Y0.5177 
G01 X-0.8251 Y0.5225 
G01 X-0.8251 Y0.5275 
G01 X-0.8251 Y0.5275 
G01 X-0.8251 Y0.7975 
G01 X-0.8251 Y0.8025 
G01 X-0.8241 Y0.8073 
G01 X-0.8222 Y0.8119 
G01 X-0.8195 Y0.8160 
G01 X-0.8168 Y0.8187 
G01 X-0.8171 Y0.8207 
G01 X-0.8171 Y0.8293 
G01 X-0.8157 Y0.8378 
G01 X-0.8131 Y0.8460 
G01 X-0.8092 Y0.8536 
G01 X-0.8041 Y0.8606 
G01 X-0.7981 Y0.8666 
G01 X-0.7911 Y0.8717 
G01 X-0.7846 Y0.8750 
G01 X-0.7911 Y0.8783 
G01 X-0.7981 Y0.8834 
G01 X-0.8041 Y0.8894 
G01 X-0.8092 Y0.8964 
G01 X-0.8131 Y0.9040 
G01 X-0.8157 Y0.9122 
G01 X-0.8171 Y0.9207 
G01 X-0.8171 Y0.9293 
G01 X-0.8157 Y0.9378 
G01 X-0.8131 Y0.9460 
G01 X-0.8092 Y0.9536 
G01 X-0.8041 Y0.9606 
G01 X-0.7981 Y0.9666 
G01 X-0.7911 Y0.9717 
G01 X-0.7835 Y0.9756 
G01 X-0.7753 Y0.9782 
G01 X-0.7668 Y0.9796 
G01 X-0.7582 Y0.9796 
G01 X-0.7497 Y0.9782 
G01 X-0.7460 Y0.9770 
G01 X-0.7160 Y1.0070 
G01 X-0.7119 Y1.0097 
G01 X-0.7073 Y1.0116 
G01 X-0.7025 Y1.0126 
G01 X-0.6975 Y1.0126 
G01 X-0.4975 Y1.0126 
G01 X-0.4927 Y1.0116 
G01 X-0.4881 Y1.0097 
G01 X-0.4840 Y1.0070 
G01 X-0.4805 Y1.0035 
G01 X-0.4555 Y0.9785 
G01 X-0.4528 Y0.9744 
G01 X-0.4509 Y0.9698 
G01 X-0.4499 Y0.9650 
G01 X-0.4499 Y0.9600 
G01 X-0.4499 Y0.7285 
G01 X-0.4509 Y0.7237 
G01 X-0.4528 Y0.7191 
G01 X-0.4555 Y0.7150 
G01 X-0.4590 Y0.7115 
G01 X-0.5104 Y0.6601 
G01 X-0.5104 Y0.6543 
G01 X-0.5119 Y0.6470 
G01 X-0.5147 Y0.6402 
G01 X-0.5164 Y0.6376 
G01 X-0.4479 Y0.6376 
G01 X-0.2858 Y0.7996 
G01 X-0.2881 Y0.8040 
G01 X-0.2907 Y0.8122 
G01 X-0.2921 Y0.8207 
G00 Z0.0200 
G00 X-0.7013 Y0.8795 
G01 Z-0.0050 F2.50  
G01 X-0.7080 Y0.8862 
G01 X-0.7125 Y0.8924 
G01 X-0.7170 Y0.8862 
G01 X-0.7237 Y0.8795 
G01 X-0.7299 Y0.8750 
G01 X-0.7237 Y0.8705 
G01 X-0.7170 Y0.8638 
G01 X-0.7125 Y0.8576 
G01 X-0.7080 Y0.8638 
G01 X-0.7013 Y0.8705 
G01 X-0.6951 Y0.8750 
G01 X-0.7013 Y0.8795 
G00 Z0.0200 
G00 X-0.5854 Y0.4052 
G01 Z-0.0050 F2.50  
G01 X-0.5853 Y0.4052 
G01 X-0.6047 Y0.4246 
G01 X-0.6075 Y0.4251 
G01 X-0.5869 Y0.4044 
G01 X-0.5854 Y0.4052 
G00 Z0.0200 
G00 X-0.5063 Y0.8760 
G01 Z-0.0050 F2.50  
G01 X-0.5051 Y0.8751 
G01 X-0.5051 Y0.9500 
G01 X-0.5125 Y0.9574 
G01 X-0.6124 Y0.9574 
G01 X-0.6115 Y0.9562 
G01 X-0.6110 Y0.9551 
G01 X-0.6030 Y0.9551 
G01 X-0.5970 Y0.9551 
G01 X-0.5912 Y0.9539 
G01 X-0.5857 Y0.9517 
G01 X-0.5808 Y0.9484 
G01 X-0.5183 Y0.8859 
G01 X-0.5141 Y0.8817 
G01 X-0.5124 Y0.8791 
G01 X-0.5063 Y0.8760 
G00 Z0.0200 
G00 X-0.6064 Y0.7014 
G01 Z-0.0050 F2.50  
G01 X-0.6064 Y0.6580 
G01 X-0.5910 Y0.6426 
G01 X-0.5878 Y0.6426 
G01 X-0.5895 Y0.6480 
G01 X-0.5906 Y0.6546 
G01 X-0.5906 Y0.7014 
G01 X-0.5895 Y0.7080 
G01 X-0.5875 Y0.7144 
G01 X-0.5844 Y0.7203 
G01 X-0.5805 Y0.7257 
G01 X-0.5757 Y0.7305 
G01 X-0.5703 Y0.7344 
G01 X-0.5644 Y0.7375 
G01 X-0.5580 Y0.7395 
G01 X-0.5514 Y0.7406 
G01 X-0.5446 Y0.7406 
G01 X-0.5380 Y0.7395 
G01 X-0.5316 Y0.7375 
G01 X-0.5257 Y0.7344 
G01 X-0.5203 Y0.7305 
G01 X-0.5192 Y0.7294 
G01 X-0.5051 Y0.7435 
G01 X-0.5051 Y0.7749 
G01 X-0.5063 Y0.7740 
G01 X-0.5146 Y0.7698 
G01 X-0.5235 Y0.7669 
G01 X-0.5328 Y0.7654 
G01 X-0.5422 Y0.7654 
G01 X-0.5515 Y0.7669 
G01 X-0.5604 Y0.7698 
G01 X-0.5687 Y0.7740 
G01 X-0.5763 Y0.7795 
G01 X-0.5830 Y0.7862 
G01 X-0.5885 Y0.7938 
G01 X-0.5927 Y0.8021 
G01 X-0.5956 Y0.8110 
G01 X-0.5971 Y0.8203 
G01 X-0.5971 Y0.8297 
G01 X-0.5956 Y0.8390 
G01 X-0.5927 Y0.8479 
G01 X-0.5885 Y0.8562 
G01 X-0.5830 Y0.8638 
G01 X-0.5822 Y0.8646 
G01 X-0.6115 Y0.8939 
G01 X-0.6115 Y0.8938 
G01 X-0.6170 Y0.8862 
G01 X-0.6237 Y0.8795 
G01 X-0.6299 Y0.8750 
G01 X-0.6237 Y0.8705 
G01 X-0.6170 Y0.8638 
G01 X-0.6115 Y0.8562 
G01 X-0.6073 Y0.8479 
G01 X-0.6044 Y0.8390 
G01 X-0.6029 Y0.8297 
G01 X-0.6029 Y0.8203 
G01 X-0.6044 Y0.8110 
G01 X-0.6073 Y0.8021 
G01 X-0.6115 Y0.7938 
G01 X-0.6170 Y0.7862 
G01 X-0.6237 Y0.7795 
G01 X-0.6313 Y0.7740 
G01 X-0.6396 Y0.7698 
G01 X-0.6485 Y0.7669 
G01 X-0.6578 Y0.7654 
G01 X-0.6672 Y0.7654 
G01 X-0.6765 Y0.7669 
G01 X-0.6854 Y0.7698 
G01 X-0.6869 Y0.7705 
G01 X-0.7199 Y0.7375 
G01 X-0.7199 Y0.5375 
G01 X-0.6419 Y0.4595 
G01 X-0.6426 Y0.4636 
G01 X-0.6426 Y0.5104 
G01 X-0.6415 Y0.5170 
G01 X-0.6395 Y0.5234 
G01 X-0.6364 Y0.5293 
G01 X-0.6325 Y0.5347 
G01 X-0.6277 Y0.5395 
G01 X-0.6223 Y0.5434 
G01 X-0.6164 Y0.5465 
G01 X-0.6100 Y0.5485 
G01 X-0.6034 Y0.5496 
G01 X-0.5966 Y0.5496 
G01 X-0.5900 Y0.5485 
G01 X-0.5836 Y0.5465 
G01 X-0.5777 Y0.5434 
G01 X-0.5723 Y0.5395 
G01 X-0.5675 Y0.5347 
G01 X-0.5636 Y0.5293 
G01 X-0.5605 Y0.5234 
G01 X-0.5585 Y0.5170 
G01 X-0.5574 Y0.5104 
G01 X-0.5574 Y0.4636 
G01 X-0.5576 Y0.4626 
G01 X-0.5375 Y0.4426 
G01 X-0.5349 Y0.4426 
G01 X-0.5364 Y0.4447 
G01 X-0.5395 Y0.4506 
G01 X-0.5415 Y0.4570 
G01 X-0.5426 Y0.4636 
G01 X-0.5426 Y0.5104 
G01 X-0.5415 Y0.5170 
G01 X-0.5395 Y0.5234 
G01 X-0.5364 Y0.5293 
G01 X-0.5325 Y0.5347 
G01 X-0.5277 Y0.5395 
G01 X-0.5223 Y0.5434 
G01 X-0.5164 Y0.5465 
G01 X-0.5100 Y0.5485 
G01 X-0.5034 Y0.5496 
G01 X-0.4966 Y0.5496 
G01 X-0.4900 Y0.5485 
G01 X-0.4836 Y0.5465 
G01 X-0.4777 Y0.5434 
G01 X-0.4723 Y0.5395 
G01 X-0.4675 Y0.5347 
G01 X-0.4636 Y0.5293 
G01 X-0.4605 Y0.5234 
G01 X-0.4585 Y0.5170 
G01 X-0.4574 Y0.5104 
G01 X-0.4574 Y0.4636 
G01 X-0.4576 Y0.4626 
G01 X-0.3750 Y0.3801 
G01 X-0.3140 Y0.3801 
G01 X-0.3135 Y0.3812 
G01 X-0.3080 Y0.3888 
G01 X-0.3013 Y0.3955 
G01 X-0.2937 Y0.4010 
G01 X-0.2854 Y0.4052 
G01 X-0.2765 Y0.4081 
G01 X-0.2672 Y0.4096 
G01 X-0.2578 Y0.4096 
G01 X-0.2485 Y0.4081 
G01 X-0.2396 Y0.4052 
G01 X-0.2313 Y0.4010 
G01 X-0.2237 Y0.3955 
G01 X-0.2170 Y0.3888 
G01 X-0.2115 Y0.3812 
G01 X-0.2073 Y0.3729 
G01 X-0.2044 Y0.3640 
G01 X-0.2029 Y0.3547 
G01 X-0.2029 Y0.3453 
G01 X-0.2044 Y0.3360 
G01 X-0.2073 Y0.3271 
G01 X-0.2115 Y0.3188 
G01 X-0.2170 Y0.3112 
G01 X-0.2237 Y0.3045 
G01 X-0.2313 Y0.2990 
G01 X-0.2396 Y0.2948 
G01 X-0.2485 Y0.2919 
G01 X-0.2578 Y0.2904 
G01 X-0.2672 Y0.2904 
G01 X-0.2765 Y0.2919 
G01 X-0.2854 Y0.2948 
G01 X-0.2937 Y0.2990 
G01 X-0.3013 Y0.3045 
G01 X-0.3080 Y0.3112 
G01 X-0.3135 Y0.3188 
G01 X-0.3140 Y0.3199 
G01 X-0.3774 Y0.3199 
G01 X-0.3527 Y0.2952 
G01 X-0.3515 Y0.2956 
G01 X-0.3422 Y0.2971 
G01 X-0.3328 Y0.2971 
G01 X-0.3235 Y0.2956 
G01 X-0.3146 Y0.2927 
G01 X-0.3063 Y0.2885 
G01 X-0.2987 Y0.2830 
G01 X-0.2920 Y0.2763 
G01 X-0.2865 Y0.2687 
G01 X-0.2823 Y0.2604 
G01 X-0.2794 Y0.2515 
G01 X-0.2779 Y0.2422 
G01 X-0.2779 Y0.2328 
G01 X-0.2794 Y0.2235 
G01 X-0.2823 Y0.2146 
G01 X-0.2865 Y0.2063 
G01 X-0.2920 Y0.1987 
G01 X-0.2987 Y0.1920 
G01 X-0.3063 Y0.1865 
G01 X-0.3146 Y0.1823 
G01 X-0.3235 Y0.1794 
G01 X-0.3328 Y0.1779 
G01 X-0.3422 Y0.1779 
G01 X-0.3515 Y0.1794 
G01 X-0.3604 Y0.1823 
G01 X-0.3687 Y0.1865 
G01 X-0.3763 Y0.1920 
G01 X-0.3830 Y0.1987 
G01 X-0.3885 Y0.2063 
G01 X-0.3927 Y0.2146 
G01 X-0.3956 Y0.2235 
G01 X-0.3971 Y0.2328 
G01 X-0.3971 Y0.2422 
G01 X-0.3956 Y0.2515 
G01 X-0.3952 Y0.2527 
G01 X-0.5040 Y0.3614 
G01 X-0.5029 Y0.3547 
G01 X-0.5029 Y0.3453 
G01 X-0.5044 Y0.3360 
G01 X-0.5073 Y0.3271 
G01 X-0.5115 Y0.3188 
G01 X-0.5170 Y0.3112 
G01 X-0.5237 Y0.3045 
G01 X-0.5313 Y0.2990 
G01 X-0.5396 Y0.2948 
G01 X-0.5485 Y0.2919 
G01 X-0.5578 Y0.2904 
G01 X-0.5672 Y0.2904 
G01 X-0.5765 Y0.2919 
G01 X-0.5854 Y0.2948 
G01 X-0.5937 Y0.2990 
G01 X-0.6013 Y0.3045 
G01 X-0.6080 Y0.3112 
G01 X-0.6135 Y0.3188 
G01 X-0.6177 Y0.3271 
G01 X-0.6199 Y0.3338 
G01 X-0.6199 Y0.2944 
G01 X-0.6146 Y0.2927 
G01 X-0.6063 Y0.2885 
G01 X-0.5987 Y0.2830 
G01 X-0.5920 Y0.2763 
G01 X-0.5865 Y0.2687 
G01 X-0.5823 Y0.2604 
G01 X-0.5794 Y0.2515 
G01 X-0.5779 Y0.2422 
G01 X-0.5779 Y0.2328 
G01 X-0.5794 Y0.2235 
G01 X-0.5823 Y0.2146 
G01 X-0.5865 Y0.2063 
G01 X-0.5920 Y0.1987 
G01 X-0.5987 Y0.1920 
G01 X-0.6063 Y0.1865 
G01 X-0.6146 Y0.1823 
G01 X-0.6235 Y0.1794 
G01 X-0.6328 Y0.1779 
G01 X-0.6422 Y0.1779 
G01 X-0.6515 Y0.1794 
G01 X-0.6604 Y0.1823 
G01 X-0.6687 Y0.1865 
G01 X-0.6763 Y0.1920 
G01 X-0.6830 Y0.1987 
G01 X-0.6885 Y0.2063 
G01 X-0.6927 Y0.2146 
G01 X-0.6956 Y0.2235 
G01 X-0.6971 Y0.2328 
G01 X-0.6971 Y0.2422 
G01 X-0.6956 Y0.2515 
G01 X-0.6927 Y0.2604 
G01 X-0.6885 Y0.2687 
G01 X-0.6830 Y0.2763 
G01 X-0.6801 Y0.2792 
G01 X-0.6801 Y0.3625 
G01 X-0.8234 Y0.5058 
G01 X-0.8267 Y0.5107 
G01 X-0.8289 Y0.5162 
G01 X-0.8301 Y0.5220 
G01 X-0.8301 Y0.5280 
G01 X-0.8301 Y0.5280 
G01 X-0.8301 Y0.7970 
G01 X-0.8301 Y0.8030 
G01 X-0.8289 Y0.8088 
G01 X-0.8267 Y0.8143 
G01 X-0.8234 Y0.8192 
G01 X-0.8221 Y0.8205 
G01 X-0.8221 Y0.8297 
G01 X-0.8206 Y0.8390 
G01 X-0.8177 Y0.8479 
G01 X-0.8135 Y0.8562 
G01 X-0.8080 Y0.8638 
G01 X-0.8013 Y0.8705 
G01 X-0.7951 Y0.8750 
G01 X-0.8013 Y0.8795 
G01 X-0.8080 Y0.8862 
G01 X-0.8135 Y0.8938 
G01 X-0.8177 Y0.9021 
G01 X-0.8206 Y0.9110 
G01 X-0.8221 Y0.9203 
G01 X-0.8221 Y0.9297 
G01 X-0.8206 Y0.9390 
G01 X-0.8177 Y0.9479 
G01 X-0.8135 Y0.9562 
G01 X-0.8080 Y0.9638 
G01 X-0.8013 Y0.9705 
G01 X-0.7937 Y0.9760 
G01 X-0.7854 Y0.9802 
G01 X-0.7765 Y0.9831 
G01 X-0.7672 Y0.9846 
G01 X-0.7578 Y0.9846 
G01 X-0.7485 Y0.9831 
G01 X-0.7473 Y0.9827 
G01 X-0.7192 Y1.0109 
G01 X-0.7143 Y1.0142 
G01 X-0.7088 Y1.0164 
G01 X-0.7030 Y1.0176 
G01 X-0.6970 Y1.0176 
G01 X-0.4970 Y1.0176 
G01 X-0.4912 Y1.0164 
G01 X-0.4857 Y1.0142 
G01 X-0.4808 Y1.0109 
G01 X-0.4766 Y1.0067 
G01 X-0.4516 Y0.9817 
G01 X-0.4483 Y0.9768 
G01 X-0.4461 Y0.9713 
G01 X-0.4449 Y0.9655 
G01 X-0.4449 Y0.9595 
G01 X-0.4449 Y0.7280 
G01 X-0.4461 Y0.7222 
G01 X-0.4483 Y0.7167 
G01 X-0.4516 Y0.7118 
G01 X-0.4558 Y0.7076 
G01 X-0.5054 Y0.6580 
G01 X-0.5054 Y0.6546 
G01 X-0.5065 Y0.6480 
G01 X-0.5082 Y0.6426 
G01 X-0.4500 Y0.6426 
G01 X-0.2919 Y0.8006 
G01 X-0.2927 Y0.8021 
G01 X-0.2956 Y0.8110 
G01 X-0.2971 Y0.8203 
G01 X-0.2971 Y0.8297 
G01 X-0.2956 Y0.8390 
G01 X-0.2927 Y0.8479 
G01 X-0.2885 Y0.8562 
G01 X-0.2830 Y0.8638 
G01 X-0.2763 Y0.8705 
G01 X-0.2687 Y0.8760 
G01 X-0.2604 Y0.8802 
G01 X-0.2515 Y0.8831 
G01 X-0.2422 Y0.8846 
G01 X-0.2328 Y0.8846 
G01 X-0.2235 Y0.8831 
G01 X-0.2146 Y0.8802 
G01 X-0.2063 Y0.8760 
G01 X-0.1987 Y0.8705 
G01 X-0.1920 Y0.8638 
G01 X-0.1865 Y0.8562 
G01 X-0.1823 Y0.8479 
G01 X-0.1794 Y0.8390 
G01 X-0.1779 Y0.8297 
G01 X-0.1779 Y0.8203 
G01 X-0.1794 Y0.8110 
G01 X-0.1823 Y0.8021 
G01 X-0.1865 Y0.7938 
G01 X-0.1920 Y0.7862 
G01 X-0.1987 Y0.7795 
G01 X-0.2063 Y0.7740 
G01 X-0.2146 Y0.7698 
G01 X-0.2235 Y0.7669 
G01 X-0.2328 Y0.7654 
G01 X-0.2420 Y0.7654 
G01 X-0.4183 Y0.5891 
G01 X-0.4232 Y0.5858 
G01 X-0.4287 Y0.5836 
G01 X-0.4345 Y0.5824 
G01 X-0.4405 Y0.5824 
G01 X-0.6065 Y0.5824 
G01 X-0.6123 Y0.5836 
G01 X-0.6178 Y0.5858 
G01 X-0.6227 Y0.5891 
G01 X-0.6269 Y0.5933 
G01 X-0.6490 Y0.6154 
G01 X-0.6524 Y0.6154 
G01 X-0.6590 Y0.6165 
G01 X-0.6654 Y0.6185 
G01 X-0.6713 Y0.6216 
G01 X-0.6767 Y0.6255 
G01 X-0.6815 Y0.6303 
G01 X-0.6854 Y0.6357 
G01 X-0.6885 Y0.6416 
G01 X-0.6905 Y0.6480 
G01 X-0.6916 Y0.6546 
G01 X-0.6916 Y0.7014 
G01 X-0.6905 Y0.7080 
G01 X-0.6885 Y0.7144 
G01 X-0.6854 Y0.7203 
G01 X-0.6815 Y0.7257 
G01 X-0.6767 Y0.7305 
G01 X-0.6713 Y0.7344 
G01 X-0.6654 Y0.7375 
G01 X-0.6590 Y0.7395 
G01 X-0.6524 Y0.7406 
G01 X-0.6456 Y0.7406 
G01 X-0.6390 Y0.7395 
G01 X-0.6326 Y0.7375 
G01 X-0.6267 Y0.7344 
G01 X-0.6213 Y0.7305 
G01 X-0.6165 Y0.7257 
G01 X-0.6126 Y0.7203 
G01 X-0.6095 Y0.7144 
G01 X-0.6075 Y0.7080 
G01 X-0.6064 Y0.7014 
G00 Z0.0200 
G00 X-0.7052 Y0.8763 
G01 Z-0.0050 F2.50  
G01 X-0.7112 Y0.8823 
G01 X-0.7125 Y0.8841 
G01 X-0.7138 Y0.8823 
G01 X-0.7198 Y0.8763 
G01 X-0.7216 Y0.8750 
G01 X-0.7198 Y0.8737 
G01 X-0.7138 Y0.8677 
G01 X-0.7125 Y0.8659 
G01 X-0.7112 Y0.8677 
G01 X-0.7052 Y0.8737 
G01 X-0.7034 Y0.8750 
G01 X-0.7052 Y0.8763 
G00 Z0.0200 
G00 X-0.6138 Y0.8823 
G01 Z-0.0050 F2.50  
G01 X-0.6198 Y0.8763 
G01 X-0.6216 Y0.8750 
G01 X-0.6198 Y0.8737 
G01 X-0.6138 Y0.8677 
G01 X-0.6087 Y0.8610 
G01 X-0.6044 Y0.8536 
G01 X-0.6012 Y0.8458 
G01 X-0.6000 Y0.8413 
G01 X-0.5988 Y0.8458 
G01 X-0.5956 Y0.8536 
G01 X-0.5913 Y0.8610 
G01 X-0.5888 Y0.8642 
G01 X-0.6108 Y0.8862 
G01 X-0.6138 Y0.8823 
G00 Z0.0200 
G00 X-0.5101 Y0.9480 
G01 Z-0.0050 F2.50  
G01 X-0.5145 Y0.9524 
G01 X-0.5779 Y0.9524 
G01 X-0.5776 Y0.9523 
G01 X-0.5151 Y0.8898 
G01 X-0.5102 Y0.8849 
G01 X-0.5101 Y0.8846 
G01 X-0.5101 Y0.9480 
G00 Z0.0200 
G00 X-0.6014 Y0.7017 
G01 Z-0.0050 F2.50  
G01 X-0.6014 Y0.6600 
G01 X-0.5956 Y0.6542 
G01 X-0.5956 Y0.6543 
G01 X-0.5956 Y0.7017 
G01 X-0.5944 Y0.7091 
G01 X-0.5921 Y0.7163 
G01 X-0.5887 Y0.7229 
G01 X-0.5843 Y0.7290 
G01 X-0.5790 Y0.7343 
G01 X-0.5729 Y0.7387 
G01 X-0.5663 Y0.7421 
G01 X-0.5591 Y0.7444 
G01 X-0.5517 Y0.7456 
G01 X-0.5443 Y0.7456 
G01 X-0.5369 Y0.7444 
G01 X-0.5297 Y0.7421 
G01 X-0.5231 Y0.7387 
G01 X-0.5195 Y0.7361 
G01 X-0.5101 Y0.7455 
G01 X-0.5101 Y0.7664 
G01 X-0.5167 Y0.7637 
G01 X-0.5249 Y0.7615 
G01 X-0.5333 Y0.7604 
G01 X-0.5417 Y0.7604 
G01 X-0.5501 Y0.7615 
G01 X-0.5583 Y0.7637 
G01 X-0.5661 Y0.7669 
G01 X-0.5735 Y0.7712 
G01 X-0.5802 Y0.7763 
G01 X-0.5862 Y0.7823 
G01 X-0.5913 Y0.7890 
G01 X-0.5956 Y0.7964 
G01 X-0.5988 Y0.8042 
G01 X-0.6000 Y0.8087 
G01 X-0.6012 Y0.8042 
G01 X-0.6044 Y0.7964 
G01 X-0.6087 Y0.7890 
G01 X-0.6138 Y0.7823 
G01 X-0.6198 Y0.7763 
G01 X-0.6265 Y0.7712 
G01 X-0.6339 Y0.7669 
G01 X-0.6417 Y0.7637 
G01 X-0.6499 Y0.7615 
G01 X-0.6583 Y0.7604 
G01 X-0.6667 Y0.7604 
G01 X-0.6751 Y0.7615 
G01 X-0.6833 Y0.7637 
G01 X-0.6857 Y0.7647 
G01 X-0.7149 Y0.7355 
G01 X-0.7149 Y0.5395 
G01 X-0.6476 Y0.4722 
G01 X-0.6476 Y0.5107 
G01 X-0.6464 Y0.5181 
G01 X-0.6441 Y0.5253 
G01 X-0.6407 Y0.5319 
G01 X-0.6363 Y0.5380 
G01 X-0.6310 Y0.5433 
G01 X-0.6249 Y0.5477 
G01 X-0.6183 Y0.5511 
G01 X-0.6111 Y0.5534 
G01 X-0.6037 Y0.5546 
G01 X-0.5963 Y0.5546 
G01 X-0.5889 Y0.5534 
G01 X-0.5817 Y0.5511 
G01 X-0.5751 Y0.5477 
G01 X-0.5690 Y0.5433 
G01 X-0.5637 Y0.5380 
G01 X-0.5593 Y0.5319 
G01 X-0.5559 Y0.5253 
G01 X-0.5536 Y0.5181 
G01 X-0.5524 Y0.5107 
G01 X-0.5524 Y0.4645 
G01 X-0.5469 Y0.4591 
G01 X-0.5476 Y0.4633 
G01 X-0.5476 Y0.5107 
G01 X-0.5464 Y0.5181 
G01 X-0.5441 Y0.5253 
G01 X-0.5407 Y0.5319 
G01 X-0.5363 Y0.5380 
G01 X-0.5310 Y0.5433 
G01 X-0.5249 Y0.5477 
G01 X-0.5183 Y0.5511 
G01 X-0.5111 Y0.5534 
G01 X-0.5037 Y0.5546 
G01 X-0.4963 Y0.5546 
G01 X-0.4889 Y0.5534 
G01 X-0.4817 Y0.5511 
G01 X-0.4751 Y0.5477 
G01 X-0.4690 Y0.5433 
G01 X-0.4637 Y0.5380 
G01 X-0.4593 Y0.5319 
G01 X-0.4559 Y0.5253 
G01 X-0.4536 Y0.5181 
G01 X-0.4524 Y0.5107 
G01 X-0.4524 Y0.4645 
G01 X-0.3730 Y0.3851 
G01 X-0.3168 Y0.3851 
G01 X-0.3163 Y0.3860 
G01 X-0.3112 Y0.3927 
G01 X-0.3052 Y0.3987 
G01 X-0.2985 Y0.4038 
G01 X-0.2911 Y0.4081 
G01 X-0.2833 Y0.4113 
G01 X-0.2751 Y0.4135 
G01 X-0.2667 Y0.4146 
G01 X-0.2583 Y0.4146 
G01 X-0.2499 Y0.4135 
G01 X-0.2417 Y0.4113 
G01 X-0.2339 Y0.4081 
G01 X-0.2265 Y0.4038 
G01 X-0.2198 Y0.3987 
G01 X-0.2138 Y0.3927 
G01 X-0.2087 Y0.3860 
G01 X-0.2044 Y0.3786 
G01 X-0.2012 Y0.3708 
G01 X-0.1990 Y0.3626 
G01 X-0.1979 Y0.3542 
G01 X-0.1979 Y0.3458 
G01 X-0.1990 Y0.3374 
G01 X-0.2012 Y0.3292 
G01 X-0.2044 Y0.3214 
G01 X-0.2087 Y0.3140 
G01 X-0.2138 Y0.3073 
G01 X-0.2198 Y0.3013 
G01 X-0.2265 Y0.2962 
G01 X-0.2339 Y0.2919 
G01 X-0.2417 Y0.2887 
G01 X-0.2499 Y0.2865 
G01 X-0.2583 Y0.2854 
G01 X-0.2667 Y0.2854 
G01 X-0.2751 Y0.2865 
G01 X-0.2833 Y0.2887 
G01 X-0.2911 Y0.2919 
G01 X-0.2985 Y0.2962 
G01 X-0.3052 Y0.3013 
G01 X-0.3112 Y0.3073 
G01 X-0.3163 Y0.3140 
G01 X-0.3168 Y0.3149 
G01 X-0.3653 Y0.3149 
G01 X-0.3511 Y0.3007 
G01 X-0.3501 Y0.3010 
G01 X-0.3417 Y0.3021 
G01 X-0.3333 Y0.3021 
G01 X-0.3249 Y0.3010 
G01 X-0.3167 Y0.2988 
G01 X-0.3089 Y0.2956 
G01 X-0.3015 Y0.2913 
G01 X-0.2948 Y0.2862 
G01 X-0.2888 Y0.2802 
G01 X-0.2837 Y0.2735 
G01 X-0.2794 Y0.2661 
G01 X-0.2762 Y0.2583 
G01 X-0.2740 Y0.2501 
G01 X-0.2729 Y0.2417 
G01 X-0.2729 Y0.2333 
G01 X-0.2740 Y0.2249 
G01 X-0.2762 Y0.2167 
G01 X-0.2794 Y0.2089 
G01 X-0.2837 Y0.2015 
G01 X-0.2888 Y0.1948 
G01 X-0.2948 Y0.1888 
G01 X-0.3015 Y0.1837 
G01 X-0.3089 Y0.1794 
G01 X-0.3167 Y0.1762 
G01 X-0.3249 Y0.1740 
G01 X-0.3333 Y0.1729 
G01 X-0.3417 Y0.1729 
G01 X-0.3501 Y0.1740 
G01 X-0.3583 Y0.1762 
G01 X-0.3661 Y0.1794 
G01 X-0.3735 Y0.1837 
G01 X-0.3802 Y0.1888 
G01 X-0.3862 Y0.1948 
G01 X-0.3913 Y0.2015 
G01 X-0.3956 Y0.2089 
G01 X-0.3988 Y0.2167 
G01 X-0.4010 Y0.2249 
G01 X-0.4021 Y0.2333 
G01 X-0.4021 Y0.2417 
G01 X-0.4010 Y0.2501 
G01 X-0.4007 Y0.2511 
G01 X-0.4979 Y0.3483 
G01 X-0.4979 Y0.3458 
G01 X-0.4990 Y0.3374 
G01 X-0.5012 Y0.3292 
G01 X-0.5044 Y0.3214 
G01 X-0.5087 Y0.3140 
G01 X-0.5138 Y0.3073 
G01 X-0.5198 Y0.3013 
G01 X-0.5265 Y0.2962 
G01 X-0.5339 Y0.2919 
G01 X-0.5417 Y0.2887 
G01 X-0.5499 Y0.2865 
G01 X-0.5583 Y0.2854 
G01 X-0.5667 Y0.2854 
G01 X-0.5751 Y0.2865 
G01 X-0.5833 Y0.2887 
G01 X-0.5911 Y0.2919 
G01 X-0.5985 Y0.2962 
G01 X-0.6052 Y0.3013 
G01 X-0.6112 Y0.3073 
G01 X-0.6149 Y0.3122 
G01 X-0.6149 Y0.2981 
G01 X-0.6089 Y0.2956 
G01 X-0.6015 Y0.2913 
G01 X-0.5948 Y0.2862 
G01 X-0.5888 Y0.2802 
G01 X-0.5837 Y0.2735 
G01 X-0.5794 Y0.2661 
G01 X-0.5762 Y0.2583 
G01 X-0.5740 Y0.2501 
G01 X-0.5729 Y0.2417 
G01 X-0.5729 Y0.2333 
G01 X-0.5740 Y0.2249 
G01 X-0.5762 Y0.2167 
G01 X-0.5794 Y0.2089 
G01 X-0.5837 Y0.2015 
G01 X-0.5888 Y0.1948 
G01 X-0.5948 Y0.1888 
G01 X-0.6015 Y0.1837 
G01 X-0.6089 Y0.1794 
G01 X-0.6167 Y0.1762 
G01 X-0.6249 Y0.1740 
G01 X-0.6333 Y0.1729 
G01 X-0.6417 Y0.1729 
G01 X-0.6501 Y0.1740 
G01 X-0.6583 Y0.1762 
G01 X-0.6661 Y0.1794 
G01 X-0.6735 Y0.1837 
G01 X-0.6802 Y0.1888 
G01 X-0.6862 Y0.1948 
G01 X-0.6913 Y0.2015 
G01 X-0.6956 Y0.2089 
G01 X-0.6988 Y0.2167 
G01 X-0.7010 Y0.2249 
G01 X-0.7021 Y0.2333 
G01 X-0.7021 Y0.2417 
G01 X-0.7010 Y0.2501 
G01 X-0.6988 Y0.2583 
G01 X-0.6956 Y0.2661 
G01 X-0.6913 Y0.2735 
G01 X-0.6862 Y0.2802 
G01 X-0.6851 Y0.2812 
G01 X-0.6851 Y0.3605 
G01 X-0.8273 Y0.5026 
G01 X-0.8311 Y0.5084 
G01 X-0.8337 Y0.5148 
G01 X-0.8351 Y0.5215 
G01 X-0.8351 Y0.5285 
G01 X-0.8351 Y0.5285 
G01 X-0.8351 Y0.7965 
G01 X-0.8351 Y0.8035 
G01 X-0.8337 Y0.8102 
G01 X-0.8311 Y0.8166 
G01 X-0.8273 Y0.8224 
G01 X-0.8271 Y0.8225 
G01 X-0.8271 Y0.8292 
G01 X-0.8260 Y0.8376 
G01 X-0.8238 Y0.8458 
G01 X-0.8206 Y0.8536 
G01 X-0.8163 Y0.8610 
G01 X-0.8112 Y0.8677 
G01 X-0.8052 Y0.8737 
G01 X-0.8034 Y0.8750 
G01 X-0.8052 Y0.8763 
G01 X-0.8112 Y0.8823 
G01 X-0.8163 Y0.8890 
G01 X-0.8206 Y0.8964 
G01 X-0.8238 Y0.9042 
G01 X-0.8260 Y0.9124 
G01 X-0.8271 Y0.9208 
G01 X-0.8271 Y0.9292 
G01 X-0.8260 Y0.9376 
G01 X-0.8238 Y0.9458 
G01 X-0.8206 Y0.9536 
G01 X-0.8163 Y0.9610 
G01 X-0.8112 Y0.9677 
G01 X-0.8052 Y0.9737 
G01 X-0.7985 Y0.9788 
G01 X-0.7911 Y0.9831 
G01 X-0.7833 Y0.9863 
G01 X-0.7751 Y0.9885 
G01 X-0.7667 Y0.9896 
G01 X-0.7583 Y0.9896 
G01 X-0.7499 Y0.9885 
G01 X-0.7489 Y0.9882 
G01 X-0.7224 Y1.0148 
G01 X-0.7166 Y1.0186 
G01 X-0.7102 Y1.0212 
G01 X-0.7035 Y1.0226 
G01 X-0.6965 Y1.0226 
G01 X-0.4965 Y1.0226 
G01 X-0.4898 Y1.0212 
G01 X-0.4834 Y1.0186 
G01 X-0.4776 Y1.0148 
G01 X-0.4727 Y1.0099 
G01 X-0.4477 Y0.9849 
G01 X-0.4439 Y0.9791 
G01 X-0.4413 Y0.9727 
G01 X-0.4399 Y0.9660 
G01 X-0.4399 Y0.9590 
G01 X-0.4399 Y0.7275 
G01 X-0.4413 Y0.7208 
G01 X-0.4439 Y0.7144 
G01 X-0.4477 Y0.7086 
G01 X-0.4526 Y0.7037 
G01 X-0.5004 Y0.6560 
G01 X-0.5004 Y0.6543 
G01 X-0.5015 Y0.6476 
G01 X-0.4520 Y0.6476 
G01 X-0.2978 Y0.8018 
G01 X-0.2988 Y0.8042 
G01 X-0.3010 Y0.8124 
G01 X-0.3021 Y0.8208 
G01 X-0.3021 Y0.8292 
G01 X-0.3010 Y0.8376 
G01 X-0.2988 Y0.8458 
G01 X-0.2956 Y0.8536 
G01 X-0.2913 Y0.8610 
G01 X-0.2862 Y0.8677 
G01 X-0.2802 Y0.8737 
G01 X-0.2735 Y0.8788 
G01 X-0.2661 Y0.8831 
G01 X-0.2583 Y0.8863 
G01 X-0.2501 Y0.8885 
G01 X-0.2417 Y0.8896 
G01 X-0.2333 Y0.8896 
G01 X-0.2249 Y0.8885 
G01 X-0.2167 Y0.8863 
G01 X-0.2089 Y0.8831 
G01 X-0.2015 Y0.8788 
G01 X-0.1948 Y0.8737 
G01 X-0.1888 Y0.8677 
G01 X-0.1837 Y0.8610 
G01 X-0.1794 Y0.8536 
G01 X-0.1762 Y0.8458 
G01 X-0.1740 Y0.8376 
G01 X-0.1729 Y0.8292 
G01 X-0.1729 Y0.8208 
G01 X-0.1740 Y0.8124 
G01 X-0.1762 Y0.8042 
G01 X-0.1794 Y0.7964 
G01 X-0.1837 Y0.7890 
G01 X-0.1888 Y0.7823 
G01 X-0.1948 Y0.7763 
G01 X-0.2015 Y0.7712 
G01 X-0.2089 Y0.7669 
G01 X-0.2167 Y0.7637 
G01 X-0.2249 Y0.7615 
G01 X-0.2333 Y0.7604 
G01 X-0.2400 Y0.7604 
G01 X-0.4151 Y0.5852 
G01 X-0.4209 Y0.5814 
G01 X-0.4273 Y0.5788 
G01 X-0.4340 Y0.5774 
G01 X-0.4410 Y0.5774 
G01 X-0.6070 Y0.5774 
G01 X-0.6137 Y0.5788 
G01 X-0.6201 Y0.5814 
G01 X-0.6259 Y0.5852 
G01 X-0.6308 Y0.5901 
G01 X-0.6510 Y0.6104 
G01 X-0.6527 Y0.6104 
G01 X-0.6601 Y0.6116 
G01 X-0.6673 Y0.6139 
G01 X-0.6739 Y0.6173 
G01 X-0.6800 Y0.6217 
G01 X-0.6853 Y0.6270 
G01 X-0.6897 Y0.6331 
G01 X-0.6931 Y0.6397 
G01 X-0.6954 Y0.6469 
G01 X-0.6966 Y0.6543 
G01 X-0.6966 Y0.7017 
G01 X-0.6954 Y0.7091 
G01 X-0.6931 Y0.7163 
G01 X-0.6897 Y0.7229 
G01 X-0.6853 Y0.7290 
G01 X-0.6800 Y0.7343 
G01 X-0.6739 Y0.7387 
G01 X-0.6673 Y0.7421 
G01 X-0.6601 Y0.7444 
G01 X-0.6527 Y0.7456 
G01 X-0.6453 Y0.7456 
G01 X-0.6379 Y0.7444 
G01 X-0.6307 Y0.7421 
G01 X-0.6241 Y0.7387 
G01 X-0.6180 Y0.7343 
G01 X-0.6127 Y0.7290 
G01 X-0.6083 Y0.7229 
G01 X-0.6049 Y0.7163 
G01 X-0.6026 Y0.7091 
G01 X-0.6014 Y0.7017 
(File Footer)
G00 Z0.0200 
G00 Z0.5000 
M05
M02
