(/Applications/EAGLE/ulp/pcb-gcode.ulp)
(Copyright 2005 - 2009 by John Johnson)
(See readme.txt for licensing terms.)
(This file generated from the board:)
(.../eagle/color factory/rgb_led.brd)
(Current profile is /Applications/EAGLE/ulp/profiles/emc.pp  )
(This file generated 2/13/10 1:51 PM)
( Tool|       Size       |  Min Sub |  Max Sub |   Count )
( T01 | 0.508mm 0.0200in | 0.0000in | 0.0000in |       0 )
( T02 | 0.900mm 0.0354in | 0.0000in | 0.0000in |       0 )
( T03 | 0.914mm 0.0360in | 0.0000in | 0.0000in |       0 )
( T04 | 1.016mm 0.0400in | 0.0000in | 0.0000in |       0 )
( T05 | 3.302mm 0.1300in | 0.0000in | 0.0000in |       0 )
G20
(Absolute Coordinates)
G90
M05
G00 Z3.0000 
G00 X0.0000 Y0.0000 
M06 T01 (0.0200 )
G00 Z0.0200 
M03
G04 P1.000000
G00 X-0.5000 Y0.5070 
G01 Z-0.1000 F3.00  
G00 Z0.0200 
G00 X-0.5480 Y0.6580 
G01 Z-0.1000 F3.00  
G00 Z0.0200 
G00 X-0.6000 Y0.5070 
G01 Z-0.1000 F3.00  
G00 Z0.0200 
G00 X-0.6490 Y0.6580 
G01 Z-0.1000 F3.00  
G00 Z0.0200 
M05
G00 Z3.0000 
G00 X0.0000 Y0.0000 
M06 T02 (0.0354 )
G00 Z0.0200 
M03
G04 P1.000000
G00 X-0.2375 Y0.8250 
G01 Z-0.1000 F3.00  
G00 Z0.0200 
G00 X-0.2625 Y0.3500 
G01 Z-0.1000 F3.00  
G00 Z0.0200 
G00 X-0.3375 Y0.2375 
G01 Z-0.1000 F3.00  
G00 Z0.0200 
G00 X-0.5375 Y0.8250 
G01 Z-0.1000 F3.00  
G00 Z0.0200 
G00 X-0.5625 Y0.3500 
G01 Z-0.1000 F3.00  
G00 Z0.0200 
G00 X-0.6375 Y0.2375 
G01 Z-0.1000 F3.00  
G00 Z0.0200 
M05
G00 Z3.0000 
G00 X0.0000 Y0.0000 
M06 T03 (0.0360 )
G00 Z0.0200 
M03
G04 P1.000000
G00 X-0.5000 Y0.5580 
G01 Z-0.1000 F3.00  
G00 Z0.0200 
G00 X-0.5520 Y0.5910 
G01 Z-0.1000 F3.00  
G00 Z0.0200 
G00 X-0.6000 Y0.5580 
G01 Z-0.1000 F3.00  
G00 Z0.0200 
G00 X-0.6510 Y0.5910 
G01 Z-0.1000 F3.00  
G00 Z0.0200 
M05
G00 Z3.0000 
G00 X0.0000 Y0.0000 
M06 T04 (0.0400 )
G00 Z0.0200 
M03
G04 P1.000000
G00 X-0.6625 Y0.8250 
G01 Z-0.1000 F3.00  
G00 Z0.0200 
G00 X-0.6625 Y0.9250 
G01 Z-0.1000 F3.00  
G00 Z0.0200 
G00 X-0.7625 Y0.8250 
G01 Z-0.1000 F3.00  
G00 Z0.0200 
G00 X-0.7625 Y0.9250 
G01 Z-0.1000 F3.00  
G00 Z0.0200 
M05
G00 Z3.0000 
G00 X0.0000 Y0.0000 
M06 T05 (0.1300 )
G00 Z0.0200 
M03
G04 P1.000000
G00 X-0.2000 Y0.5750 
G01 Z-0.1000 F3.00  
G00 Z0.0200 
G00 X-0.9500 Y0.5750 
G01 Z-0.1000 F3.00  
G00 Z0.0200 
T01 
G00 Z0.5000 
M05
M02
