( This gcode generated by /Applications/EAGLE/ulp/pcb-gcode.ulp )
( Copyright 2005 by John Johnson. See readme.txt for licensing terms. )

( This file generated from the board /Users/gregorywitt/Documents/eagle/color factory/rgb_led.brd )
( This file generated 2/13/10 12:46 PM )

( T01 0.020000 )
( T02 0.035433 )
( T03 0.036000 )
( T04 0.040000 )
( T05 0.130000 )
G20

G90
M05
G00 X0.0000 Y0.0000 Z3.0000 
M06 T01  ; 0.0200 
G00 Z0.0200 
M03
G04 P3.000000
G82 X-0.5000 Y0.5070 Z-0.1000 F3.00  R0.0200 P0.100000
G82 X-0.5480 Y0.6580 
G82 X-0.6000 Y0.5070 
G82 X-0.6490 Y0.6580 
M05
G00 X0.0000 Y0.0000 Z3.0000 
M06 T02  ; 0.0354 
G00 Z0.0200 
M03
G04 P3.000000
G82 X-0.2375 Y0.8250 Z-0.1000 F3.00  R0.0200 P0.100000
G82 X-0.2625 Y0.3500 
G82 X-0.3375 Y0.2375 
G82 X-0.5375 Y0.8250 
G82 X-0.5625 Y0.3500 
G82 X-0.6375 Y0.2375 
M05
G00 X0.0000 Y0.0000 Z3.0000 
M06 T03  ; 0.0360 
G00 Z0.0200 
M03
G04 P3.000000
G82 X-0.5000 Y0.5580 Z-0.1000 F3.00  R0.0200 P0.100000
G82 X-0.5520 Y0.5910 
G82 X-0.6000 Y0.5580 
G82 X-0.6510 Y0.5910 
M05
G00 X0.0000 Y0.0000 Z3.0000 
M06 T04  ; 0.0400 
G00 Z0.0200 
M03
G04 P3.000000
G82 X-0.6625 Y0.8250 Z-0.1000 F3.00  R0.0200 P0.100000
G82 X-0.6625 Y0.9250 
G82 X-0.7625 Y0.8250 
G82 X-0.7625 Y0.9250 
M05
G00 X0.0000 Y0.0000 Z3.0000 
M06 T05  ; 0.1300 
G00 Z0.0200 
M03
G04 P3.000000
G82 X-0.2000 Y0.5750 Z-0.1000 F3.00  R0.0200 P0.100000
G82 X-0.9500 Y0.5750 
(File Footer)
T01 
G00 Z0.5000 
M05
M02
