( This gcode generated by /Applications/EAGLE/ulp/pcb-gcode.ulp )
( Copyright 2005 by John Johnson. See readme.txt for licensing terms. )

( This file generated from the board /Users/gregorywitt/Documents/eagle/color factory/sensor.brd )
( This file generated 12/19/09 8:27 PM )

G20

G90
G00 Z0.5000 
G00 X0 Y0
M03
G04 P3.000000
G00 Z0.0200 
G00 X-0.7750 Y1.2750 
G01 Z-0.0700 F2.50  
G01 X-0.8750 Y1.3750 
G01 X-1.4000 Y1.3750 
G01 X-1.5000 Y1.4750 
G01 X-1.9250 Y1.4750 
G01 X-2.0000 Y1.5500 
G01 X-2.1250 Y1.5500 
G01 X-2.2500 Y1.4250 
G01 X-2.2500 Y1.2750 
G01 X-2.3250 Y1.2000 
G01 X-2.4250 Y1.2000 
G01 X-2.5750 Y1.0500 
G01 X-2.5750 Y0.8000 
G01 X-2.4750 Y0.7000 
G01 X-2.2000 Y0.7000 
G01 X-2.2000 Y0.1750 
G01 X-2.0750 Y0.0500 
G01 X-1.1500 Y0.0500 
G01 X-1.0750 Y0.1250 
G01 X-0.4250 Y0.1250 
G01 X-0.3500 Y0.2000 
G01 X-0.2500 Y0.2000 
G01 X-0.1750 Y0.2750 
G01 X-0.1750 Y0.4750 
G01 X-0.1000 Y0.5500 
G01 X-0.1000 Y0.7500 
G01 X-0.0500 Y0.8000 
G01 X-0.0500 Y1.2750 
G01 X-0.7750 Y1.2750 
(File Footer)
G00 Z0.5000 
M05
M02
