( This gcode generated by /Applications/EAGLE/ulp/pcb-gcode.ulp )
( Copyright 2005 by John Johnson. See readme.txt for licensing terms. )

( This file generated from the board /Users/gregorywitt/Documents/eagle/color factory/sensor.brd )
( This file generated 12/19/09 8:27 PM )

G20

G90
G00 Z0.5000 
G00 X0 Y0
M03
G04 P3.000000
G00 Z0.0200 
G00 X-1.2026 Y0.4874 
G01 Z-0.0050 F2.50  
G01 X-1.2648 Y0.4874 
G01 X-1.2752 Y0.4874 
G01 X-1.3052 Y0.5174 
G01 X-1.3126 Y0.5248 
G01 X-1.3126 Y0.7674 
G01 X-1.3548 Y0.7674 
G01 X-1.3652 Y0.7674 
G01 X-1.4264 Y0.8286 
G01 X-1.4324 Y0.8226 
G01 X-1.4438 Y0.8179 
G01 X-1.4562 Y0.8179 
G01 X-1.4676 Y0.8226 
G01 X-1.4764 Y0.8314 
G01 X-1.4811 Y0.8428 
G01 X-1.4811 Y0.8933 
G01 X-1.5252 Y0.9374 
G01 X-1.6948 Y0.9374 
G01 X-1.7376 Y0.8946 
G01 X-1.7329 Y0.8834 
G01 X-1.7329 Y0.8666 
G01 X-1.7393 Y0.8512 
G01 X-1.7512 Y0.8393 
G01 X-1.7666 Y0.8329 
G01 X-1.7834 Y0.8329 
G01 X-1.7988 Y0.8393 
G01 X-1.8107 Y0.8512 
G01 X-1.8171 Y0.8666 
G01 X-1.8171 Y0.8834 
G01 X-1.8107 Y0.8988 
G01 X-1.7988 Y0.9107 
G01 X-1.7834 Y0.9171 
G01 X-1.7666 Y0.9171 
G01 X-1.7554 Y0.9124 
G01 X-1.7052 Y0.9626 
G01 X-1.6948 Y0.9626 
G01 X-1.5148 Y0.9626 
G01 X-1.5074 Y0.9552 
G01 X-1.4736 Y0.9214 
G01 X-1.4676 Y0.9274 
G01 X-1.4562 Y0.9321 
G01 X-1.4438 Y0.9321 
G01 X-1.4324 Y0.9274 
G01 X-1.4236 Y0.9186 
G01 X-1.4189 Y0.9072 
G01 X-1.4189 Y0.8567 
G01 X-1.3548 Y0.7926 
G01 X-1.2948 Y0.7926 
G01 X-1.2874 Y0.7852 
G01 X-1.2874 Y0.7748 
G01 X-1.2874 Y0.5352 
G01 X-1.2648 Y0.5126 
G01 X-1.1848 Y0.5126 
G01 X-1.1774 Y0.5052 
G01 X-1.1774 Y0.4948 
G01 X-1.1774 Y0.2059 
G01 X-1.1769 Y0.2054 
G01 X-1.1769 Y0.1671 
G01 X-1.1846 Y0.1594 
G01 X-1.2321 Y0.1119 
G01 X-1.2429 Y0.1119 
G01 X-2.0554 Y0.1119 
G01 X-2.0631 Y0.1196 
G01 X-2.1381 Y0.1946 
G01 X-2.1381 Y0.2054 
G01 X-2.1381 Y0.7321 
G01 X-2.1506 Y0.7446 
G01 X-2.1506 Y0.7554 
G01 X-2.1506 Y0.7571 
G01 X-2.1554 Y0.7619 
G01 X-2.4554 Y0.7619 
G01 X-2.4631 Y0.7696 
G01 X-2.4631 Y0.7696 
G01 X-2.5179 Y0.8244 
G01 X-2.5179 Y0.8244 
G01 X-2.5256 Y0.8321 
G01 X-2.5256 Y1.0179 
G01 X-2.5179 Y1.0256 
G01 X-2.5179 Y1.0256 
G01 X-2.4131 Y1.1304 
G01 X-2.4054 Y1.1381 
G01 X-2.3054 Y1.1381 
G01 X-2.2131 Y1.2304 
G01 X-2.2131 Y1.2304 
G01 X-2.2054 Y1.2381 
G01 X-1.9631 Y1.2381 
G01 X-1.9631 Y1.4054 
G01 X-1.9554 Y1.4131 
G01 X-1.9446 Y1.4131 
G01 X-1.5946 Y1.4131 
G01 X-1.5869 Y1.4054 
G01 X-1.5869 Y1.4047 
G01 X-1.5133 Y1.3311 
G01 X-1.4678 Y1.3311 
G01 X-1.4564 Y1.3264 
G01 X-1.4476 Y1.3176 
G01 X-1.4429 Y1.3062 
G01 X-1.4429 Y1.2938 
G01 X-1.4476 Y1.2824 
G01 X-1.4564 Y1.2736 
G01 X-1.4678 Y1.2689 
G01 X-1.5322 Y1.2689 
G01 X-1.5436 Y1.2736 
G01 X-1.5524 Y1.2824 
G01 X-1.5571 Y1.2938 
G01 X-1.5571 Y1.3062 
G01 X-1.5524 Y1.3176 
G01 X-1.5439 Y1.3261 
G01 X-1.6047 Y1.3869 
G01 X-1.9369 Y1.3869 
G01 X-1.9369 Y1.2304 
G01 X-1.9369 Y1.2196 
G01 X-1.9446 Y1.2119 
G01 X-2.1946 Y1.2119 
G01 X-2.2946 Y1.1119 
G01 X-2.3054 Y1.1119 
G01 X-2.3946 Y1.1119 
G01 X-2.4994 Y1.0071 
G01 X-2.4994 Y0.8429 
G01 X-2.4446 Y0.7881 
G01 X-2.1554 Y0.7881 
G01 X-2.1446 Y0.7881 
G01 X-2.1321 Y0.7756 
G01 X-2.1244 Y0.7679 
G01 X-2.1244 Y0.7554 
G01 X-2.1196 Y0.7506 
G01 X-2.1119 Y0.7429 
G01 X-2.1119 Y0.2054 
G01 X-2.0446 Y0.1381 
G01 X-1.2429 Y0.1381 
G01 X-1.2031 Y0.1779 
G01 X-1.2031 Y0.2054 
G01 X-1.2026 Y0.2059 
G01 X-1.2026 Y0.4874 
G00 Z0.0200 
G00 X-1.1811 Y0.8428 
G01 Z-0.0050 F2.50  
G01 X-1.1811 Y0.9072 
G01 X-1.1764 Y0.9186 
G01 X-1.1676 Y0.9274 
G01 X-1.1562 Y0.9321 
G01 X-1.1438 Y0.9321 
G01 X-1.1324 Y0.9274 
G01 X-1.1264 Y0.9214 
G01 X-1.0526 Y0.9952 
G01 X-1.0452 Y1.0026 
G01 X-1.0052 Y1.0026 
G01 X-0.9626 Y1.0452 
G01 X-0.9626 Y1.1372 
G01 X-0.9699 Y1.1402 
G01 X-0.9797 Y1.1501 
G01 X-0.9851 Y1.1630 
G01 X-0.9851 Y1.2370 
G01 X-0.9797 Y1.2499 
G01 X-0.9699 Y1.2597 
G01 X-0.9570 Y1.2651 
G01 X-0.9430 Y1.2651 
G01 X-0.9301 Y1.2597 
G01 X-0.9202 Y1.2499 
G01 X-0.9149 Y1.2370 
G01 X-0.9149 Y1.1630 
G01 X-0.9202 Y1.1501 
G01 X-0.9301 Y1.1402 
G01 X-0.9374 Y1.1372 
G01 X-0.9374 Y1.0348 
G01 X-0.9448 Y1.0274 
G01 X-0.9948 Y0.9774 
G01 X-1.0052 Y0.9774 
G01 X-1.0348 Y0.9774 
G01 X-1.1189 Y0.8933 
G01 X-1.1189 Y0.8428 
G01 X-1.1236 Y0.8314 
G01 X-1.1324 Y0.8226 
G01 X-1.1438 Y0.8179 
G01 X-1.1562 Y0.8179 
G01 X-1.1676 Y0.8226 
G01 X-1.1764 Y0.8314 
G01 X-1.1811 Y0.8428 
G00 Z0.0200 
G00 X-1.0811 Y0.8428 
G01 Z-0.0050 F2.50  
G01 X-1.0811 Y0.9072 
G01 X-1.0764 Y0.9186 
G01 X-1.0676 Y0.9274 
G01 X-1.0562 Y0.9321 
G01 X-1.0438 Y0.9321 
G01 X-1.0324 Y0.9274 
G01 X-1.0236 Y0.9186 
G01 X-1.0189 Y0.9072 
G01 X-1.0189 Y0.8428 
G01 X-1.0236 Y0.8314 
G01 X-1.0324 Y0.8226 
G01 X-1.0438 Y0.8179 
G01 X-1.0562 Y0.8179 
G01 X-1.0676 Y0.8226 
G01 X-1.0764 Y0.8314 
G01 X-1.0811 Y0.8428 
G00 Z0.0200 
G00 X-0.6811 Y0.8428 
G01 Z-0.0050 F2.50  
G01 X-0.6811 Y0.9072 
G01 X-0.6764 Y0.9186 
G01 X-0.6676 Y0.9274 
G01 X-0.6562 Y0.9321 
G01 X-0.6438 Y0.9321 
G01 X-0.6324 Y0.9274 
G01 X-0.6236 Y0.9186 
G01 X-0.6189 Y0.9072 
G01 X-0.6189 Y0.8567 
G01 X-0.5748 Y0.8126 
G01 X-0.2352 Y0.8126 
G01 X-0.1526 Y0.8952 
G01 X-0.1526 Y1.1774 
G01 X-0.2148 Y1.1774 
G01 X-0.3692 Y1.0230 
G01 X-0.3619 Y1.0158 
G01 X-0.3619 Y0.9842 
G01 X-0.3842 Y0.9619 
G01 X-0.4158 Y0.9619 
G01 X-0.4381 Y0.9842 
G01 X-0.4381 Y1.0074 
G01 X-0.4948 Y1.0074 
G01 X-0.5052 Y1.0074 
G01 X-0.5938 Y1.0960 
G01 X-0.5988 Y1.0939 
G01 X-0.6112 Y1.0939 
G01 X-0.6226 Y1.0986 
G01 X-0.6314 Y1.1074 
G01 X-0.6361 Y1.1188 
G01 X-0.6361 Y1.1312 
G01 X-0.6314 Y1.1426 
G01 X-0.6226 Y1.1514 
G01 X-0.6112 Y1.1561 
G01 X-0.5988 Y1.1561 
G01 X-0.5874 Y1.1514 
G01 X-0.5786 Y1.1426 
G01 X-0.5739 Y1.1312 
G01 X-0.5739 Y1.1188 
G01 X-0.5760 Y1.1138 
G01 X-0.4948 Y1.0326 
G01 X-0.4213 Y1.0326 
G01 X-0.4158 Y1.0381 
G01 X-0.3897 Y1.0381 
G01 X-0.2252 Y1.2026 
G01 X-0.2148 Y1.2026 
G01 X-0.1348 Y1.2026 
G01 X-0.1274 Y1.1952 
G01 X-0.1274 Y1.1848 
G01 X-0.1274 Y0.8848 
G01 X-0.1348 Y0.8774 
G01 X-0.2248 Y0.7874 
G01 X-0.2352 Y0.7874 
G01 X-0.5852 Y0.7874 
G01 X-0.5926 Y0.7948 
G01 X-0.6264 Y0.8286 
G01 X-0.6324 Y0.8226 
G01 X-0.6438 Y0.8179 
G01 X-0.6562 Y0.8179 
G01 X-0.6676 Y0.8226 
G01 X-0.6764 Y0.8314 
G01 X-0.6811 Y0.8428 
G00 Z0.0200 
G00 X-0.5811 Y0.8428 
G01 Z-0.0050 F2.50  
G01 X-0.5811 Y0.9072 
G01 X-0.5764 Y0.9186 
G01 X-0.5676 Y0.9274 
G01 X-0.5562 Y0.9321 
G01 X-0.5438 Y0.9321 
G01 X-0.5324 Y0.9274 
G01 X-0.5236 Y0.9186 
G01 X-0.5189 Y0.9072 
G01 X-0.5189 Y0.8428 
G01 X-0.5236 Y0.8314 
G01 X-0.5324 Y0.8226 
G01 X-0.5438 Y0.8179 
G01 X-0.5562 Y0.8179 
G01 X-0.5676 Y0.8226 
G01 X-0.5764 Y0.8314 
G01 X-0.5811 Y0.8428 
G00 Z0.0200 
G00 X-0.4811 Y0.8428 
G01 Z-0.0050 F2.50  
G01 X-0.4811 Y0.9072 
G01 X-0.4764 Y0.9186 
G01 X-0.4676 Y0.9274 
G01 X-0.4562 Y0.9321 
G01 X-0.4438 Y0.9321 
G01 X-0.4324 Y0.9274 
G01 X-0.4236 Y0.9186 
G01 X-0.4189 Y0.9072 
G01 X-0.4189 Y0.8428 
G01 X-0.4236 Y0.8314 
G01 X-0.4324 Y0.8226 
G01 X-0.4438 Y0.8179 
G01 X-0.4562 Y0.8179 
G01 X-0.4676 Y0.8226 
G01 X-0.4764 Y0.8314 
G01 X-0.4811 Y0.8428 
G00 Z0.0200 
G00 X-0.3811 Y0.8428 
G01 Z-0.0050 F2.50  
G01 X-0.3811 Y0.9072 
G01 X-0.3764 Y0.9186 
G01 X-0.3676 Y0.9274 
G01 X-0.3562 Y0.9321 
G01 X-0.3438 Y0.9321 
G01 X-0.3324 Y0.9274 
G01 X-0.3236 Y0.9186 
G01 X-0.3189 Y0.9072 
G01 X-0.3189 Y0.8428 
G01 X-0.3236 Y0.8314 
G01 X-0.3324 Y0.8226 
G01 X-0.3438 Y0.8179 
G01 X-0.3562 Y0.8179 
G01 X-0.3676 Y0.8226 
G01 X-0.3764 Y0.8314 
G01 X-0.3811 Y0.8428 
G00 Z0.0200 
G00 X-0.2811 Y0.8428 
G01 Z-0.0050 F2.50  
G01 X-0.2811 Y0.9072 
G01 X-0.2764 Y0.9186 
G01 X-0.2676 Y0.9274 
G01 X-0.2562 Y0.9321 
G01 X-0.2438 Y0.9321 
G01 X-0.2324 Y0.9274 
G01 X-0.2236 Y0.9186 
G01 X-0.2189 Y0.9072 
G01 X-0.2189 Y0.8428 
G01 X-0.2236 Y0.8314 
G01 X-0.2324 Y0.8226 
G01 X-0.2438 Y0.8179 
G01 X-0.2562 Y0.8179 
G01 X-0.2676 Y0.8226 
G01 X-0.2764 Y0.8314 
G01 X-0.2811 Y0.8428 
G00 Z0.0200 
G00 X-0.2811 Y0.5428 
G01 Z-0.0050 F2.50  
G01 X-0.2811 Y0.6072 
G01 X-0.2764 Y0.6186 
G01 X-0.2676 Y0.6274 
G01 X-0.2562 Y0.6321 
G01 X-0.2438 Y0.6321 
G01 X-0.2324 Y0.6274 
G01 X-0.2236 Y0.6186 
G01 X-0.2189 Y0.6072 
G01 X-0.2189 Y0.5428 
G01 X-0.2236 Y0.5314 
G01 X-0.2324 Y0.5226 
G01 X-0.2438 Y0.5179 
G01 X-0.2562 Y0.5179 
G01 X-0.2676 Y0.5226 
G01 X-0.2764 Y0.5314 
G01 X-0.2811 Y0.5428 
G00 Z0.0200 
G00 X-0.3811 Y0.5428 
G01 Z-0.0050 F2.50  
G01 X-0.3811 Y0.6072 
G01 X-0.3764 Y0.6186 
G01 X-0.3676 Y0.6274 
G01 X-0.3562 Y0.6321 
G01 X-0.3438 Y0.6321 
G01 X-0.3324 Y0.6274 
G01 X-0.3236 Y0.6186 
G01 X-0.3189 Y0.6072 
G01 X-0.3189 Y0.5428 
G01 X-0.3236 Y0.5314 
G01 X-0.3324 Y0.5226 
G01 X-0.3438 Y0.5179 
G01 X-0.3562 Y0.5179 
G01 X-0.3676 Y0.5226 
G01 X-0.3764 Y0.5314 
G01 X-0.3811 Y0.5428 
G00 Z0.0200 
G00 X-0.4811 Y0.5428 
G01 Z-0.0050 F2.50  
G01 X-0.4811 Y0.6072 
G01 X-0.4764 Y0.6186 
G01 X-0.4676 Y0.6274 
G01 X-0.4562 Y0.6321 
G01 X-0.4438 Y0.6321 
G01 X-0.4324 Y0.6274 
G01 X-0.4236 Y0.6186 
G01 X-0.4189 Y0.6072 
G01 X-0.4189 Y0.5428 
G01 X-0.4236 Y0.5314 
G01 X-0.4324 Y0.5226 
G01 X-0.4438 Y0.5179 
G01 X-0.4562 Y0.5179 
G01 X-0.4676 Y0.5226 
G01 X-0.4764 Y0.5314 
G01 X-0.4811 Y0.5428 
G00 Z0.0200 
G00 X-0.5811 Y0.5428 
G01 Z-0.0050 F2.50  
G01 X-0.5811 Y0.6072 
G01 X-0.5764 Y0.6186 
G01 X-0.5676 Y0.6274 
G01 X-0.5562 Y0.6321 
G01 X-0.5438 Y0.6321 
G01 X-0.5324 Y0.6274 
G01 X-0.5236 Y0.6186 
G01 X-0.5189 Y0.6072 
G01 X-0.5189 Y0.5428 
G01 X-0.5236 Y0.5314 
G01 X-0.5324 Y0.5226 
G01 X-0.5438 Y0.5179 
G01 X-0.5562 Y0.5179 
G01 X-0.5676 Y0.5226 
G01 X-0.5764 Y0.5314 
G01 X-0.5811 Y0.5428 
G00 Z0.0200 
G00 X-0.8811 Y0.5428 
G01 Z-0.0050 F2.50  
G01 X-0.8811 Y0.6072 
G01 X-0.8764 Y0.6186 
G01 X-0.8676 Y0.6274 
G01 X-0.8562 Y0.6321 
G01 X-0.8438 Y0.6321 
G01 X-0.8324 Y0.6274 
G01 X-0.8236 Y0.6186 
G01 X-0.8189 Y0.6072 
G01 X-0.8189 Y0.5428 
G01 X-0.8236 Y0.5314 
G01 X-0.8324 Y0.5226 
G01 X-0.8438 Y0.5179 
G01 X-0.8562 Y0.5179 
G01 X-0.8676 Y0.5226 
G01 X-0.8764 Y0.5314 
G01 X-0.8811 Y0.5428 
G00 Z0.0200 
G00 X-1.0811 Y0.5428 
G01 Z-0.0050 F2.50  
G01 X-1.0811 Y0.6072 
G01 X-1.0764 Y0.6186 
G01 X-1.0676 Y0.6274 
G01 X-1.0562 Y0.6321 
G01 X-1.0438 Y0.6321 
G01 X-1.0324 Y0.6274 
G01 X-1.0236 Y0.6186 
G01 X-1.0189 Y0.6072 
G01 X-1.0189 Y0.5428 
G01 X-1.0236 Y0.5314 
G01 X-1.0324 Y0.5226 
G01 X-1.0438 Y0.5179 
G01 X-1.0562 Y0.5179 
G01 X-1.0676 Y0.5226 
G01 X-1.0764 Y0.5314 
G01 X-1.0811 Y0.5428 
G00 Z0.0200 
G00 X-1.1811 Y0.5428 
G01 Z-0.0050 F2.50  
G01 X-1.1811 Y0.6072 
G01 X-1.1764 Y0.6186 
G01 X-1.1676 Y0.6274 
G01 X-1.1562 Y0.6321 
G01 X-1.1438 Y0.6321 
G01 X-1.1324 Y0.6274 
G01 X-1.1236 Y0.6186 
G01 X-1.1189 Y0.6072 
G01 X-1.1189 Y0.5428 
G01 X-1.1236 Y0.5314 
G01 X-1.1324 Y0.5226 
G01 X-1.1438 Y0.5179 
G01 X-1.1562 Y0.5179 
G01 X-1.1676 Y0.5226 
G01 X-1.1764 Y0.5314 
G01 X-1.1811 Y0.5428 
G00 Z0.0200 
G00 X-1.2811 Y0.5428 
G01 Z-0.0050 F2.50  
G01 X-1.2811 Y0.6072 
G01 X-1.2764 Y0.6186 
G01 X-1.2676 Y0.6274 
G01 X-1.2562 Y0.6321 
G01 X-1.2438 Y0.6321 
G01 X-1.2324 Y0.6274 
G01 X-1.2236 Y0.6186 
G01 X-1.2189 Y0.6072 
G01 X-1.2189 Y0.5428 
G01 X-1.2236 Y0.5314 
G01 X-1.2324 Y0.5226 
G01 X-1.2438 Y0.5179 
G01 X-1.2562 Y0.5179 
G01 X-1.2676 Y0.5226 
G01 X-1.2764 Y0.5314 
G01 X-1.2811 Y0.5428 
G00 Z0.0200 
G00 X-1.3811 Y0.5428 
G01 Z-0.0050 F2.50  
G01 X-1.3811 Y0.6072 
G01 X-1.3764 Y0.6186 
G01 X-1.3676 Y0.6274 
G01 X-1.3562 Y0.6321 
G01 X-1.3438 Y0.6321 
G01 X-1.3324 Y0.6274 
G01 X-1.3236 Y0.6186 
G01 X-1.3189 Y0.6072 
G01 X-1.3189 Y0.5428 
G01 X-1.3236 Y0.5314 
G01 X-1.3324 Y0.5226 
G01 X-1.3438 Y0.5179 
G01 X-1.3562 Y0.5179 
G01 X-1.3676 Y0.5226 
G01 X-1.3764 Y0.5314 
G01 X-1.3811 Y0.5428 
G00 Z0.0200 
G00 X-1.4811 Y0.5428 
G01 Z-0.0050 F2.50  
G01 X-1.4811 Y0.6072 
G01 X-1.4764 Y0.6186 
G01 X-1.4676 Y0.6274 
G01 X-1.4562 Y0.6321 
G01 X-1.4438 Y0.6321 
G01 X-1.4324 Y0.6274 
G01 X-1.4236 Y0.6186 
G01 X-1.4189 Y0.6072 
G01 X-1.4189 Y0.5428 
G01 X-1.4236 Y0.5314 
G01 X-1.4324 Y0.5226 
G01 X-1.4369 Y0.5208 
G01 X-1.4369 Y0.5054 
G01 X-1.4236 Y0.4921 
G01 X-1.4166 Y0.4921 
G01 X-1.4012 Y0.4857 
G01 X-1.3893 Y0.4738 
G01 X-1.3829 Y0.4584 
G01 X-1.3829 Y0.4416 
G01 X-1.3893 Y0.4262 
G01 X-1.4012 Y0.4143 
G01 X-1.4166 Y0.4079 
G01 X-1.4334 Y0.4079 
G01 X-1.4488 Y0.4143 
G01 X-1.4607 Y0.4262 
G01 X-1.4671 Y0.4416 
G01 X-1.4671 Y0.4584 
G01 X-1.4607 Y0.4738 
G01 X-1.4515 Y0.4830 
G01 X-1.4554 Y0.4869 
G01 X-1.4631 Y0.4946 
G01 X-1.4631 Y0.5208 
G01 X-1.4676 Y0.5226 
G01 X-1.4764 Y0.5314 
G01 X-1.4811 Y0.5428 
G00 Z0.0200 
G00 X-1.5811 Y0.5428 
G01 Z-0.0050 F2.50  
G01 X-1.5811 Y0.6072 
G01 X-1.5764 Y0.6186 
G01 X-1.5676 Y0.6274 
G01 X-1.5562 Y0.6321 
G01 X-1.5438 Y0.6321 
G01 X-1.5324 Y0.6274 
G01 X-1.5236 Y0.6186 
G01 X-1.5189 Y0.6072 
G01 X-1.5189 Y0.5428 
G01 X-1.5236 Y0.5314 
G01 X-1.5324 Y0.5226 
G01 X-1.5369 Y0.5208 
G01 X-1.5369 Y0.5054 
G01 X-1.5236 Y0.4921 
G01 X-1.5166 Y0.4921 
G01 X-1.5012 Y0.4857 
G01 X-1.4893 Y0.4738 
G01 X-1.4829 Y0.4584 
G01 X-1.4829 Y0.4416 
G01 X-1.4893 Y0.4262 
G01 X-1.5012 Y0.4143 
G01 X-1.5166 Y0.4079 
G01 X-1.5334 Y0.4079 
G01 X-1.5488 Y0.4143 
G01 X-1.5607 Y0.4262 
G01 X-1.5671 Y0.4416 
G01 X-1.5671 Y0.4584 
G01 X-1.5607 Y0.4738 
G01 X-1.5515 Y0.4830 
G01 X-1.5554 Y0.4869 
G01 X-1.5631 Y0.4946 
G01 X-1.5631 Y0.5208 
G01 X-1.5676 Y0.5226 
G01 X-1.5764 Y0.5314 
G01 X-1.5811 Y0.5428 
G00 Z0.0200 
G00 X-0.4381 Y1.1092 
G01 Z-0.0050 F2.50  
G01 X-0.4381 Y1.1408 
G01 X-0.4158 Y1.1631 
G01 X-0.3847 Y1.1631 
G01 X-0.3804 Y1.1674 
G01 X-0.7348 Y1.1674 
G01 X-0.7660 Y1.1362 
G01 X-0.7639 Y1.1312 
G01 X-0.7639 Y1.1188 
G01 X-0.7686 Y1.1074 
G01 X-0.7774 Y1.0986 
G01 X-0.7888 Y1.0939 
G01 X-0.8012 Y1.0939 
G01 X-0.8126 Y1.0986 
G01 X-0.8214 Y1.1074 
G01 X-0.8261 Y1.1188 
G01 X-0.8261 Y1.1312 
G01 X-0.8214 Y1.1426 
G01 X-0.8126 Y1.1514 
G01 X-0.8012 Y1.1561 
G01 X-0.7888 Y1.1561 
G01 X-0.7838 Y1.1540 
G01 X-0.7452 Y1.1926 
G01 X-0.7348 Y1.1926 
G01 X-0.3652 Y1.1926 
G01 X-0.3552 Y1.1926 
G01 X-0.3152 Y1.2326 
G01 X-0.3048 Y1.2326 
G01 X-0.1048 Y1.2326 
G01 X-0.0974 Y1.2252 
G01 X-0.0974 Y1.2148 
G01 X-0.0974 Y0.8648 
G01 X-0.1048 Y0.8574 
G01 X-0.2048 Y0.7574 
G01 X-0.2152 Y0.7574 
G01 X-0.6052 Y0.7574 
G01 X-0.6126 Y0.7648 
G01 X-0.6352 Y0.7874 
G01 X-0.6852 Y0.7874 
G01 X-0.6926 Y0.7948 
G01 X-0.7264 Y0.8286 
G01 X-0.7324 Y0.8226 
G01 X-0.7438 Y0.8179 
G01 X-0.7562 Y0.8179 
G01 X-0.7676 Y0.8226 
G01 X-0.7764 Y0.8314 
G01 X-0.7811 Y0.8428 
G01 X-0.7811 Y0.9072 
G01 X-0.7764 Y0.9186 
G01 X-0.7676 Y0.9274 
G01 X-0.7562 Y0.9321 
G01 X-0.7438 Y0.9321 
G01 X-0.7324 Y0.9274 
G01 X-0.7236 Y0.9186 
G01 X-0.7189 Y0.9072 
G01 X-0.7189 Y0.8567 
G01 X-0.6748 Y0.8126 
G01 X-0.6352 Y0.8126 
G01 X-0.6248 Y0.8126 
G01 X-0.5948 Y0.7826 
G01 X-0.2152 Y0.7826 
G01 X-0.1226 Y0.8752 
G01 X-0.1226 Y1.2074 
G01 X-0.3048 Y1.2074 
G01 X-0.3424 Y1.1698 
G01 X-0.3498 Y1.1624 
G01 X-0.3667 Y1.1455 
G01 X-0.3619 Y1.1408 
G01 X-0.3619 Y1.1092 
G01 X-0.3842 Y1.0869 
G01 X-0.4158 Y1.0869 
G01 X-0.4381 Y1.1092 
G00 Z0.0200 
G00 X-2.0421 Y0.3416 
G01 Z-0.0050 F2.50  
G01 X-2.0421 Y0.3584 
G01 X-2.0357 Y0.3738 
G01 X-2.0238 Y0.3857 
G01 X-2.0084 Y0.3921 
G01 X-1.9916 Y0.3921 
G01 X-1.9762 Y0.3857 
G01 X-1.9643 Y0.3738 
G01 X-1.9597 Y0.3626 
G01 X-1.9548 Y0.3626 
G01 X-1.9474 Y0.3552 
G01 X-1.8873 Y0.2951 
G01 X-1.8850 Y0.2961 
G01 X-1.8710 Y0.2961 
G01 X-1.8581 Y0.2907 
G01 X-1.8500 Y0.2826 
G01 X-1.6926 Y0.2826 
G01 X-1.6926 Y0.5452 
G01 X-1.6852 Y0.5526 
G01 X-1.5752 Y0.6626 
G01 X-1.5648 Y0.6626 
G01 X-1.5626 Y0.6626 
G01 X-1.5626 Y0.8206 
G01 X-1.5676 Y0.8226 
G01 X-1.5764 Y0.8314 
G01 X-1.5811 Y0.8428 
G01 X-1.5811 Y0.9072 
G01 X-1.5764 Y0.9186 
G01 X-1.5676 Y0.9274 
G01 X-1.5562 Y0.9321 
G01 X-1.5438 Y0.9321 
G01 X-1.5324 Y0.9274 
G01 X-1.5236 Y0.9186 
G01 X-1.5189 Y0.9072 
G01 X-1.5189 Y0.8428 
G01 X-1.5236 Y0.8314 
G01 X-1.5324 Y0.8226 
G01 X-1.5374 Y0.8206 
G01 X-1.5374 Y0.6448 
G01 X-1.5448 Y0.6374 
G01 X-1.5552 Y0.6374 
G01 X-1.5648 Y0.6374 
G01 X-1.6674 Y0.5348 
G01 X-1.6674 Y0.2826 
G01 X-1.6500 Y0.2826 
G01 X-1.6419 Y0.2907 
G01 X-1.6290 Y0.2961 
G01 X-1.6150 Y0.2961 
G01 X-1.6021 Y0.2907 
G01 X-1.5996 Y0.2882 
G01 X-1.5860 Y0.3018 
G01 X-1.5921 Y0.3166 
G01 X-1.5921 Y0.3334 
G01 X-1.5857 Y0.3488 
G01 X-1.5738 Y0.3607 
G01 X-1.5584 Y0.3671 
G01 X-1.5416 Y0.3671 
G01 X-1.5262 Y0.3607 
G01 X-1.5143 Y0.3488 
G01 X-1.5079 Y0.3334 
G01 X-1.5079 Y0.3166 
G01 X-1.5143 Y0.3012 
G01 X-1.5262 Y0.2893 
G01 X-1.5416 Y0.2829 
G01 X-1.5584 Y0.2829 
G01 X-1.5661 Y0.2861 
G01 X-1.5869 Y0.2653 
G01 X-1.5869 Y0.2540 
G01 X-1.5922 Y0.2411 
G01 X-1.6021 Y0.2312 
G01 X-1.6150 Y0.2259 
G01 X-1.6290 Y0.2259 
G01 X-1.6419 Y0.2312 
G01 X-1.6517 Y0.2411 
G01 X-1.6571 Y0.2540 
G01 X-1.6571 Y0.2574 
G01 X-1.6852 Y0.2574 
G01 X-1.8429 Y0.2574 
G01 X-1.8429 Y0.2540 
G01 X-1.8482 Y0.2411 
G01 X-1.8581 Y0.2312 
G01 X-1.8710 Y0.2259 
G01 X-1.8850 Y0.2259 
G01 X-1.8979 Y0.2312 
G01 X-1.9077 Y0.2411 
G01 X-1.9131 Y0.2540 
G01 X-1.9131 Y0.2680 
G01 X-1.9080 Y0.2802 
G01 X-1.9613 Y0.3335 
G01 X-1.9643 Y0.3262 
G01 X-1.9762 Y0.3143 
G01 X-1.9916 Y0.3079 
G01 X-2.0084 Y0.3079 
G01 X-2.0238 Y0.3143 
G01 X-2.0357 Y0.3262 
G01 X-2.0421 Y0.3416 
G00 Z0.0200 
G00 X-2.0421 Y0.4416 
G01 Z-0.0050 F2.50  
G01 X-2.0421 Y0.4584 
G01 X-2.0357 Y0.4738 
G01 X-2.0238 Y0.4857 
G01 X-2.0084 Y0.4921 
G01 X-1.9916 Y0.4921 
G01 X-1.9804 Y0.4874 
G01 X-1.9526 Y0.5152 
G01 X-1.9452 Y0.5226 
G01 X-1.8452 Y0.5226 
G01 X-1.8124 Y0.5554 
G01 X-1.8171 Y0.5666 
G01 X-1.8171 Y0.5834 
G01 X-1.8107 Y0.5988 
G01 X-1.7988 Y0.6107 
G01 X-1.7834 Y0.6171 
G01 X-1.7666 Y0.6171 
G01 X-1.7512 Y0.6107 
G01 X-1.7393 Y0.5988 
G01 X-1.7329 Y0.5834 
G01 X-1.7329 Y0.5666 
G01 X-1.7393 Y0.5512 
G01 X-1.7512 Y0.5393 
G01 X-1.7666 Y0.5329 
G01 X-1.7834 Y0.5329 
G01 X-1.7946 Y0.5376 
G01 X-1.8348 Y0.4974 
G01 X-1.8452 Y0.4974 
G01 X-1.9348 Y0.4974 
G01 X-1.9626 Y0.4696 
G01 X-1.9579 Y0.4584 
G01 X-1.9579 Y0.4416 
G01 X-1.9643 Y0.4262 
G01 X-1.9762 Y0.4143 
G01 X-1.9916 Y0.4079 
G01 X-2.0084 Y0.4079 
G01 X-2.0238 Y0.4143 
G01 X-2.0357 Y0.4262 
G01 X-2.0421 Y0.4416 
G00 Z0.0200 
G00 X-2.0421 Y0.5416 
G01 Z-0.0050 F2.50  
G01 X-2.0421 Y0.5584 
G01 X-2.0357 Y0.5738 
G01 X-2.0238 Y0.5857 
G01 X-2.0084 Y0.5921 
G01 X-1.9916 Y0.5921 
G01 X-1.9762 Y0.5857 
G01 X-1.9731 Y0.5826 
G01 X-1.9171 Y0.5826 
G01 X-1.9171 Y0.5834 
G01 X-1.9107 Y0.5988 
G01 X-1.8988 Y0.6107 
G01 X-1.8834 Y0.6171 
G01 X-1.8666 Y0.6171 
G01 X-1.8512 Y0.6107 
G01 X-1.8393 Y0.5988 
G01 X-1.8329 Y0.5834 
G01 X-1.8329 Y0.5666 
G01 X-1.8393 Y0.5512 
G01 X-1.8512 Y0.5393 
G01 X-1.8666 Y0.5329 
G01 X-1.8834 Y0.5329 
G01 X-1.8988 Y0.5393 
G01 X-1.9107 Y0.5512 
G01 X-1.9133 Y0.5574 
G01 X-1.9579 Y0.5574 
G01 X-1.9579 Y0.5416 
G01 X-1.9643 Y0.5262 
G01 X-1.9762 Y0.5143 
G01 X-1.9916 Y0.5079 
G01 X-2.0084 Y0.5079 
G01 X-2.0238 Y0.5143 
G01 X-2.0357 Y0.5262 
G01 X-2.0421 Y0.5416 
G00 Z0.0200 
G00 X-1.2921 Y0.3166 
G01 Z-0.0050 F2.50  
G01 X-1.2921 Y0.3334 
G01 X-1.2857 Y0.3488 
G01 X-1.2738 Y0.3607 
G01 X-1.2584 Y0.3671 
G01 X-1.2416 Y0.3671 
G01 X-1.2262 Y0.3607 
G01 X-1.2143 Y0.3488 
G01 X-1.2079 Y0.3334 
G01 X-1.2079 Y0.3166 
G01 X-1.2143 Y0.3012 
G01 X-1.2262 Y0.2893 
G01 X-1.2374 Y0.2847 
G01 X-1.2374 Y0.2631 
G01 X-1.2342 Y0.2631 
G01 X-1.2119 Y0.2408 
G01 X-1.2119 Y0.2092 
G01 X-1.2342 Y0.1869 
G01 X-1.2653 Y0.1869 
G01 X-1.2974 Y0.1548 
G01 X-1.3048 Y0.1474 
G01 X-2.0148 Y0.1474 
G01 X-2.0252 Y0.1474 
G01 X-2.0952 Y0.2174 
G01 X-2.1026 Y0.2248 
G01 X-2.1026 Y0.6948 
G01 X-2.1026 Y0.7052 
G01 X-2.0952 Y0.7126 
G01 X-2.0381 Y0.7126 
G01 X-2.0381 Y0.7158 
G01 X-2.0358 Y0.7180 
G01 X-2.2250 Y0.9072 
G01 X-2.2626 Y0.8696 
G01 X-2.2579 Y0.8584 
G01 X-2.2579 Y0.8416 
G01 X-2.2643 Y0.8262 
G01 X-2.2762 Y0.8143 
G01 X-2.2916 Y0.8079 
G01 X-2.3084 Y0.8079 
G01 X-2.3238 Y0.8143 
G01 X-2.3357 Y0.8262 
G01 X-2.3421 Y0.8416 
G01 X-2.3421 Y0.8584 
G01 X-2.3357 Y0.8738 
G01 X-2.3238 Y0.8857 
G01 X-2.3084 Y0.8921 
G01 X-2.2916 Y0.8921 
G01 X-2.2804 Y0.8874 
G01 X-2.2376 Y0.9302 
G01 X-2.2302 Y0.9376 
G01 X-2.1052 Y1.0626 
G01 X-2.0948 Y1.0626 
G01 X-1.7326 Y1.0626 
G01 X-1.7326 Y1.2148 
G01 X-1.7867 Y1.2689 
G01 X-1.8322 Y1.2689 
G01 X-1.8436 Y1.2736 
G01 X-1.8524 Y1.2824 
G01 X-1.8571 Y1.2938 
G01 X-1.8571 Y1.3062 
G01 X-1.8524 Y1.3176 
G01 X-1.8436 Y1.3264 
G01 X-1.8322 Y1.3311 
G01 X-1.7678 Y1.3311 
G01 X-1.7564 Y1.3264 
G01 X-1.7476 Y1.3176 
G01 X-1.7429 Y1.3062 
G01 X-1.7429 Y1.2938 
G01 X-1.7476 Y1.2824 
G01 X-1.7561 Y1.2739 
G01 X-1.7148 Y1.2326 
G01 X-1.7074 Y1.2252 
G01 X-1.7074 Y1.0552 
G01 X-1.7074 Y1.0448 
G01 X-1.7148 Y1.0374 
G01 X-2.0948 Y1.0374 
G01 X-2.2072 Y0.9250 
G01 X-2.0180 Y0.7358 
G01 X-2.0158 Y0.7381 
G01 X-1.9842 Y0.7381 
G01 X-1.9619 Y0.7158 
G01 X-1.9619 Y0.6842 
G01 X-1.9842 Y0.6619 
G01 X-2.0158 Y0.6619 
G01 X-2.0381 Y0.6842 
G01 X-2.0381 Y0.6874 
G01 X-2.0774 Y0.6874 
G01 X-2.0774 Y0.2352 
G01 X-2.0148 Y0.1726 
G01 X-1.3152 Y0.1726 
G01 X-1.2833 Y0.2045 
G01 X-1.2881 Y0.2092 
G01 X-1.2881 Y0.2408 
G01 X-1.2658 Y0.2631 
G01 X-1.2626 Y0.2631 
G01 X-1.2626 Y0.2847 
G01 X-1.2738 Y0.2893 
G01 X-1.2857 Y0.3012 
G01 X-1.2921 Y0.3166 
G00 Z0.0200 
G00 X-1.9171 Y0.8666 
G01 Z-0.0050 F2.50  
G01 X-1.9171 Y0.8834 
G01 X-1.9107 Y0.8988 
G01 X-1.8988 Y0.9107 
G01 X-1.8834 Y0.9171 
G01 X-1.8666 Y0.9171 
G01 X-1.8554 Y0.9124 
G01 X-1.8052 Y0.9626 
G01 X-1.7948 Y0.9626 
G01 X-1.7552 Y0.9626 
G01 X-1.7326 Y0.9852 
G01 X-1.7252 Y0.9926 
G01 X-1.5566 Y0.9926 
G01 X-1.5571 Y0.9938 
G01 X-1.5571 Y1.0062 
G01 X-1.5524 Y1.0176 
G01 X-1.5436 Y1.0264 
G01 X-1.5322 Y1.0311 
G01 X-1.4678 Y1.0311 
G01 X-1.4564 Y1.0264 
G01 X-1.4476 Y1.0176 
G01 X-1.4429 Y1.0062 
G01 X-1.4429 Y0.9938 
G01 X-1.4438 Y0.9916 
G01 X-1.3736 Y0.9214 
G01 X-1.3676 Y0.9274 
G01 X-1.3562 Y0.9321 
G01 X-1.3438 Y0.9321 
G01 X-1.3324 Y0.9274 
G01 X-1.3236 Y0.9186 
G01 X-1.3189 Y0.9072 
G01 X-1.3189 Y0.8428 
G01 X-1.3236 Y0.8314 
G01 X-1.3324 Y0.8226 
G01 X-1.3438 Y0.8179 
G01 X-1.3562 Y0.8179 
G01 X-1.3676 Y0.8226 
G01 X-1.3764 Y0.8314 
G01 X-1.3811 Y0.8428 
G01 X-1.3811 Y0.8933 
G01 X-1.4552 Y0.9674 
G01 X-1.4580 Y0.9674 
G01 X-1.4610 Y0.9664 
G01 X-1.4630 Y0.9674 
G01 X-1.7148 Y0.9674 
G01 X-1.7448 Y0.9374 
G01 X-1.7552 Y0.9374 
G01 X-1.7948 Y0.9374 
G01 X-1.8376 Y0.8946 
G01 X-1.8329 Y0.8834 
G01 X-1.8329 Y0.8666 
G01 X-1.8393 Y0.8512 
G01 X-1.8512 Y0.8393 
G01 X-1.8666 Y0.8329 
G01 X-1.8834 Y0.8329 
G01 X-1.8988 Y0.8393 
G01 X-1.9107 Y0.8512 
G01 X-1.9171 Y0.8666 
G00 Z0.0200 
G00 X-0.6671 Y0.4166 
G01 Z-0.0050 F2.50  
G01 X-0.6671 Y0.4334 
G01 X-0.6626 Y0.4442 
G01 X-0.6626 Y0.5206 
G01 X-0.6676 Y0.5226 
G01 X-0.6764 Y0.5314 
G01 X-0.6811 Y0.5428 
G01 X-0.6811 Y0.6072 
G01 X-0.6764 Y0.6186 
G01 X-0.6676 Y0.6274 
G01 X-0.6562 Y0.6321 
G01 X-0.6438 Y0.6321 
G01 X-0.6324 Y0.6274 
G01 X-0.6236 Y0.6186 
G01 X-0.6189 Y0.6072 
G01 X-0.6189 Y0.5428 
G01 X-0.6236 Y0.5314 
G01 X-0.6324 Y0.5226 
G01 X-0.6374 Y0.5206 
G01 X-0.6374 Y0.4654 
G01 X-0.6334 Y0.4671 
G01 X-0.6166 Y0.4671 
G01 X-0.6012 Y0.4607 
G01 X-0.5893 Y0.4488 
G01 X-0.5829 Y0.4334 
G01 X-0.5829 Y0.4166 
G01 X-0.5893 Y0.4012 
G01 X-0.6012 Y0.3893 
G01 X-0.6166 Y0.3829 
G01 X-0.6334 Y0.3829 
G01 X-0.6488 Y0.3893 
G01 X-0.6607 Y0.4012 
G01 X-0.6671 Y0.4166 
G00 Z0.0200 
G00 X-0.6671 Y0.3166 
G01 Z-0.0050 F2.50  
G01 X-0.6671 Y0.3334 
G01 X-0.6607 Y0.3488 
G01 X-0.6488 Y0.3607 
G01 X-0.6334 Y0.3671 
G01 X-0.6166 Y0.3671 
G01 X-0.6012 Y0.3607 
G01 X-0.5893 Y0.3488 
G01 X-0.5829 Y0.3334 
G01 X-0.5829 Y0.3166 
G01 X-0.5893 Y0.3012 
G01 X-0.6012 Y0.2893 
G01 X-0.6166 Y0.2829 
G01 X-0.6334 Y0.2829 
G01 X-0.6446 Y0.2876 
G01 X-0.6874 Y0.2448 
G01 X-0.6948 Y0.2374 
G01 X-0.7347 Y0.2374 
G01 X-0.7393 Y0.2262 
G01 X-0.7512 Y0.2143 
G01 X-0.7666 Y0.2079 
G01 X-0.7834 Y0.2079 
G01 X-0.7988 Y0.2143 
G01 X-0.8107 Y0.2262 
G01 X-0.8171 Y0.2416 
G01 X-0.8171 Y0.2584 
G01 X-0.8107 Y0.2738 
G01 X-0.7988 Y0.2857 
G01 X-0.7834 Y0.2921 
G01 X-0.7666 Y0.2921 
G01 X-0.7512 Y0.2857 
G01 X-0.7393 Y0.2738 
G01 X-0.7347 Y0.2626 
G01 X-0.7052 Y0.2626 
G01 X-0.6624 Y0.3054 
G01 X-0.6671 Y0.3166 
G00 Z0.0200 
G00 X-1.5322 Y1.1311 
G01 Z-0.0050 F2.50  
G01 X-1.5126 Y1.1311 
G01 X-1.5126 Y1.1689 
G01 X-1.5322 Y1.1689 
G01 X-1.5436 Y1.1736 
G01 X-1.5524 Y1.1824 
G01 X-1.5571 Y1.1938 
G01 X-1.5571 Y1.2062 
G01 X-1.5524 Y1.2176 
G01 X-1.5436 Y1.2264 
G01 X-1.5322 Y1.2311 
G01 X-1.4867 Y1.2311 
G01 X-1.4052 Y1.3126 
G01 X-1.3948 Y1.3126 
G01 X-0.8848 Y1.3126 
G01 X-0.8774 Y1.3052 
G01 X-0.8774 Y1.2948 
G01 X-0.8774 Y1.1552 
G01 X-0.8774 Y1.1448 
G01 X-0.8874 Y1.1348 
G01 X-0.8874 Y0.8352 
G01 X-0.8048 Y0.7526 
G01 X-0.6948 Y0.7526 
G01 X-0.6874 Y0.7452 
G01 X-0.6874 Y0.7348 
G01 X-0.6874 Y0.5248 
G01 X-0.6948 Y0.5174 
G01 X-0.7248 Y0.4874 
G01 X-0.7352 Y0.4874 
G01 X-0.9052 Y0.4874 
G01 X-0.9126 Y0.4948 
G01 X-0.9126 Y0.5052 
G01 X-0.9126 Y0.6148 
G01 X-1.0552 Y0.7574 
G01 X-1.1952 Y0.7574 
G01 X-1.2026 Y0.7648 
G01 X-1.2557 Y0.8179 
G01 X-1.2562 Y0.8179 
G01 X-1.2676 Y0.8226 
G01 X-1.2764 Y0.8314 
G01 X-1.2811 Y0.8428 
G01 X-1.2811 Y0.9072 
G01 X-1.2764 Y0.9186 
G01 X-1.2676 Y0.9274 
G01 X-1.2562 Y0.9321 
G01 X-1.2438 Y0.9321 
G01 X-1.2324 Y0.9274 
G01 X-1.2236 Y0.9186 
G01 X-1.2189 Y0.9072 
G01 X-1.2189 Y0.8428 
G01 X-1.2236 Y0.8314 
G01 X-1.2286 Y0.8264 
G01 X-1.1848 Y0.7826 
G01 X-1.0552 Y0.7826 
G01 X-1.0448 Y0.7826 
G01 X-0.8948 Y0.6326 
G01 X-0.8874 Y0.6252 
G01 X-0.8874 Y0.5126 
G01 X-0.7352 Y0.5126 
G01 X-0.7126 Y0.5352 
G01 X-0.7126 Y0.7274 
G01 X-0.8048 Y0.7274 
G01 X-0.8152 Y0.7274 
G01 X-0.9052 Y0.8174 
G01 X-0.9126 Y0.8248 
G01 X-0.9126 Y1.1348 
G01 X-0.9126 Y1.1452 
G01 X-0.9026 Y1.1552 
G01 X-0.9026 Y1.2874 
G01 X-1.3948 Y1.2874 
G01 X-1.4561 Y1.2261 
G01 X-1.4476 Y1.2176 
G01 X-1.4429 Y1.2062 
G01 X-1.4429 Y1.1938 
G01 X-1.4476 Y1.1824 
G01 X-1.4564 Y1.1736 
G01 X-1.4678 Y1.1689 
G01 X-1.4874 Y1.1689 
G01 X-1.4874 Y1.1311 
G01 X-1.4678 Y1.1311 
G01 X-1.4564 Y1.1264 
G01 X-1.4476 Y1.1176 
G01 X-1.4429 Y1.1062 
G01 X-1.4429 Y1.0938 
G01 X-1.4476 Y1.0824 
G01 X-1.4564 Y1.0736 
G01 X-1.4678 Y1.0689 
G01 X-1.5322 Y1.0689 
G01 X-1.5436 Y1.0736 
G01 X-1.5524 Y1.0824 
G01 X-1.5571 Y1.0938 
G01 X-1.5571 Y1.1062 
G01 X-1.5524 Y1.1176 
G01 X-1.5436 Y1.1264 
G01 X-1.5322 Y1.1311 
G00 Z0.0200 
G00 X-1.8322 Y1.1311 
G01 Z-0.0050 F2.50  
G01 X-1.7678 Y1.1311 
G01 X-1.7564 Y1.1264 
G01 X-1.7476 Y1.1176 
G01 X-1.7429 Y1.1062 
G01 X-1.7429 Y1.0938 
G01 X-1.7476 Y1.0824 
G01 X-1.7564 Y1.0736 
G01 X-1.7678 Y1.0689 
G01 X-1.8322 Y1.0689 
G01 X-1.8436 Y1.0736 
G01 X-1.8444 Y1.0744 
G01 X-2.1196 Y1.0744 
G01 X-2.2494 Y0.9446 
G01 X-2.2571 Y0.9369 
G01 X-2.2599 Y0.9369 
G01 X-2.2643 Y0.9262 
G01 X-2.2762 Y0.9143 
G01 X-2.2916 Y0.9079 
G01 X-2.3084 Y0.9079 
G01 X-2.3238 Y0.9143 
G01 X-2.3357 Y0.9262 
G01 X-2.3421 Y0.9416 
G01 X-2.3421 Y0.9584 
G01 X-2.3357 Y0.9738 
G01 X-2.3238 Y0.9857 
G01 X-2.3084 Y0.9921 
G01 X-2.2916 Y0.9921 
G01 X-2.2762 Y0.9857 
G01 X-2.2643 Y0.9738 
G01 X-2.2622 Y0.9688 
G01 X-2.1304 Y1.1006 
G01 X-2.1196 Y1.1006 
G01 X-1.8571 Y1.1006 
G01 X-1.8571 Y1.1062 
G01 X-1.8524 Y1.1176 
G01 X-1.8436 Y1.1264 
G01 X-1.8322 Y1.1311 
G00 Z0.0200 
G00 X-1.3851 Y1.1630 
G01 Z-0.0050 F2.50  
G01 X-1.3851 Y1.2370 
G01 X-1.3797 Y1.2499 
G01 X-1.3699 Y1.2597 
G01 X-1.3570 Y1.2651 
G01 X-1.3430 Y1.2651 
G01 X-1.3301 Y1.2597 
G01 X-1.3202 Y1.2499 
G01 X-1.3149 Y1.2370 
G01 X-1.3149 Y1.1630 
G01 X-1.3202 Y1.1501 
G01 X-1.3301 Y1.1402 
G01 X-1.3374 Y1.1372 
G01 X-1.3374 Y1.0811 
G01 X-1.3371 Y1.0811 
G01 X-1.3189 Y1.0629 
G01 X-1.3189 Y1.0371 
G01 X-1.3371 Y1.0189 
G01 X-1.3629 Y1.0189 
G01 X-1.3811 Y1.0371 
G01 X-1.3811 Y1.0629 
G01 X-1.3629 Y1.0811 
G01 X-1.3626 Y1.0811 
G01 X-1.3626 Y1.1372 
G01 X-1.3699 Y1.1402 
G01 X-1.3797 Y1.1501 
G01 X-1.3851 Y1.1630 
G00 Z0.0200 
G00 X-1.1851 Y1.1630 
G01 Z-0.0050 F2.50  
G01 X-1.1851 Y1.2370 
G01 X-1.1797 Y1.2499 
G01 X-1.1699 Y1.2597 
G01 X-1.1570 Y1.2651 
G01 X-1.1430 Y1.2651 
G01 X-1.1301 Y1.2597 
G01 X-1.1202 Y1.2499 
G01 X-1.1149 Y1.2370 
G01 X-1.1149 Y1.1630 
G01 X-1.1202 Y1.1501 
G01 X-1.1301 Y1.1402 
G01 X-1.1369 Y1.1374 
G01 X-1.1369 Y1.1304 
G01 X-1.1196 Y1.1131 
G01 X-1.1119 Y1.1054 
G01 X-1.1119 Y1.0901 
G01 X-1.1012 Y1.0857 
G01 X-1.0893 Y1.0738 
G01 X-1.0829 Y1.0584 
G01 X-1.0829 Y1.0416 
G01 X-1.0893 Y1.0262 
G01 X-1.1012 Y1.0143 
G01 X-1.1166 Y1.0079 
G01 X-1.1334 Y1.0079 
G01 X-1.1488 Y1.0143 
G01 X-1.1607 Y1.0262 
G01 X-1.1671 Y1.0416 
G01 X-1.1671 Y1.0584 
G01 X-1.1607 Y1.0738 
G01 X-1.1488 Y1.0857 
G01 X-1.1381 Y1.0901 
G01 X-1.1381 Y1.0946 
G01 X-1.1631 Y1.1196 
G01 X-1.1631 Y1.1304 
G01 X-1.1631 Y1.1374 
G01 X-1.1699 Y1.1402 
G01 X-1.1797 Y1.1501 
G01 X-1.1851 Y1.1630 
G00 Z0.0200 
G00 X-0.9801 Y0.3630 
G01 Z-0.0050 F2.50  
G01 X-0.9801 Y0.4370 
G01 X-0.9747 Y0.4499 
G01 X-0.9649 Y0.4597 
G01 X-0.9520 Y0.4651 
G01 X-0.9380 Y0.4651 
G01 X-0.9251 Y0.4597 
G01 X-0.9152 Y0.4499 
G01 X-0.9099 Y0.4370 
G01 X-0.9099 Y0.3630 
G01 X-0.9152 Y0.3501 
G01 X-0.9251 Y0.3402 
G01 X-0.9380 Y0.3349 
G01 X-0.9520 Y0.3349 
G01 X-0.9649 Y0.3402 
G01 X-0.9747 Y0.3501 
G01 X-0.9801 Y0.3630 
G00 Z0.0200 
G00 X-1.2811 Y1.0371 
G01 Z-0.0050 F2.50  
G01 X-1.2811 Y1.0629 
G01 X-1.2629 Y1.0811 
G01 X-1.2371 Y1.0811 
G01 X-1.2189 Y1.0629 
G01 X-1.2189 Y1.0371 
G01 X-1.2371 Y1.0189 
G01 X-1.2374 Y1.0189 
G01 X-1.2374 Y0.9626 
G01 X-1.2352 Y0.9626 
G01 X-1.2248 Y0.9626 
G01 X-1.1948 Y0.9326 
G01 X-1.1874 Y0.9252 
G01 X-1.1874 Y0.8352 
G01 X-1.1648 Y0.8126 
G01 X-0.9626 Y0.8126 
G01 X-0.9626 Y0.8206 
G01 X-0.9676 Y0.8226 
G01 X-0.9764 Y0.8314 
G01 X-0.9811 Y0.8428 
G01 X-0.9811 Y0.9072 
G01 X-0.9764 Y0.9186 
G01 X-0.9676 Y0.9274 
G01 X-0.9562 Y0.9321 
G01 X-0.9438 Y0.9321 
G01 X-0.9324 Y0.9274 
G01 X-0.9236 Y0.9186 
G01 X-0.9189 Y0.9072 
G01 X-0.9189 Y0.8428 
G01 X-0.9236 Y0.8314 
G01 X-0.9324 Y0.8226 
G01 X-0.9374 Y0.8206 
G01 X-0.9374 Y0.8052 
G01 X-0.9374 Y0.7948 
G01 X-0.9374 Y0.7852 
G01 X-0.7736 Y0.6214 
G01 X-0.7676 Y0.6274 
G01 X-0.7562 Y0.6321 
G01 X-0.7438 Y0.6321 
G01 X-0.7324 Y0.6274 
G01 X-0.7236 Y0.6186 
G01 X-0.7189 Y0.6072 
G01 X-0.7189 Y0.5428 
G01 X-0.7236 Y0.5314 
G01 X-0.7324 Y0.5226 
G01 X-0.7438 Y0.5179 
G01 X-0.7562 Y0.5179 
G01 X-0.7676 Y0.5226 
G01 X-0.7764 Y0.5314 
G01 X-0.7811 Y0.5428 
G01 X-0.7811 Y0.5933 
G01 X-0.9552 Y0.7674 
G01 X-0.9626 Y0.7748 
G01 X-0.9626 Y0.7874 
G01 X-1.1752 Y0.7874 
G01 X-1.1826 Y0.7948 
G01 X-1.2126 Y0.8248 
G01 X-1.2126 Y0.8352 
G01 X-1.2126 Y0.9148 
G01 X-1.2352 Y0.9374 
G01 X-1.2552 Y0.9374 
G01 X-1.2626 Y0.9448 
G01 X-1.2626 Y0.9552 
G01 X-1.2626 Y1.0189 
G01 X-1.2629 Y1.0189 
G01 X-1.2811 Y1.0371 
G00 Z0.0200 
G00 X-2.4421 Y0.9416 
G01 Z-0.0050 F2.50  
G01 X-2.4421 Y0.9584 
G01 X-2.4357 Y0.9738 
G01 X-2.4238 Y0.9857 
G01 X-2.4084 Y0.9921 
G01 X-2.3916 Y0.9921 
G01 X-2.3809 Y0.9876 
G01 X-2.3381 Y1.0304 
G01 X-2.3304 Y1.0381 
G01 X-2.2554 Y1.0381 
G01 X-2.1631 Y1.1304 
G01 X-2.1554 Y1.1381 
G01 X-1.8804 Y1.1381 
G01 X-1.8442 Y1.1743 
G01 X-1.8524 Y1.1824 
G01 X-1.8571 Y1.1938 
G01 X-1.8571 Y1.2062 
G01 X-1.8524 Y1.2176 
G01 X-1.8436 Y1.2264 
G01 X-1.8322 Y1.2311 
G01 X-1.7678 Y1.2311 
G01 X-1.7564 Y1.2264 
G01 X-1.7476 Y1.2176 
G01 X-1.7429 Y1.2062 
G01 X-1.7429 Y1.1938 
G01 X-1.7476 Y1.1824 
G01 X-1.7564 Y1.1736 
G01 X-1.7678 Y1.1689 
G01 X-1.8126 Y1.1689 
G01 X-1.8696 Y1.1119 
G01 X-1.8804 Y1.1119 
G01 X-2.1446 Y1.1119 
G01 X-2.2446 Y1.0119 
G01 X-2.2554 Y1.0119 
G01 X-2.3196 Y1.0119 
G01 X-2.3624 Y0.9691 
G01 X-2.3579 Y0.9584 
G01 X-2.3579 Y0.9416 
G01 X-2.3643 Y0.9262 
G01 X-2.3762 Y0.9143 
G01 X-2.3916 Y0.9079 
G01 X-2.4084 Y0.9079 
G01 X-2.4238 Y0.9143 
G01 X-2.4357 Y0.9262 
G01 X-2.4421 Y0.9416 
G00 Z0.0200 
G00 X-2.4421 Y0.8416 
G01 Z-0.0050 F2.50  
G01 X-2.4421 Y0.8584 
G01 X-2.4376 Y0.8691 
G01 X-2.4679 Y0.8994 
G01 X-2.4756 Y0.9071 
G01 X-2.4756 Y0.9929 
G01 X-2.4679 Y1.0006 
G01 X-2.4679 Y1.0006 
G01 X-2.3881 Y1.0804 
G01 X-2.3881 Y1.0804 
G01 X-2.3804 Y1.0881 
G01 X-2.2804 Y1.0881 
G01 X-2.1881 Y1.1804 
G01 X-2.1881 Y1.1804 
G01 X-2.1804 Y1.1881 
G01 X-1.9054 Y1.1881 
G01 X-1.9006 Y1.1929 
G01 X-1.9006 Y1.3446 
G01 X-1.9006 Y1.3554 
G01 X-1.8929 Y1.3631 
G01 X-1.7304 Y1.3631 
G01 X-1.7196 Y1.3631 
G01 X-1.6571 Y1.3006 
G01 X-1.6494 Y1.2929 
G01 X-1.6494 Y1.2804 
G01 X-1.6446 Y1.2756 
G01 X-1.6369 Y1.2679 
G01 X-1.6369 Y1.0566 
G01 X-1.6304 Y1.0631 
G01 X-1.4179 Y1.0631 
G01 X-1.4071 Y1.0631 
G01 X-1.3994 Y1.0554 
G01 X-1.3994 Y1.0179 
G01 X-1.3696 Y0.9881 
G01 X-1.3309 Y0.9881 
G01 X-1.3131 Y1.0059 
G01 X-1.3131 Y1.0946 
G01 X-1.3131 Y1.1054 
G01 X-1.3054 Y1.1131 
G01 X-1.2804 Y1.1131 
G01 X-1.2631 Y1.1304 
G01 X-1.2631 Y1.1474 
G01 X-1.2699 Y1.1502 
G01 X-1.2797 Y1.1601 
G01 X-1.2851 Y1.1730 
G01 X-1.2851 Y1.2470 
G01 X-1.2797 Y1.2599 
G01 X-1.2699 Y1.2697 
G01 X-1.2570 Y1.2751 
G01 X-1.2430 Y1.2751 
G01 X-1.2301 Y1.2697 
G01 X-1.2202 Y1.2599 
G01 X-1.2149 Y1.2470 
G01 X-1.2149 Y1.1730 
G01 X-1.2202 Y1.1601 
G01 X-1.2301 Y1.1502 
G01 X-1.2369 Y1.1474 
G01 X-1.2369 Y1.1304 
G01 X-1.2369 Y1.1196 
G01 X-1.2619 Y1.0946 
G01 X-1.2696 Y1.0869 
G01 X-1.2869 Y1.0869 
G01 X-1.2869 Y1.0059 
G01 X-1.2689 Y0.9879 
G01 X-1.2689 Y0.9621 
G01 X-1.2871 Y0.9439 
G01 X-1.2874 Y0.9439 
G01 X-1.2874 Y0.8352 
G01 X-1.2048 Y0.7526 
G01 X-1.1048 Y0.7526 
G01 X-1.0974 Y0.7452 
G01 X-0.9736 Y0.6214 
G01 X-0.9676 Y0.6274 
G01 X-0.9562 Y0.6321 
G01 X-0.9438 Y0.6321 
G01 X-0.9324 Y0.6274 
G01 X-0.9236 Y0.6186 
G01 X-0.9189 Y0.6072 
G01 X-0.9189 Y0.5428 
G01 X-0.9236 Y0.5314 
G01 X-0.9324 Y0.5226 
G01 X-0.9438 Y0.5179 
G01 X-0.9562 Y0.5179 
G01 X-0.9676 Y0.5226 
G01 X-0.9736 Y0.5286 
G01 X-1.0374 Y0.4648 
G01 X-1.0374 Y0.4607 
G01 X-1.0351 Y0.4597 
G01 X-1.0252 Y0.4499 
G01 X-1.0199 Y0.4370 
G01 X-1.0199 Y0.3630 
G01 X-1.0252 Y0.3501 
G01 X-1.0351 Y0.3402 
G01 X-1.0480 Y0.3349 
G01 X-1.0574 Y0.3349 
G01 X-1.0574 Y0.2883 
G01 X-1.0512 Y0.2857 
G01 X-1.0393 Y0.2738 
G01 X-1.0329 Y0.2584 
G01 X-1.0329 Y0.2416 
G01 X-1.0361 Y0.2339 
G01 X-1.0048 Y0.2026 
G01 X-0.5126 Y0.2026 
G01 X-0.5126 Y0.6148 
G01 X-0.6552 Y0.7574 
G01 X-0.7552 Y0.7574 
G01 X-0.7626 Y0.7648 
G01 X-0.8264 Y0.8286 
G01 X-0.8324 Y0.8226 
G01 X-0.8438 Y0.8179 
G01 X-0.8562 Y0.8179 
G01 X-0.8676 Y0.8226 
G01 X-0.8764 Y0.8314 
G01 X-0.8811 Y0.8428 
G01 X-0.8811 Y0.9072 
G01 X-0.8764 Y0.9186 
G01 X-0.8676 Y0.9274 
G01 X-0.8562 Y0.9321 
G01 X-0.8438 Y0.9321 
G01 X-0.8324 Y0.9274 
G01 X-0.8264 Y0.9214 
G01 X-0.7926 Y0.9552 
G01 X-0.7852 Y0.9626 
G01 X-0.4248 Y0.9626 
G01 X-0.4174 Y0.9552 
G01 X-0.4174 Y0.9552 
G01 X-0.4148 Y0.9526 
G01 X-0.3852 Y0.9526 
G01 X-0.3326 Y1.0052 
G01 X-0.3252 Y1.0126 
G01 X-0.2381 Y1.0126 
G01 X-0.2381 Y1.0158 
G01 X-0.2158 Y1.0381 
G01 X-0.2126 Y1.0381 
G01 X-0.2126 Y1.0869 
G01 X-0.2158 Y1.0869 
G01 X-0.2381 Y1.1092 
G01 X-0.2381 Y1.1408 
G01 X-0.2158 Y1.1631 
G01 X-0.1842 Y1.1631 
G01 X-0.1619 Y1.1408 
G01 X-0.1619 Y1.1092 
G01 X-0.1842 Y1.0869 
G01 X-0.1874 Y1.0869 
G01 X-0.1874 Y1.0381 
G01 X-0.1842 Y1.0381 
G01 X-0.1619 Y1.0158 
G01 X-0.1619 Y0.9842 
G01 X-0.1842 Y0.9619 
G01 X-0.2158 Y0.9619 
G01 X-0.2381 Y0.9842 
G01 X-0.2381 Y0.9874 
G01 X-0.3148 Y0.9874 
G01 X-0.3748 Y0.9274 
G01 X-0.3852 Y0.9274 
G01 X-0.4252 Y0.9274 
G01 X-0.4326 Y0.9348 
G01 X-0.4326 Y0.9348 
G01 X-0.4352 Y0.9374 
G01 X-0.7748 Y0.9374 
G01 X-0.8189 Y0.8933 
G01 X-0.8189 Y0.8567 
G01 X-0.7448 Y0.7826 
G01 X-0.6552 Y0.7826 
G01 X-0.6448 Y0.7826 
G01 X-0.4948 Y0.6326 
G01 X-0.4874 Y0.6252 
G01 X-0.4874 Y0.1952 
G01 X-0.4874 Y0.1848 
G01 X-0.4948 Y0.1774 
G01 X-1.0048 Y0.1774 
G01 X-1.0152 Y0.1774 
G01 X-1.0518 Y0.2140 
G01 X-1.0666 Y0.2079 
G01 X-1.0834 Y0.2079 
G01 X-1.0988 Y0.2143 
G01 X-1.1107 Y0.2262 
G01 X-1.1171 Y0.2416 
G01 X-1.1171 Y0.2584 
G01 X-1.1107 Y0.2738 
G01 X-1.0988 Y0.2857 
G01 X-1.0834 Y0.2921 
G01 X-1.0826 Y0.2921 
G01 X-1.0826 Y0.3480 
G01 X-1.0847 Y0.3501 
G01 X-1.0901 Y0.3630 
G01 X-1.0901 Y0.4370 
G01 X-1.0847 Y0.4499 
G01 X-1.0749 Y0.4597 
G01 X-1.0626 Y0.4648 
G01 X-1.0626 Y0.4752 
G01 X-1.0552 Y0.4826 
G01 X-0.9811 Y0.5567 
G01 X-0.9811 Y0.5933 
G01 X-1.1152 Y0.7274 
G01 X-1.2048 Y0.7274 
G01 X-1.2152 Y0.7274 
G01 X-1.3126 Y0.8248 
G01 X-1.3126 Y0.8352 
G01 X-1.3126 Y0.9439 
G01 X-1.3129 Y0.9439 
G01 X-1.3309 Y0.9619 
G01 X-1.3804 Y0.9619 
G01 X-1.3881 Y0.9696 
G01 X-1.4256 Y1.0071 
G01 X-1.4256 Y1.0179 
G01 X-1.4256 Y1.0369 
G01 X-1.6196 Y1.0369 
G01 X-1.6446 Y1.0119 
G01 X-1.6494 Y1.0071 
G01 X-1.6571 Y0.9994 
G01 X-1.7429 Y0.9994 
G01 X-1.7429 Y0.9938 
G01 X-1.7476 Y0.9824 
G01 X-1.7564 Y0.9736 
G01 X-1.7678 Y0.9689 
G01 X-1.8133 Y0.9689 
G01 X-1.8474 Y0.9348 
G01 X-1.8548 Y0.9274 
G01 X-1.9548 Y0.9274 
G01 X-1.9642 Y0.9180 
G01 X-1.9619 Y0.9158 
G01 X-1.9619 Y0.8897 
G01 X-1.8948 Y0.8226 
G01 X-1.7048 Y0.8226 
G01 X-1.6974 Y0.8152 
G01 X-1.6974 Y0.8048 
G01 X-1.6974 Y0.6452 
G01 X-1.6974 Y0.5448 
G01 X-1.7048 Y0.5374 
G01 X-1.7748 Y0.4674 
G01 X-1.7852 Y0.4674 
G01 X-1.8248 Y0.4674 
G01 X-1.8439 Y0.4483 
G01 X-1.8429 Y0.4460 
G01 X-1.8429 Y0.4320 
G01 X-1.8482 Y0.4191 
G01 X-1.8581 Y0.4092 
G01 X-1.8710 Y0.4039 
G01 X-1.8850 Y0.4039 
G01 X-1.8979 Y0.4092 
G01 X-1.9077 Y0.4191 
G01 X-1.9131 Y0.4320 
G01 X-1.9131 Y0.4460 
G01 X-1.9077 Y0.4589 
G01 X-1.8979 Y0.4687 
G01 X-1.8850 Y0.4741 
G01 X-1.8710 Y0.4741 
G01 X-1.8588 Y0.4690 
G01 X-1.8426 Y0.4852 
G01 X-1.8352 Y0.4926 
G01 X-1.7852 Y0.4926 
G01 X-1.7226 Y0.5552 
G01 X-1.7226 Y0.6274 
G01 X-2.0474 Y0.6274 
G01 X-2.0474 Y0.3152 
G01 X-2.0243 Y0.2921 
G01 X-1.9609 Y0.2921 
G01 X-1.9579 Y0.2891 
G01 X-1.9579 Y0.2257 
G01 X-1.9448 Y0.2126 
G01 X-1.4881 Y0.2126 
G01 X-1.4881 Y0.2408 
G01 X-1.4658 Y0.2631 
G01 X-1.4626 Y0.2631 
G01 X-1.4626 Y0.3048 
G01 X-1.5352 Y0.3774 
G01 X-1.5852 Y0.3774 
G01 X-1.5926 Y0.3848 
G01 X-1.6127 Y0.4049 
G01 X-1.6150 Y0.4039 
G01 X-1.6290 Y0.4039 
G01 X-1.6419 Y0.4092 
G01 X-1.6517 Y0.4191 
G01 X-1.6571 Y0.4320 
G01 X-1.6571 Y0.4460 
G01 X-1.6517 Y0.4589 
G01 X-1.6419 Y0.4687 
G01 X-1.6290 Y0.4741 
G01 X-1.6150 Y0.4741 
G01 X-1.6021 Y0.4687 
G01 X-1.5922 Y0.4589 
G01 X-1.5869 Y0.4460 
G01 X-1.5869 Y0.4320 
G01 X-1.5920 Y0.4198 
G01 X-1.5748 Y0.4026 
G01 X-1.5352 Y0.4026 
G01 X-1.5248 Y0.4026 
G01 X-1.4448 Y0.3226 
G01 X-1.4374 Y0.3152 
G01 X-1.4374 Y0.2631 
G01 X-1.4342 Y0.2631 
G01 X-1.4119 Y0.2408 
G01 X-1.4119 Y0.2092 
G01 X-1.4342 Y0.1869 
G01 X-1.4658 Y0.1869 
G01 X-1.4663 Y0.1874 
G01 X-1.4752 Y0.1874 
G01 X-1.9552 Y0.1874 
G01 X-1.9626 Y0.1948 
G01 X-1.9757 Y0.2079 
G01 X-2.0391 Y0.2079 
G01 X-2.0421 Y0.2109 
G01 X-2.0421 Y0.2743 
G01 X-2.0652 Y0.2974 
G01 X-2.0726 Y0.3048 
G01 X-2.0726 Y0.6348 
G01 X-2.0726 Y0.6452 
G01 X-2.0652 Y0.6526 
G01 X-1.7226 Y0.6526 
G01 X-1.7226 Y0.7974 
G01 X-1.8948 Y0.7974 
G01 X-1.9052 Y0.7974 
G01 X-1.9770 Y0.8692 
G01 X-1.9842 Y0.8619 
G01 X-2.0158 Y0.8619 
G01 X-2.0381 Y0.8842 
G01 X-2.0381 Y0.9158 
G01 X-2.0158 Y0.9381 
G01 X-1.9842 Y0.9381 
G01 X-1.9820 Y0.9358 
G01 X-1.9652 Y0.9526 
G01 X-1.9548 Y0.9526 
G01 X-1.8652 Y0.9526 
G01 X-1.8439 Y0.9739 
G01 X-1.8524 Y0.9824 
G01 X-1.8571 Y0.9938 
G01 X-1.8571 Y1.0062 
G01 X-1.8524 Y1.0176 
G01 X-1.8436 Y1.0264 
G01 X-1.8322 Y1.0311 
G01 X-1.7678 Y1.0311 
G01 X-1.7564 Y1.0264 
G01 X-1.7556 Y1.0256 
G01 X-1.6679 Y1.0256 
G01 X-1.6631 Y1.0304 
G01 X-1.6631 Y1.2571 
G01 X-1.6756 Y1.2696 
G01 X-1.6756 Y1.2804 
G01 X-1.6756 Y1.2821 
G01 X-1.7304 Y1.3369 
G01 X-1.8744 Y1.3369 
G01 X-1.8744 Y1.1821 
G01 X-1.8821 Y1.1744 
G01 X-1.8946 Y1.1619 
G01 X-1.9054 Y1.1619 
G01 X-2.1696 Y1.1619 
G01 X-2.2696 Y1.0619 
G01 X-2.2804 Y1.0619 
G01 X-2.3696 Y1.0619 
G01 X-2.4494 Y0.9821 
G01 X-2.4494 Y0.9179 
G01 X-2.4191 Y0.8876 
G01 X-2.4084 Y0.8921 
G01 X-2.3916 Y0.8921 
G01 X-2.3762 Y0.8857 
G01 X-2.3643 Y0.8738 
G01 X-2.3579 Y0.8584 
G01 X-2.3579 Y0.8416 
G01 X-2.3643 Y0.8262 
G01 X-2.3762 Y0.8143 
G01 X-2.3916 Y0.8079 
G01 X-2.4084 Y0.8079 
G01 X-2.4238 Y0.8143 
G01 X-2.4357 Y0.8262 
G01 X-2.4421 Y0.8416 
G00 Z0.0200 
G00 X-1.0671 Y1.0416 
G01 Z-0.0050 F2.50  
G01 X-1.0671 Y1.0584 
G01 X-1.0607 Y1.0738 
G01 X-1.0488 Y1.0857 
G01 X-1.0381 Y1.0901 
G01 X-1.0381 Y1.0946 
G01 X-1.0631 Y1.1196 
G01 X-1.0631 Y1.1304 
G01 X-1.0631 Y1.1474 
G01 X-1.0699 Y1.1502 
G01 X-1.0797 Y1.1601 
G01 X-1.0851 Y1.1730 
G01 X-1.0851 Y1.2470 
G01 X-1.0797 Y1.2599 
G01 X-1.0699 Y1.2697 
G01 X-1.0570 Y1.2751 
G01 X-1.0430 Y1.2751 
G01 X-1.0301 Y1.2697 
G01 X-1.0202 Y1.2599 
G01 X-1.0149 Y1.2470 
G01 X-1.0149 Y1.1730 
G01 X-1.0202 Y1.1601 
G01 X-1.0301 Y1.1502 
G01 X-1.0369 Y1.1474 
G01 X-1.0369 Y1.1304 
G01 X-1.0196 Y1.1131 
G01 X-1.0119 Y1.1054 
G01 X-1.0119 Y1.0901 
G01 X-1.0012 Y1.0857 
G01 X-0.9893 Y1.0738 
G01 X-0.9829 Y1.0584 
G01 X-0.9829 Y1.0416 
G01 X-0.9893 Y1.0262 
G01 X-1.0012 Y1.0143 
G01 X-1.0166 Y1.0079 
G01 X-1.0334 Y1.0079 
G01 X-1.0488 Y1.0143 
G01 X-1.0607 Y1.0262 
G01 X-1.0671 Y1.0416 
G00 Z0.0200 
G00 X-1.9149 Y0.6017 
G01 Z-0.0050 F2.50  
G01 X-1.9017 Y0.6149 
G01 X-1.8844 Y0.6221 
G01 X-1.8656 Y0.6221 
G01 X-1.8483 Y0.6149 
G01 X-1.8351 Y0.6017 
G01 X-1.8279 Y0.5844 
G01 X-1.8279 Y0.5656 
G01 X-1.8351 Y0.5483 
G01 X-1.8483 Y0.5351 
G01 X-1.8656 Y0.5279 
G01 X-1.8844 Y0.5279 
G01 X-1.9017 Y0.5351 
G01 X-1.9149 Y0.5483 
G01 X-1.9166 Y0.5524 
G01 X-1.9529 Y0.5524 
G01 X-1.9529 Y0.5406 
G01 X-1.9601 Y0.5233 
G01 X-1.9733 Y0.5101 
G01 X-1.9906 Y0.5029 
G01 X-2.0094 Y0.5029 
G01 X-2.0267 Y0.5101 
G01 X-2.0399 Y0.5233 
G01 X-2.0424 Y0.5293 
G01 X-2.0424 Y0.4707 
G01 X-2.0399 Y0.4767 
G01 X-2.0267 Y0.4899 
G01 X-2.0094 Y0.4971 
G01 X-1.9906 Y0.4971 
G01 X-1.9815 Y0.4933 
G01 X-1.9576 Y0.5173 
G01 X-1.9473 Y0.5276 
G01 X-1.8473 Y0.5276 
G01 X-1.8183 Y0.5565 
G01 X-1.8221 Y0.5656 
G01 X-1.8221 Y0.5844 
G01 X-1.8149 Y0.6017 
G01 X-1.8017 Y0.6149 
G01 X-1.7844 Y0.6221 
G01 X-1.7656 Y0.6221 
G01 X-1.7483 Y0.6149 
G01 X-1.7351 Y0.6017 
G01 X-1.7279 Y0.5844 
G01 X-1.7279 Y0.5656 
G01 X-1.7340 Y0.5508 
G01 X-1.7276 Y0.5573 
G01 X-1.7276 Y0.6224 
G01 X-2.0424 Y0.6224 
G01 X-2.0424 Y0.5707 
G01 X-2.0399 Y0.5767 
G01 X-2.0267 Y0.5899 
G01 X-2.0094 Y0.5971 
G01 X-1.9906 Y0.5971 
G01 X-1.9733 Y0.5899 
G01 X-1.9710 Y0.5876 
G01 X-1.9208 Y0.5876 
G01 X-1.9149 Y0.6017 
G00 Z0.0200 
G00 X-2.0471 Y0.2120 
G01 Z-0.0050 F2.50  
G01 X-2.0471 Y0.2722 
G01 X-2.0673 Y0.2924 
G01 X-2.0724 Y0.2975 
G01 X-2.0724 Y0.2373 
G01 X-2.0471 Y0.2120 
G00 Z0.0200 
G00 X-1.2819 Y1.0309 
G01 Z-0.0050 F2.50  
G01 X-1.2819 Y1.0079 
G01 X-1.2676 Y0.9936 
G01 X-1.2676 Y1.0166 
G01 X-1.2819 Y1.0309 
G00 Z0.0200 
G00 X-1.2824 Y0.9415 
G01 Z-0.0050 F2.50  
G01 X-1.2824 Y0.9171 
G01 X-1.2806 Y0.9214 
G01 X-1.2704 Y0.9316 
G01 X-1.2606 Y0.9357 
G01 X-1.2676 Y0.9427 
G01 X-1.2676 Y0.9564 
G01 X-1.2824 Y0.9415 
G00 Z0.0200 
G00 X-2.0724 Y0.6525 
G01 Z-0.0050 F2.50  
G01 X-2.0673 Y0.6576 
G01 X-2.0185 Y0.6576 
G01 X-2.0431 Y0.6821 
G01 X-2.0431 Y0.6824 
G01 X-2.0724 Y0.6824 
G01 X-2.0724 Y0.6525 
G00 Z0.0200 
G00 X-0.6976 Y0.7927 
G01 Z-0.0050 F2.50  
G01 X-0.7264 Y0.8215 
G01 X-0.7296 Y0.8184 
G01 X-0.7428 Y0.8129 
G01 X-0.7572 Y0.8129 
G01 X-0.7704 Y0.8184 
G01 X-0.7806 Y0.8286 
G01 X-0.7861 Y0.8418 
G01 X-0.7861 Y0.9082 
G01 X-0.7806 Y0.9214 
G01 X-0.7704 Y0.9316 
G01 X-0.7685 Y0.9324 
G01 X-0.7727 Y0.9324 
G01 X-0.8139 Y0.8912 
G01 X-0.8139 Y0.8588 
G01 X-0.7427 Y0.7876 
G01 X-0.6925 Y0.7876 
G01 X-0.6976 Y0.7927 
G00 Z0.0200 
G00 X-0.7296 Y0.9316 
G01 Z-0.0050 F2.50  
G01 X-0.7194 Y0.9214 
G01 X-0.7139 Y0.9082 
G01 X-0.7139 Y0.8588 
G01 X-0.6727 Y0.8176 
G01 X-0.6685 Y0.8176 
G01 X-0.6704 Y0.8184 
G01 X-0.6806 Y0.8286 
G01 X-0.6861 Y0.8418 
G01 X-0.6861 Y0.9082 
G01 X-0.6806 Y0.9214 
G01 X-0.6704 Y0.9316 
G01 X-0.6685 Y0.9324 
G01 X-0.7315 Y0.9324 
G01 X-0.7296 Y0.9316 
G00 Z0.0200 
G00 X-0.6296 Y0.9316 
G01 Z-0.0050 F2.50  
G01 X-0.6194 Y0.9214 
G01 X-0.6139 Y0.9082 
G01 X-0.6139 Y0.8588 
G01 X-0.5727 Y0.8176 
G01 X-0.5685 Y0.8176 
G01 X-0.5704 Y0.8184 
G01 X-0.5806 Y0.8286 
G01 X-0.5861 Y0.8418 
G01 X-0.5861 Y0.9082 
G01 X-0.5806 Y0.9214 
G01 X-0.5704 Y0.9316 
G01 X-0.5685 Y0.9324 
G01 X-0.6315 Y0.9324 
G01 X-0.6296 Y0.9316 
G00 Z0.0200 
G00 X-0.5296 Y0.9316 
G01 Z-0.0050 F2.50  
G01 X-0.5194 Y0.9214 
G01 X-0.5139 Y0.9082 
G01 X-0.5139 Y0.8418 
G01 X-0.5194 Y0.8286 
G01 X-0.5296 Y0.8184 
G01 X-0.5315 Y0.8176 
G01 X-0.4685 Y0.8176 
G01 X-0.4704 Y0.8184 
G01 X-0.4806 Y0.8286 
G01 X-0.4861 Y0.8418 
G01 X-0.4861 Y0.9082 
G01 X-0.4806 Y0.9214 
G01 X-0.4704 Y0.9316 
G01 X-0.4685 Y0.9324 
G01 X-0.5315 Y0.9324 
G01 X-0.5296 Y0.9316 
G00 Z0.0200 
G00 X-0.4194 Y0.9214 
G01 Z-0.0050 F2.50  
G01 X-0.4139 Y0.9082 
G01 X-0.4139 Y0.8418 
G01 X-0.4194 Y0.8286 
G01 X-0.4296 Y0.8184 
G01 X-0.4315 Y0.8176 
G01 X-0.3685 Y0.8176 
G01 X-0.3704 Y0.8184 
G01 X-0.3806 Y0.8286 
G01 X-0.3861 Y0.8418 
G01 X-0.3861 Y0.9082 
G01 X-0.3806 Y0.9214 
G01 X-0.3796 Y0.9224 
G01 X-0.3873 Y0.9224 
G01 X-0.4204 Y0.9224 
G01 X-0.4194 Y0.9214 
G00 Z0.0200 
G00 X-0.3572 Y0.9371 
G01 Z-0.0050 F2.50  
G01 X-0.3428 Y0.9371 
G01 X-0.3296 Y0.9316 
G01 X-0.3194 Y0.9214 
G01 X-0.3139 Y0.9082 
G01 X-0.3139 Y0.8418 
G01 X-0.3194 Y0.8286 
G01 X-0.3296 Y0.8184 
G01 X-0.3315 Y0.8176 
G01 X-0.2685 Y0.8176 
G01 X-0.2704 Y0.8184 
G01 X-0.2806 Y0.8286 
G01 X-0.2861 Y0.8418 
G01 X-0.2861 Y0.9082 
G01 X-0.2806 Y0.9214 
G01 X-0.2704 Y0.9316 
G01 X-0.2572 Y0.9371 
G01 X-0.2428 Y0.9371 
G01 X-0.2296 Y0.9316 
G01 X-0.2194 Y0.9214 
G01 X-0.2139 Y0.9082 
G01 X-0.2139 Y0.8418 
G01 X-0.2145 Y0.8404 
G01 X-0.1576 Y0.8973 
G01 X-0.1576 Y0.9815 
G01 X-0.1821 Y0.9569 
G01 X-0.2178 Y0.9569 
G01 X-0.2431 Y0.9821 
G01 X-0.2431 Y0.9824 
G01 X-0.3127 Y0.9824 
G01 X-0.3586 Y0.9365 
G01 X-0.3572 Y0.9371 
G00 Z0.0200 
G00 X-0.1821 Y1.0431 
G01 Z-0.0050 F2.50  
G01 X-0.1576 Y1.0185 
G01 X-0.1576 Y1.1065 
G01 X-0.1821 Y1.0819 
G01 X-0.1824 Y1.0819 
G01 X-0.1824 Y1.0431 
G01 X-0.1821 Y1.0431 
G00 Z0.0200 
G00 X-0.2431 Y1.0178 
G01 Z-0.0050 F2.50  
G01 X-0.2178 Y1.0431 
G01 X-0.2176 Y1.0431 
G01 X-0.2176 Y1.0819 
G01 X-0.2178 Y1.0819 
G01 X-0.2431 Y1.1071 
G01 X-0.2431 Y1.1420 
G01 X-0.3621 Y1.0230 
G01 X-0.3569 Y1.0178 
G01 X-0.3569 Y0.9880 
G01 X-0.3376 Y1.0073 
G01 X-0.3273 Y1.0176 
G01 X-0.2431 Y1.0176 
G01 X-0.2431 Y1.0178 
G00 Z0.0200 
G00 X-0.1821 Y1.1681 
G01 Z-0.0050 F2.50  
G01 X-0.1576 Y1.1435 
G01 X-0.1576 Y1.1724 
G01 X-0.2127 Y1.1724 
G01 X-0.2170 Y1.1681 
G01 X-0.1821 Y1.1681 
G00 Z0.0200 
G00 X-1.2321 Y0.1819 
G01 Z-0.0050 F2.50  
G01 X-1.2632 Y0.1819 
G01 X-1.2924 Y0.1527 
G01 X-1.3020 Y0.1431 
G01 X-1.2450 Y0.1431 
G01 X-1.2081 Y0.1800 
G01 X-1.2081 Y0.2060 
G01 X-1.2321 Y0.1819 
G00 Z0.0200 
G00 X-2.3925 Y1.1069 
G01 Z-0.0050 F2.50  
G01 X-2.4944 Y1.0050 
G01 X-2.4944 Y0.8450 
G01 X-2.4425 Y0.7931 
G01 X-2.1575 Y0.7931 
G01 X-2.1425 Y0.7931 
G01 X-2.1300 Y0.7806 
G01 X-2.1194 Y0.7700 
G01 X-2.1194 Y0.7575 
G01 X-2.1175 Y0.7556 
G01 X-2.1069 Y0.7450 
G01 X-2.1069 Y0.7080 
G01 X-2.0973 Y0.7176 
G01 X-2.0431 Y0.7176 
G01 X-2.0431 Y0.7178 
G01 X-2.0429 Y0.7180 
G01 X-2.2250 Y0.9001 
G01 X-2.2567 Y0.8684 
G01 X-2.2529 Y0.8594 
G01 X-2.2529 Y0.8406 
G01 X-2.2601 Y0.8233 
G01 X-2.2733 Y0.8101 
G01 X-2.2906 Y0.8029 
G01 X-2.3094 Y0.8029 
G01 X-2.3267 Y0.8101 
G01 X-2.3399 Y0.8233 
G01 X-2.3471 Y0.8406 
G01 X-2.3471 Y0.8594 
G01 X-2.3399 Y0.8767 
G01 X-2.3267 Y0.8899 
G01 X-2.3094 Y0.8971 
G01 X-2.2906 Y0.8971 
G01 X-2.2815 Y0.8933 
G01 X-2.2426 Y0.9323 
G01 X-2.2323 Y0.9426 
G01 X-2.1073 Y1.0676 
G01 X-2.0927 Y1.0676 
G01 X-1.8421 Y1.0676 
G01 X-1.8464 Y1.0694 
G01 X-1.8464 Y1.0694 
G01 X-2.1175 Y1.0694 
G01 X-2.2444 Y0.9425 
G01 X-2.2550 Y0.9319 
G01 X-2.2565 Y0.9319 
G01 X-2.2601 Y0.9233 
G01 X-2.2733 Y0.9101 
G01 X-2.2906 Y0.9029 
G01 X-2.3094 Y0.9029 
G01 X-2.3267 Y0.9101 
G01 X-2.3399 Y0.9233 
G01 X-2.3471 Y0.9406 
G01 X-2.3471 Y0.9594 
G01 X-2.3399 Y0.9767 
G01 X-2.3267 Y0.9899 
G01 X-2.3094 Y0.9971 
G01 X-2.2906 Y0.9971 
G01 X-2.2733 Y0.9899 
G01 X-2.2607 Y0.9773 
G01 X-2.1325 Y1.1056 
G01 X-2.1175 Y1.1056 
G01 X-1.8621 Y1.1056 
G01 X-1.8621 Y1.1072 
G01 X-1.8584 Y1.1160 
G01 X-1.8675 Y1.1069 
G01 X-1.8825 Y1.1069 
G01 X-2.1425 Y1.1069 
G01 X-2.2425 Y1.0069 
G01 X-2.2575 Y1.0069 
G01 X-2.3175 Y1.0069 
G01 X-2.3565 Y0.9679 
G01 X-2.3529 Y0.9594 
G01 X-2.3529 Y0.9406 
G01 X-2.3601 Y0.9233 
G01 X-2.3733 Y0.9101 
G01 X-2.3906 Y0.9029 
G01 X-2.4094 Y0.9029 
G01 X-2.4267 Y0.9101 
G01 X-2.4399 Y0.9233 
G01 X-2.4444 Y0.9342 
G01 X-2.4444 Y0.9200 
G01 X-2.4179 Y0.8935 
G01 X-2.4094 Y0.8971 
G01 X-2.3906 Y0.8971 
G01 X-2.3733 Y0.8899 
G01 X-2.3601 Y0.8767 
G01 X-2.3529 Y0.8594 
G01 X-2.3529 Y0.8406 
G01 X-2.3601 Y0.8233 
G01 X-2.3733 Y0.8101 
G01 X-2.3906 Y0.8029 
G01 X-2.4094 Y0.8029 
G01 X-2.4267 Y0.8101 
G01 X-2.4399 Y0.8233 
G01 X-2.4471 Y0.8406 
G01 X-2.4471 Y0.8594 
G01 X-2.4435 Y0.8679 
G01 X-2.4700 Y0.8944 
G01 X-2.4806 Y0.9050 
G01 X-2.4806 Y0.9950 
G01 X-2.4700 Y1.0056 
G01 X-2.4700 Y1.0056 
G01 X-2.3931 Y1.0825 
G01 X-2.3931 Y1.0825 
G01 X-2.3825 Y1.0931 
G01 X-2.2825 Y1.0931 
G01 X-2.1931 Y1.1825 
G01 X-2.1931 Y1.1825 
G01 X-2.1825 Y1.1931 
G01 X-1.9075 Y1.1931 
G01 X-1.9056 Y1.1950 
G01 X-1.9056 Y1.3425 
G01 X-1.9056 Y1.3575 
G01 X-1.8950 Y1.3681 
G01 X-1.7325 Y1.3681 
G01 X-1.7175 Y1.3681 
G01 X-1.6550 Y1.3056 
G01 X-1.6444 Y1.2950 
G01 X-1.6444 Y1.2825 
G01 X-1.6425 Y1.2806 
G01 X-1.6319 Y1.2700 
G01 X-1.6319 Y1.0681 
G01 X-1.5433 Y1.0681 
G01 X-1.5464 Y1.0694 
G01 X-1.5566 Y1.0796 
G01 X-1.5621 Y1.0928 
G01 X-1.5621 Y1.1072 
G01 X-1.5566 Y1.1204 
G01 X-1.5464 Y1.1306 
G01 X-1.5332 Y1.1361 
G01 X-1.5176 Y1.1361 
G01 X-1.5176 Y1.1639 
G01 X-1.5332 Y1.1639 
G01 X-1.5464 Y1.1694 
G01 X-1.5566 Y1.1796 
G01 X-1.5621 Y1.1928 
G01 X-1.5621 Y1.2072 
G01 X-1.5566 Y1.2204 
G01 X-1.5464 Y1.2306 
G01 X-1.5332 Y1.2361 
G01 X-1.4888 Y1.2361 
G01 X-1.4568 Y1.2680 
G01 X-1.4668 Y1.2639 
G01 X-1.5332 Y1.2639 
G01 X-1.5464 Y1.2694 
G01 X-1.5566 Y1.2796 
G01 X-1.5621 Y1.2928 
G01 X-1.5621 Y1.3072 
G01 X-1.5566 Y1.3204 
G01 X-1.5510 Y1.3261 
G01 X-1.6068 Y1.3819 
G01 X-1.9319 Y1.3819 
G01 X-1.9319 Y1.2325 
G01 X-1.9319 Y1.2175 
G01 X-1.9425 Y1.2069 
G01 X-2.1925 Y1.2069 
G01 X-2.2925 Y1.1069 
G01 X-2.3075 Y1.1069 
G01 X-2.3925 Y1.1069 
G00 Z0.0200 
G00 X-2.0973 Y0.2124 
G01 Z-0.0050 F2.50  
G01 X-2.1069 Y0.2220 
G01 X-2.1069 Y0.2075 
G01 X-2.0425 Y0.1431 
G01 X-2.0280 Y0.1431 
G01 X-2.0973 Y0.2124 
G00 Z0.0200 
G00 X-1.4296 Y0.8184 
G01 Z-0.0050 F2.50  
G01 X-1.4428 Y0.8129 
G01 X-1.4572 Y0.8129 
G01 X-1.4704 Y0.8184 
G01 X-1.4806 Y0.8286 
G01 X-1.4861 Y0.8418 
G01 X-1.4861 Y0.8912 
G01 X-1.5273 Y0.9324 
G01 X-1.5315 Y0.9324 
G01 X-1.5296 Y0.9316 
G01 X-1.5194 Y0.9214 
G01 X-1.5139 Y0.9082 
G01 X-1.5139 Y0.8418 
G01 X-1.5194 Y0.8286 
G01 X-1.5296 Y0.8184 
G01 X-1.5324 Y0.8172 
G01 X-1.5324 Y0.6427 
G01 X-1.5394 Y0.6357 
G01 X-1.5296 Y0.6316 
G01 X-1.5194 Y0.6214 
G01 X-1.5139 Y0.6082 
G01 X-1.5139 Y0.5418 
G01 X-1.5194 Y0.5286 
G01 X-1.5296 Y0.5184 
G01 X-1.5319 Y0.5174 
G01 X-1.5319 Y0.5075 
G01 X-1.5215 Y0.4971 
G01 X-1.5156 Y0.4971 
G01 X-1.4983 Y0.4899 
G01 X-1.4851 Y0.4767 
G01 X-1.4779 Y0.4594 
G01 X-1.4779 Y0.4406 
G01 X-1.4851 Y0.4233 
G01 X-1.4983 Y0.4101 
G01 X-1.5156 Y0.4029 
G01 X-1.5180 Y0.4029 
G01 X-1.4427 Y0.3276 
G01 X-1.4324 Y0.3173 
G01 X-1.4324 Y0.2681 
G01 X-1.4321 Y0.2681 
G01 X-1.4069 Y0.2428 
G01 X-1.4069 Y0.2071 
G01 X-1.4321 Y0.1819 
G01 X-1.4678 Y0.1819 
G01 X-1.4683 Y0.1824 
G01 X-1.4773 Y0.1824 
G01 X-1.9573 Y0.1824 
G01 X-1.9676 Y0.1927 
G01 X-1.9778 Y0.2029 
G01 X-2.0380 Y0.2029 
G01 X-2.0127 Y0.1776 
G01 X-1.3173 Y0.1776 
G01 X-1.2904 Y0.2045 
G01 X-1.2931 Y0.2071 
G01 X-1.2931 Y0.2428 
G01 X-1.2678 Y0.2681 
G01 X-1.2676 Y0.2681 
G01 X-1.2676 Y0.2813 
G01 X-1.2767 Y0.2851 
G01 X-1.2899 Y0.2983 
G01 X-1.2971 Y0.3156 
G01 X-1.2971 Y0.3344 
G01 X-1.2899 Y0.3517 
G01 X-1.2767 Y0.3649 
G01 X-1.2594 Y0.3721 
G01 X-1.2406 Y0.3721 
G01 X-1.2233 Y0.3649 
G01 X-1.2101 Y0.3517 
G01 X-1.2076 Y0.3457 
G01 X-1.2076 Y0.4824 
G01 X-1.2627 Y0.4824 
G01 X-1.2773 Y0.4824 
G01 X-1.3073 Y0.5124 
G01 X-1.3176 Y0.5227 
G01 X-1.3176 Y0.5329 
G01 X-1.3194 Y0.5286 
G01 X-1.3296 Y0.5184 
G01 X-1.3428 Y0.5129 
G01 X-1.3572 Y0.5129 
G01 X-1.3704 Y0.5184 
G01 X-1.3806 Y0.5286 
G01 X-1.3861 Y0.5418 
G01 X-1.3861 Y0.6082 
G01 X-1.3806 Y0.6214 
G01 X-1.3704 Y0.6316 
G01 X-1.3572 Y0.6371 
G01 X-1.3428 Y0.6371 
G01 X-1.3296 Y0.6316 
G01 X-1.3194 Y0.6214 
G01 X-1.3176 Y0.6171 
G01 X-1.3176 Y0.7624 
G01 X-1.3527 Y0.7624 
G01 X-1.3673 Y0.7624 
G01 X-1.4264 Y0.8215 
G01 X-1.4296 Y0.8184 
G00 Z0.0200 
G00 X-1.4861 Y0.5418 
G01 Z-0.0050 F2.50  
G01 X-1.4861 Y0.6082 
G01 X-1.4806 Y0.6214 
G01 X-1.4704 Y0.6316 
G01 X-1.4572 Y0.6371 
G01 X-1.4428 Y0.6371 
G01 X-1.4296 Y0.6316 
G01 X-1.4194 Y0.6214 
G01 X-1.4139 Y0.6082 
G01 X-1.4139 Y0.5418 
G01 X-1.4194 Y0.5286 
G01 X-1.4296 Y0.5184 
G01 X-1.4319 Y0.5174 
G01 X-1.4319 Y0.5075 
G01 X-1.4215 Y0.4971 
G01 X-1.4156 Y0.4971 
G01 X-1.3983 Y0.4899 
G01 X-1.3851 Y0.4767 
G01 X-1.3779 Y0.4594 
G01 X-1.3779 Y0.4406 
G01 X-1.3851 Y0.4233 
G01 X-1.3983 Y0.4101 
G01 X-1.4156 Y0.4029 
G01 X-1.4344 Y0.4029 
G01 X-1.4517 Y0.4101 
G01 X-1.4649 Y0.4233 
G01 X-1.4721 Y0.4406 
G01 X-1.4721 Y0.4594 
G01 X-1.4649 Y0.4767 
G01 X-1.4586 Y0.4830 
G01 X-1.4681 Y0.4925 
G01 X-1.4681 Y0.5174 
G01 X-1.4704 Y0.5184 
G01 X-1.4806 Y0.5286 
G01 X-1.4861 Y0.5418 
G00 Z0.0200 
G00 X-1.5704 Y0.5184 
G01 Z-0.0050 F2.50  
G01 X-1.5806 Y0.5286 
G01 X-1.5861 Y0.5418 
G01 X-1.5861 Y0.6082 
G01 X-1.5855 Y0.6096 
G01 X-1.6624 Y0.5327 
G01 X-1.6624 Y0.2876 
G01 X-1.6521 Y0.2876 
G01 X-1.6447 Y0.2950 
G01 X-1.6300 Y0.3011 
G01 X-1.6140 Y0.3011 
G01 X-1.5997 Y0.2952 
G01 X-1.5919 Y0.3030 
G01 X-1.5971 Y0.3156 
G01 X-1.5971 Y0.3344 
G01 X-1.5899 Y0.3517 
G01 X-1.5767 Y0.3649 
G01 X-1.5594 Y0.3721 
G01 X-1.5406 Y0.3721 
G01 X-1.5344 Y0.3695 
G01 X-1.5373 Y0.3724 
G01 X-1.5873 Y0.3724 
G01 X-1.5976 Y0.3827 
G01 X-1.6139 Y0.3990 
G01 X-1.6140 Y0.3989 
G01 X-1.6300 Y0.3989 
G01 X-1.6447 Y0.4050 
G01 X-1.6560 Y0.4163 
G01 X-1.6621 Y0.4310 
G01 X-1.6621 Y0.4470 
G01 X-1.6560 Y0.4617 
G01 X-1.6447 Y0.4730 
G01 X-1.6300 Y0.4791 
G01 X-1.6140 Y0.4791 
G01 X-1.5993 Y0.4730 
G01 X-1.5880 Y0.4617 
G01 X-1.5819 Y0.4470 
G01 X-1.5819 Y0.4310 
G01 X-1.5861 Y0.4210 
G01 X-1.5727 Y0.4076 
G01 X-1.5457 Y0.4076 
G01 X-1.5517 Y0.4101 
G01 X-1.5649 Y0.4233 
G01 X-1.5721 Y0.4406 
G01 X-1.5721 Y0.4594 
G01 X-1.5649 Y0.4767 
G01 X-1.5586 Y0.4830 
G01 X-1.5681 Y0.4925 
G01 X-1.5681 Y0.5174 
G01 X-1.5704 Y0.5184 
G00 Z0.0200 
G00 X-0.9194 Y0.8286 
G01 Z-0.0050 F2.50  
G01 X-0.9296 Y0.8184 
G01 X-0.9324 Y0.8172 
G01 X-0.9324 Y0.8073 
G01 X-0.9324 Y0.7927 
G01 X-0.9324 Y0.7873 
G01 X-0.7736 Y0.6285 
G01 X-0.7704 Y0.6316 
G01 X-0.7572 Y0.6371 
G01 X-0.7428 Y0.6371 
G01 X-0.7296 Y0.6316 
G01 X-0.7194 Y0.6214 
G01 X-0.7176 Y0.6171 
G01 X-0.7176 Y0.7224 
G01 X-0.8027 Y0.7224 
G01 X-0.8173 Y0.7224 
G01 X-0.9073 Y0.8124 
G01 X-0.9176 Y0.8227 
G01 X-0.9176 Y0.8329 
G01 X-0.9194 Y0.8286 
G00 Z0.0200 
G00 X-1.8332 Y1.1361 
G01 Z-0.0050 F2.50  
G01 X-1.7668 Y1.1361 
G01 X-1.7536 Y1.1306 
G01 X-1.7434 Y1.1204 
G01 X-1.7379 Y1.1072 
G01 X-1.7379 Y1.0928 
G01 X-1.7434 Y1.0796 
G01 X-1.7536 Y1.0694 
G01 X-1.7579 Y1.0676 
G01 X-1.7376 Y1.0676 
G01 X-1.7376 Y1.2127 
G01 X-1.7420 Y1.2172 
G01 X-1.7379 Y1.2072 
G01 X-1.7379 Y1.1928 
G01 X-1.7434 Y1.1796 
G01 X-1.7536 Y1.1694 
G01 X-1.7668 Y1.1639 
G01 X-1.8105 Y1.1639 
G01 X-1.8420 Y1.1324 
G01 X-1.8332 Y1.1361 
G00 Z0.0200 
G00 X-1.8566 Y1.1796 
G01 Z-0.0050 F2.50  
G01 X-1.8621 Y1.1928 
G01 X-1.8621 Y1.2072 
G01 X-1.8566 Y1.2204 
G01 X-1.8464 Y1.2306 
G01 X-1.8332 Y1.2361 
G01 X-1.7668 Y1.2361 
G01 X-1.7568 Y1.2319 
G01 X-1.7888 Y1.2639 
G01 X-1.8332 Y1.2639 
G01 X-1.8464 Y1.2694 
G01 X-1.8566 Y1.2796 
G01 X-1.8621 Y1.2928 
G01 X-1.8621 Y1.3072 
G01 X-1.8566 Y1.3204 
G01 X-1.8464 Y1.3306 
G01 X-1.8433 Y1.3319 
G01 X-1.8694 Y1.3319 
G01 X-1.8694 Y1.1800 
G01 X-1.8800 Y1.1694 
G01 X-1.8925 Y1.1569 
G01 X-1.9075 Y1.1569 
G01 X-2.1675 Y1.1569 
G01 X-2.2675 Y1.0569 
G01 X-2.2825 Y1.0569 
G01 X-2.3675 Y1.0569 
G01 X-2.4444 Y0.9800 
G01 X-2.4444 Y0.9658 
G01 X-2.4399 Y0.9767 
G01 X-2.4267 Y0.9899 
G01 X-2.4094 Y0.9971 
G01 X-2.3906 Y0.9971 
G01 X-2.3820 Y0.9935 
G01 X-2.3431 Y1.0325 
G01 X-2.3325 Y1.0431 
G01 X-2.2575 Y1.0431 
G01 X-2.1681 Y1.1325 
G01 X-2.1575 Y1.1431 
G01 X-1.8825 Y1.1431 
G01 X-1.8513 Y1.1743 
G01 X-1.8566 Y1.1796 
G00 Z0.0200 
G00 X-1.7127 Y0.9624 
G01 Z-0.0050 F2.50  
G01 X-1.7427 Y0.9324 
G01 X-1.7573 Y0.9324 
G01 X-1.7927 Y0.9324 
G01 X-1.8317 Y0.8934 
G01 X-1.8279 Y0.8844 
G01 X-1.8279 Y0.8656 
G01 X-1.8351 Y0.8483 
G01 X-1.8483 Y0.8351 
G01 X-1.8656 Y0.8279 
G01 X-1.8844 Y0.8279 
G01 X-1.8992 Y0.8340 
G01 X-1.8927 Y0.8276 
G01 X-1.7027 Y0.8276 
G01 X-1.6924 Y0.8173 
G01 X-1.6924 Y0.8027 
G01 X-1.6924 Y0.6473 
G01 X-1.6924 Y0.5525 
G01 X-1.6873 Y0.5576 
G01 X-1.5773 Y0.6676 
G01 X-1.5676 Y0.6676 
G01 X-1.5676 Y0.8172 
G01 X-1.5704 Y0.8184 
G01 X-1.5806 Y0.8286 
G01 X-1.5861 Y0.8418 
G01 X-1.5861 Y0.9082 
G01 X-1.5806 Y0.9214 
G01 X-1.5704 Y0.9316 
G01 X-1.5685 Y0.9324 
G01 X-1.6927 Y0.9324 
G01 X-1.7317 Y0.8934 
G01 X-1.7279 Y0.8844 
G01 X-1.7279 Y0.8656 
G01 X-1.7351 Y0.8483 
G01 X-1.7483 Y0.8351 
G01 X-1.7656 Y0.8279 
G01 X-1.7844 Y0.8279 
G01 X-1.8017 Y0.8351 
G01 X-1.8149 Y0.8483 
G01 X-1.8221 Y0.8656 
G01 X-1.8221 Y0.8844 
G01 X-1.8149 Y0.9017 
G01 X-1.8017 Y0.9149 
G01 X-1.7844 Y0.9221 
G01 X-1.7656 Y0.9221 
G01 X-1.7565 Y0.9183 
G01 X-1.7125 Y0.9624 
G01 X-1.7127 Y0.9624 
G00 Z0.0200 
G00 X-1.2101 Y0.2983 
G01 Z-0.0050 F2.50  
G01 X-1.2233 Y0.2851 
G01 X-1.2324 Y0.2813 
G01 X-1.2324 Y0.2681 
G01 X-1.2321 Y0.2681 
G01 X-1.2076 Y0.2435 
G01 X-1.2076 Y0.3043 
G01 X-1.2101 Y0.2983 
G00 Z0.0200 
G00 X-0.7676 Y0.7627 
G01 Z-0.0050 F2.50  
G01 X-0.8264 Y0.8215 
G01 X-0.8296 Y0.8184 
G01 X-0.8428 Y0.8129 
G01 X-0.8572 Y0.8129 
G01 X-0.8586 Y0.8135 
G01 X-0.8027 Y0.7576 
G01 X-0.7625 Y0.7576 
G01 X-0.7676 Y0.7627 
G00 Z0.0200 
G00 X-0.6806 Y0.6214 
G01 Z-0.0050 F2.50  
G01 X-0.6704 Y0.6316 
G01 X-0.6572 Y0.6371 
G01 X-0.6428 Y0.6371 
G01 X-0.6296 Y0.6316 
G01 X-0.6194 Y0.6214 
G01 X-0.6139 Y0.6082 
G01 X-0.6139 Y0.5418 
G01 X-0.6194 Y0.5286 
G01 X-0.6296 Y0.5184 
G01 X-0.6324 Y0.5172 
G01 X-0.6324 Y0.4721 
G01 X-0.6156 Y0.4721 
G01 X-0.5983 Y0.4649 
G01 X-0.5851 Y0.4517 
G01 X-0.5779 Y0.4344 
G01 X-0.5779 Y0.4156 
G01 X-0.5851 Y0.3983 
G01 X-0.5983 Y0.3851 
G01 X-0.6156 Y0.3779 
G01 X-0.6344 Y0.3779 
G01 X-0.6517 Y0.3851 
G01 X-0.6649 Y0.3983 
G01 X-0.6721 Y0.4156 
G01 X-0.6721 Y0.4344 
G01 X-0.6676 Y0.4452 
G01 X-0.6676 Y0.5172 
G01 X-0.6704 Y0.5184 
G01 X-0.6806 Y0.5286 
G01 X-0.6824 Y0.5329 
G01 X-0.6824 Y0.5227 
G01 X-0.6927 Y0.5124 
G01 X-0.7227 Y0.4824 
G01 X-0.7373 Y0.4824 
G01 X-0.9073 Y0.4824 
G01 X-0.9176 Y0.4927 
G01 X-0.9176 Y0.5073 
G01 X-0.9176 Y0.5329 
G01 X-0.9194 Y0.5286 
G01 X-0.9296 Y0.5184 
G01 X-0.9428 Y0.5129 
G01 X-0.9572 Y0.5129 
G01 X-0.9704 Y0.5184 
G01 X-0.9736 Y0.5215 
G01 X-1.0317 Y0.4634 
G01 X-1.0210 Y0.4527 
G01 X-1.0149 Y0.4380 
G01 X-1.0149 Y0.3620 
G01 X-1.0210 Y0.3473 
G01 X-1.0323 Y0.3360 
G01 X-1.0470 Y0.3299 
G01 X-1.0524 Y0.3299 
G01 X-1.0524 Y0.2916 
G01 X-1.0483 Y0.2899 
G01 X-1.0351 Y0.2767 
G01 X-1.0279 Y0.2594 
G01 X-1.0279 Y0.2406 
G01 X-1.0302 Y0.2351 
G01 X-1.0027 Y0.2076 
G01 X-0.7957 Y0.2076 
G01 X-0.8017 Y0.2101 
G01 X-0.8149 Y0.2233 
G01 X-0.8221 Y0.2406 
G01 X-0.8221 Y0.2594 
G01 X-0.8149 Y0.2767 
G01 X-0.8017 Y0.2899 
G01 X-0.7844 Y0.2971 
G01 X-0.7656 Y0.2971 
G01 X-0.7483 Y0.2899 
G01 X-0.7351 Y0.2767 
G01 X-0.7313 Y0.2676 
G01 X-0.7073 Y0.2676 
G01 X-0.6683 Y0.3065 
G01 X-0.6721 Y0.3156 
G01 X-0.6721 Y0.3344 
G01 X-0.6649 Y0.3517 
G01 X-0.6517 Y0.3649 
G01 X-0.6344 Y0.3721 
G01 X-0.6156 Y0.3721 
G01 X-0.5983 Y0.3649 
G01 X-0.5851 Y0.3517 
G01 X-0.5779 Y0.3344 
G01 X-0.5779 Y0.3156 
G01 X-0.5851 Y0.2983 
G01 X-0.5983 Y0.2851 
G01 X-0.6156 Y0.2779 
G01 X-0.6344 Y0.2779 
G01 X-0.6434 Y0.2817 
G01 X-0.6824 Y0.2427 
G01 X-0.6927 Y0.2324 
G01 X-0.7313 Y0.2324 
G01 X-0.7351 Y0.2233 
G01 X-0.7483 Y0.2101 
G01 X-0.7543 Y0.2076 
G01 X-0.5176 Y0.2076 
G01 X-0.5176 Y0.5329 
G01 X-0.5194 Y0.5286 
G01 X-0.5296 Y0.5184 
G01 X-0.5428 Y0.5129 
G01 X-0.5572 Y0.5129 
G01 X-0.5704 Y0.5184 
G01 X-0.5806 Y0.5286 
G01 X-0.5861 Y0.5418 
G01 X-0.5861 Y0.6082 
G01 X-0.5806 Y0.6214 
G01 X-0.5704 Y0.6316 
G01 X-0.5572 Y0.6371 
G01 X-0.5428 Y0.6371 
G01 X-0.5414 Y0.6365 
G01 X-0.6573 Y0.7524 
G01 X-0.6875 Y0.7524 
G01 X-0.6824 Y0.7473 
G01 X-0.6824 Y0.7327 
G01 X-0.6824 Y0.6171 
G01 X-0.6806 Y0.6214 
G00 Z0.0200 
G00 X-0.9851 Y0.3620 
G01 Z-0.0050 F2.50  
G01 X-0.9851 Y0.4380 
G01 X-0.9790 Y0.4527 
G01 X-0.9677 Y0.4640 
G01 X-0.9530 Y0.4701 
G01 X-0.9370 Y0.4701 
G01 X-0.9223 Y0.4640 
G01 X-0.9110 Y0.4527 
G01 X-0.9049 Y0.4380 
G01 X-0.9049 Y0.3620 
G01 X-0.9110 Y0.3473 
G01 X-0.9223 Y0.3360 
G01 X-0.9370 Y0.3299 
G01 X-0.9530 Y0.3299 
G01 X-0.9677 Y0.3360 
G01 X-0.9790 Y0.3473 
G01 X-0.9851 Y0.3620 
G00 Z0.0200 
G00 X-0.2173 Y0.7876 
G01 Z-0.0050 F2.50  
G01 X-0.1276 Y0.8773 
G01 X-0.1276 Y0.8775 
G01 X-0.1327 Y0.8724 
G01 X-0.2175 Y0.7876 
G01 X-0.2173 Y0.7876 
G00 Z0.0200 
G00 X-0.6296 Y0.8184 
G01 Z-0.0050 F2.50  
G01 X-0.6315 Y0.8176 
G01 X-0.6227 Y0.8176 
G01 X-0.5927 Y0.7876 
G01 X-0.5925 Y0.7876 
G01 X-0.5976 Y0.7927 
G01 X-0.6264 Y0.8215 
G01 X-0.6296 Y0.8184 
G00 Z0.0200 
G00 X-1.3704 Y0.9316 
G01 Z-0.0050 F2.50  
G01 X-1.3572 Y0.9371 
G01 X-1.3428 Y0.9371 
G01 X-1.3296 Y0.9316 
G01 X-1.3194 Y0.9214 
G01 X-1.3176 Y0.9171 
G01 X-1.3176 Y0.9415 
G01 X-1.3329 Y0.9569 
G01 X-1.3825 Y0.9569 
G01 X-1.3931 Y0.9675 
G01 X-1.4306 Y1.0050 
G01 X-1.4306 Y1.0200 
G01 X-1.4306 Y1.0319 
G01 X-1.4567 Y1.0319 
G01 X-1.4536 Y1.0306 
G01 X-1.4434 Y1.0204 
G01 X-1.4379 Y1.0072 
G01 X-1.4379 Y0.9928 
G01 X-1.4379 Y0.9928 
G01 X-1.3736 Y0.9285 
G01 X-1.3704 Y0.9316 
G00 Z0.0200 
G00 X-1.7579 Y0.9676 
G01 Z-0.0050 F2.50  
G01 X-1.7573 Y0.9676 
G01 X-1.7568 Y0.9680 
G01 X-1.7579 Y0.9676 
G00 Z0.0200 
G00 X-1.7379 Y0.9944 
G01 Z-0.0050 F2.50  
G01 X-1.7379 Y0.9928 
G01 X-1.7420 Y0.9828 
G01 X-1.7376 Y0.9873 
G01 X-1.7305 Y0.9944 
G01 X-1.7379 Y0.9944 
G00 Z0.0200 
G00 X-1.8112 Y0.9639 
G01 Z-0.0050 F2.50  
G01 X-1.8424 Y0.9327 
G01 X-1.8527 Y0.9224 
G01 X-1.9527 Y0.9224 
G01 X-1.9571 Y0.9180 
G01 X-1.9569 Y0.9178 
G01 X-1.9569 Y0.8918 
G01 X-1.9160 Y0.8508 
G01 X-1.9221 Y0.8656 
G01 X-1.9221 Y0.8844 
G01 X-1.9149 Y0.9017 
G01 X-1.9017 Y0.9149 
G01 X-1.8844 Y0.9221 
G01 X-1.8656 Y0.9221 
G01 X-1.8565 Y0.9183 
G01 X-1.8110 Y0.9639 
G01 X-1.8112 Y0.9639 
G00 Z0.0200 
G00 X-1.2586 Y0.8135 
G01 Z-0.0050 F2.50  
G01 X-1.2027 Y0.7576 
G01 X-1.2025 Y0.7576 
G01 X-1.2076 Y0.7627 
G01 X-1.2582 Y0.8133 
G01 X-1.2586 Y0.8135 
G00 Z0.0200 
G00 X-1.0975 Y0.7524 
G01 Z-0.0050 F2.50  
G01 X-1.0924 Y0.7473 
G01 X-0.9736 Y0.6285 
G01 X-0.9704 Y0.6316 
G01 X-0.9572 Y0.6371 
G01 X-0.9428 Y0.6371 
G01 X-0.9414 Y0.6365 
G01 X-1.0573 Y0.7524 
G01 X-1.0975 Y0.7524 
G00 Z0.0200 
G00 X-0.8704 Y0.5184 
G01 Z-0.0050 F2.50  
G01 X-0.8806 Y0.5286 
G01 X-0.8824 Y0.5329 
G01 X-0.8824 Y0.5176 
G01 X-0.8685 Y0.5176 
G01 X-0.8704 Y0.5184 
G00 Z0.0200 
G00 X-0.7704 Y0.5184 
G01 Z-0.0050 F2.50  
G01 X-0.7806 Y0.5286 
G01 X-0.7861 Y0.5418 
G01 X-0.7861 Y0.5912 
G01 X-0.9573 Y0.7624 
G01 X-0.9676 Y0.7727 
G01 X-0.9676 Y0.7824 
G01 X-1.0375 Y0.7824 
G01 X-0.8927 Y0.6376 
G01 X-0.8824 Y0.6273 
G01 X-0.8824 Y0.6171 
G01 X-0.8806 Y0.6214 
G01 X-0.8704 Y0.6316 
G01 X-0.8572 Y0.6371 
G01 X-0.8428 Y0.6371 
G01 X-0.8296 Y0.6316 
G01 X-0.8194 Y0.6214 
G01 X-0.8139 Y0.6082 
G01 X-0.8139 Y0.5418 
G01 X-0.8194 Y0.5286 
G01 X-0.8296 Y0.5184 
G01 X-0.8315 Y0.5176 
G01 X-0.7685 Y0.5176 
G01 X-0.7704 Y0.5184 
G00 Z0.0200 
G00 X-1.1876 Y0.7927 
G01 Z-0.0050 F2.50  
G01 X-1.2176 Y0.8227 
G01 X-1.2176 Y0.8329 
G01 X-1.2194 Y0.8286 
G01 X-1.2215 Y0.8264 
G01 X-1.1827 Y0.7876 
G01 X-1.1825 Y0.7876 
G01 X-1.1876 Y0.7927 
G00 Z0.0200 
G00 X-1.5621 Y1.0072 
G01 Z-0.0050 F2.50  
G01 X-1.5566 Y1.0204 
G01 X-1.5464 Y1.0306 
G01 X-1.5433 Y1.0319 
G01 X-1.6175 Y1.0319 
G01 X-1.6425 Y1.0069 
G01 X-1.6444 Y1.0050 
G01 X-1.6518 Y0.9976 
G01 X-1.5621 Y0.9976 
G01 X-1.5621 Y1.0072 
G00 Z0.0200 
G00 X-1.5819 Y0.2530 
G01 Z-0.0050 F2.50  
G01 X-1.5880 Y0.2383 
G01 X-1.5993 Y0.2270 
G01 X-1.6140 Y0.2209 
G01 X-1.6300 Y0.2209 
G01 X-1.6447 Y0.2270 
G01 X-1.6560 Y0.2383 
G01 X-1.6618 Y0.2524 
G01 X-1.6873 Y0.2524 
G01 X-1.8382 Y0.2524 
G01 X-1.8440 Y0.2383 
G01 X-1.8553 Y0.2270 
G01 X-1.8700 Y0.2209 
G01 X-1.8860 Y0.2209 
G01 X-1.9007 Y0.2270 
G01 X-1.9120 Y0.2383 
G01 X-1.9181 Y0.2530 
G01 X-1.9181 Y0.2690 
G01 X-1.9139 Y0.2790 
G01 X-1.9595 Y0.3246 
G01 X-1.9601 Y0.3233 
G01 X-1.9733 Y0.3101 
G01 X-1.9906 Y0.3029 
G01 X-2.0094 Y0.3029 
G01 X-2.0267 Y0.3101 
G01 X-2.0399 Y0.3233 
G01 X-2.0424 Y0.3293 
G01 X-2.0424 Y0.3173 
G01 X-2.0222 Y0.2971 
G01 X-1.9588 Y0.2971 
G01 X-1.9529 Y0.2912 
G01 X-1.9529 Y0.2278 
G01 X-1.9427 Y0.2176 
G01 X-1.4931 Y0.2176 
G01 X-1.4931 Y0.2428 
G01 X-1.4678 Y0.2681 
G01 X-1.4676 Y0.2681 
G01 X-1.4676 Y0.3027 
G01 X-1.5055 Y0.3406 
G01 X-1.5029 Y0.3344 
G01 X-1.5029 Y0.3156 
G01 X-1.5101 Y0.2983 
G01 X-1.5233 Y0.2851 
G01 X-1.5406 Y0.2779 
G01 X-1.5594 Y0.2779 
G01 X-1.5649 Y0.2802 
G01 X-1.5819 Y0.2632 
G01 X-1.5819 Y0.2530 
G00 Z0.0200 
G00 X-1.7873 Y0.4976 
G01 Z-0.0050 F2.50  
G01 X-1.7508 Y0.5340 
G01 X-1.7656 Y0.5279 
G01 X-1.7844 Y0.5279 
G01 X-1.7934 Y0.5317 
G01 X-1.8275 Y0.4976 
G01 X-1.7873 Y0.4976 
G00 Z0.0200 
G00 X-1.6976 Y0.5375 
G01 Z-0.0050 F2.50  
G01 X-1.7027 Y0.5324 
G01 X-1.7727 Y0.4624 
G01 X-1.7873 Y0.4624 
G01 X-1.8227 Y0.4624 
G01 X-1.8380 Y0.4471 
G01 X-1.8379 Y0.4470 
G01 X-1.8379 Y0.4310 
G01 X-1.8440 Y0.4163 
G01 X-1.8553 Y0.4050 
G01 X-1.8700 Y0.3989 
G01 X-1.8860 Y0.3989 
G01 X-1.9007 Y0.4050 
G01 X-1.9120 Y0.4163 
G01 X-1.9181 Y0.4310 
G01 X-1.9181 Y0.4470 
G01 X-1.9120 Y0.4617 
G01 X-1.9007 Y0.4730 
G01 X-1.8860 Y0.4791 
G01 X-1.8700 Y0.4791 
G01 X-1.8600 Y0.4749 
G01 X-1.8476 Y0.4873 
G01 X-1.8425 Y0.4924 
G01 X-1.8473 Y0.4924 
G01 X-1.9327 Y0.4924 
G01 X-1.9567 Y0.4684 
G01 X-1.9529 Y0.4594 
G01 X-1.9529 Y0.4406 
G01 X-1.9601 Y0.4233 
G01 X-1.9733 Y0.4101 
G01 X-1.9906 Y0.4029 
G01 X-2.0094 Y0.4029 
G01 X-2.0267 Y0.4101 
G01 X-2.0399 Y0.4233 
G01 X-2.0424 Y0.4293 
G01 X-2.0424 Y0.3707 
G01 X-2.0399 Y0.3767 
G01 X-2.0267 Y0.3899 
G01 X-2.0094 Y0.3971 
G01 X-1.9906 Y0.3971 
G01 X-1.9733 Y0.3899 
G01 X-1.9601 Y0.3767 
G01 X-1.9563 Y0.3676 
G01 X-1.9527 Y0.3676 
G01 X-1.9424 Y0.3573 
G01 X-1.8861 Y0.3010 
G01 X-1.8860 Y0.3011 
G01 X-1.8700 Y0.3011 
G01 X-1.8553 Y0.2950 
G01 X-1.8479 Y0.2876 
G01 X-1.6976 Y0.2876 
G01 X-1.6976 Y0.5375 
G00 Z0.0200 
G00 X-2.0178 Y0.7431 
G01 Z-0.0050 F2.50  
G01 X-1.9821 Y0.7431 
G01 X-1.9569 Y0.7178 
G01 X-1.9569 Y0.6821 
G01 X-1.9815 Y0.6576 
G01 X-1.7276 Y0.6576 
G01 X-1.7276 Y0.7924 
G01 X-1.8927 Y0.7924 
G01 X-1.9073 Y0.7924 
G01 X-1.9770 Y0.8621 
G01 X-1.9821 Y0.8569 
G01 X-2.0178 Y0.8569 
G01 X-2.0431 Y0.8821 
G01 X-2.0431 Y0.9178 
G01 X-2.0178 Y0.9431 
G01 X-1.9821 Y0.9431 
G01 X-1.9820 Y0.9429 
G01 X-1.9673 Y0.9576 
G01 X-1.9527 Y0.9576 
G01 X-1.8673 Y0.9576 
G01 X-1.8510 Y0.9739 
G01 X-1.8566 Y0.9796 
G01 X-1.8621 Y0.9928 
G01 X-1.8621 Y1.0072 
G01 X-1.8566 Y1.0204 
G01 X-1.8464 Y1.0306 
G01 X-1.8421 Y1.0324 
G01 X-2.0927 Y1.0324 
G01 X-2.2001 Y0.9250 
G01 X-2.0180 Y0.7429 
G01 X-2.0178 Y0.7431 
G00 Z0.0200 
G00 X-1.7536 Y1.0306 
G01 Z-0.0050 F2.50  
G01 X-1.7535 Y1.0306 
G01 X-1.6700 Y1.0306 
G01 X-1.6681 Y1.0325 
G01 X-1.6681 Y1.2550 
G01 X-1.6806 Y1.2675 
G01 X-1.6806 Y1.2800 
G01 X-1.7325 Y1.3319 
G01 X-1.7567 Y1.3319 
G01 X-1.7536 Y1.3306 
G01 X-1.7434 Y1.3204 
G01 X-1.7379 Y1.3072 
G01 X-1.7379 Y1.2928 
G01 X-1.7434 Y1.2796 
G01 X-1.7490 Y1.2739 
G01 X-1.7127 Y1.2376 
G01 X-1.7024 Y1.2273 
G01 X-1.7024 Y1.0573 
G01 X-1.7024 Y1.0427 
G01 X-1.7127 Y1.0324 
G01 X-1.7579 Y1.0324 
G01 X-1.7536 Y1.0306 
G00 Z0.0200 
G00 X-0.9927 Y0.9724 
G01 Z-0.0050 F2.50  
G01 X-1.0073 Y0.9724 
G01 X-1.0327 Y0.9724 
G01 X-1.1139 Y0.8912 
G01 X-1.1139 Y0.8418 
G01 X-1.1194 Y0.8286 
G01 X-1.1296 Y0.8184 
G01 X-1.1315 Y0.8176 
G01 X-1.0685 Y0.8176 
G01 X-1.0704 Y0.8184 
G01 X-1.0806 Y0.8286 
G01 X-1.0861 Y0.8418 
G01 X-1.0861 Y0.9082 
G01 X-1.0806 Y0.9214 
G01 X-1.0704 Y0.9316 
G01 X-1.0572 Y0.9371 
G01 X-1.0428 Y0.9371 
G01 X-1.0296 Y0.9316 
G01 X-1.0194 Y0.9214 
G01 X-1.0139 Y0.9082 
G01 X-1.0139 Y0.8418 
G01 X-1.0194 Y0.8286 
G01 X-1.0296 Y0.8184 
G01 X-1.0315 Y0.8176 
G01 X-0.9685 Y0.8176 
G01 X-0.9704 Y0.8184 
G01 X-0.9806 Y0.8286 
G01 X-0.9861 Y0.8418 
G01 X-0.9861 Y0.9082 
G01 X-0.9806 Y0.9214 
G01 X-0.9704 Y0.9316 
G01 X-0.9572 Y0.9371 
G01 X-0.9428 Y0.9371 
G01 X-0.9296 Y0.9316 
G01 X-0.9194 Y0.9214 
G01 X-0.9176 Y0.9171 
G01 X-0.9176 Y1.1327 
G01 X-0.9176 Y1.1457 
G01 X-0.9273 Y1.1360 
G01 X-0.9324 Y1.1339 
G01 X-0.9324 Y1.0327 
G01 X-0.9427 Y1.0224 
G01 X-0.9927 Y0.9724 
G00 Z0.0200 
G00 X-1.3901 Y1.1620 
G01 Z-0.0050 F2.50  
G01 X-1.3901 Y1.2380 
G01 X-1.3840 Y1.2527 
G01 X-1.3727 Y1.2640 
G01 X-1.3580 Y1.2701 
G01 X-1.3420 Y1.2701 
G01 X-1.3273 Y1.2640 
G01 X-1.3160 Y1.2527 
G01 X-1.3099 Y1.2380 
G01 X-1.3099 Y1.1620 
G01 X-1.3160 Y1.1473 
G01 X-1.3273 Y1.1360 
G01 X-1.3324 Y1.1339 
G01 X-1.3324 Y1.0834 
G01 X-1.3181 Y1.0691 
G01 X-1.3181 Y1.0925 
G01 X-1.3181 Y1.1075 
G01 X-1.3075 Y1.1181 
G01 X-1.2825 Y1.1181 
G01 X-1.2681 Y1.1325 
G01 X-1.2681 Y1.1441 
G01 X-1.2727 Y1.1460 
G01 X-1.2840 Y1.1573 
G01 X-1.2901 Y1.1720 
G01 X-1.2901 Y1.2480 
G01 X-1.2840 Y1.2627 
G01 X-1.2727 Y1.2740 
G01 X-1.2580 Y1.2801 
G01 X-1.2420 Y1.2801 
G01 X-1.2273 Y1.2740 
G01 X-1.2160 Y1.2627 
G01 X-1.2099 Y1.2480 
G01 X-1.2099 Y1.1720 
G01 X-1.2160 Y1.1573 
G01 X-1.2273 Y1.1460 
G01 X-1.2319 Y1.1441 
G01 X-1.2319 Y1.1325 
G01 X-1.2319 Y1.1175 
G01 X-1.2569 Y1.0925 
G01 X-1.2633 Y1.0861 
G01 X-1.2350 Y1.0861 
G01 X-1.2139 Y1.0649 
G01 X-1.2139 Y1.0350 
G01 X-1.2324 Y1.0166 
G01 X-1.2324 Y0.9676 
G01 X-1.2227 Y0.9676 
G01 X-1.1927 Y0.9376 
G01 X-1.1824 Y0.9273 
G01 X-1.1824 Y0.9171 
G01 X-1.1806 Y0.9214 
G01 X-1.1704 Y0.9316 
G01 X-1.1572 Y0.9371 
G01 X-1.1428 Y0.9371 
G01 X-1.1296 Y0.9316 
G01 X-1.1264 Y0.9285 
G01 X-1.0576 Y0.9973 
G01 X-1.0473 Y1.0076 
G01 X-1.0457 Y1.0076 
G01 X-1.0517 Y1.0101 
G01 X-1.0649 Y1.0233 
G01 X-1.0721 Y1.0406 
G01 X-1.0721 Y1.0594 
G01 X-1.0649 Y1.0767 
G01 X-1.0517 Y1.0899 
G01 X-1.0438 Y1.0932 
G01 X-1.0681 Y1.1175 
G01 X-1.0681 Y1.1325 
G01 X-1.0681 Y1.1441 
G01 X-1.0727 Y1.1460 
G01 X-1.0840 Y1.1573 
G01 X-1.0901 Y1.1720 
G01 X-1.0901 Y1.2480 
G01 X-1.0840 Y1.2627 
G01 X-1.0727 Y1.2740 
G01 X-1.0580 Y1.2801 
G01 X-1.0420 Y1.2801 
G01 X-1.0273 Y1.2740 
G01 X-1.0160 Y1.2627 
G01 X-1.0099 Y1.2480 
G01 X-1.0099 Y1.1720 
G01 X-1.0160 Y1.1573 
G01 X-1.0273 Y1.1460 
G01 X-1.0319 Y1.1441 
G01 X-1.0319 Y1.1325 
G01 X-1.0175 Y1.1181 
G01 X-1.0069 Y1.1075 
G01 X-1.0069 Y1.0935 
G01 X-0.9983 Y1.0899 
G01 X-0.9851 Y1.0767 
G01 X-0.9779 Y1.0594 
G01 X-0.9779 Y1.0406 
G01 X-0.9805 Y1.0344 
G01 X-0.9676 Y1.0473 
G01 X-0.9676 Y1.1339 
G01 X-0.9727 Y1.1360 
G01 X-0.9840 Y1.1473 
G01 X-0.9901 Y1.1620 
G01 X-0.9901 Y1.2380 
G01 X-0.9840 Y1.2527 
G01 X-0.9727 Y1.2640 
G01 X-0.9580 Y1.2701 
G01 X-0.9420 Y1.2701 
G01 X-0.9273 Y1.2640 
G01 X-0.9160 Y1.2527 
G01 X-0.9099 Y1.2380 
G01 X-0.9099 Y1.1620 
G01 X-0.9149 Y1.1500 
G01 X-0.9076 Y1.1573 
G01 X-0.9076 Y1.2824 
G01 X-1.3927 Y1.2824 
G01 X-1.4490 Y1.2261 
G01 X-1.4434 Y1.2204 
G01 X-1.4379 Y1.2072 
G01 X-1.4379 Y1.1928 
G01 X-1.4434 Y1.1796 
G01 X-1.4536 Y1.1694 
G01 X-1.4668 Y1.1639 
G01 X-1.4824 Y1.1639 
G01 X-1.4824 Y1.1361 
G01 X-1.4668 Y1.1361 
G01 X-1.4536 Y1.1306 
G01 X-1.4434 Y1.1204 
G01 X-1.4379 Y1.1072 
G01 X-1.4379 Y1.0928 
G01 X-1.4434 Y1.0796 
G01 X-1.4536 Y1.0694 
G01 X-1.4567 Y1.0681 
G01 X-1.4200 Y1.0681 
G01 X-1.4050 Y1.0681 
G01 X-1.3944 Y1.0575 
G01 X-1.3944 Y1.0200 
G01 X-1.3675 Y0.9931 
G01 X-1.3329 Y0.9931 
G01 X-1.3181 Y1.0079 
G01 X-1.3181 Y1.0309 
G01 X-1.3350 Y1.0139 
G01 X-1.3649 Y1.0139 
G01 X-1.3861 Y1.0350 
G01 X-1.3861 Y1.0649 
G01 X-1.3676 Y1.0834 
G01 X-1.3676 Y1.1339 
G01 X-1.3727 Y1.1360 
G01 X-1.3840 Y1.1473 
G01 X-1.3901 Y1.1620 
G00 Z0.0200 
G00 X-1.1721 Y1.0406 
G01 Z-0.0050 F2.50  
G01 X-1.1721 Y1.0594 
G01 X-1.1649 Y1.0767 
G01 X-1.1517 Y1.0899 
G01 X-1.1438 Y1.0932 
G01 X-1.1681 Y1.1175 
G01 X-1.1681 Y1.1325 
G01 X-1.1681 Y1.1341 
G01 X-1.1727 Y1.1360 
G01 X-1.1840 Y1.1473 
G01 X-1.1901 Y1.1620 
G01 X-1.1901 Y1.2380 
G01 X-1.1840 Y1.2527 
G01 X-1.1727 Y1.2640 
G01 X-1.1580 Y1.2701 
G01 X-1.1420 Y1.2701 
G01 X-1.1273 Y1.2640 
G01 X-1.1160 Y1.2527 
G01 X-1.1099 Y1.2380 
G01 X-1.1099 Y1.1620 
G01 X-1.1160 Y1.1473 
G01 X-1.1273 Y1.1360 
G01 X-1.1319 Y1.1341 
G01 X-1.1319 Y1.1325 
G01 X-1.1175 Y1.1181 
G01 X-1.1069 Y1.1075 
G01 X-1.1069 Y1.0935 
G01 X-1.0983 Y1.0899 
G01 X-1.0851 Y1.0767 
G01 X-1.0779 Y1.0594 
G01 X-1.0779 Y1.0406 
G01 X-1.0851 Y1.0233 
G01 X-1.0983 Y1.0101 
G01 X-1.1156 Y1.0029 
G01 X-1.1344 Y1.0029 
G01 X-1.1517 Y1.0101 
G01 X-1.1649 Y1.0233 
G01 X-1.1721 Y1.0406 
G00 Z0.0200 
G00 X-1.2691 Y1.0819 
G01 Z-0.0050 F2.50  
G01 X-1.2819 Y1.0819 
G01 X-1.2819 Y1.0691 
G01 X-1.2691 Y1.0819 
G00 Z0.0200 
G00 X-0.2861 Y0.5418 
G01 Z-0.0050 F2.50  
G01 X-0.2861 Y0.6082 
G01 X-0.2806 Y0.6214 
G01 X-0.2704 Y0.6316 
G01 X-0.2572 Y0.6371 
G01 X-0.2428 Y0.6371 
G01 X-0.2296 Y0.6316 
G01 X-0.2194 Y0.6214 
G01 X-0.2139 Y0.6082 
G01 X-0.2139 Y0.5418 
G01 X-0.2194 Y0.5286 
G01 X-0.2296 Y0.5184 
G01 X-0.2428 Y0.5129 
G01 X-0.2572 Y0.5129 
G01 X-0.2704 Y0.5184 
G01 X-0.2806 Y0.5286 
G01 X-0.2861 Y0.5418 
G00 Z0.0200 
G00 X-0.3861 Y0.5418 
G01 Z-0.0050 F2.50  
G01 X-0.3861 Y0.6082 
G01 X-0.3806 Y0.6214 
G01 X-0.3704 Y0.6316 
G01 X-0.3572 Y0.6371 
G01 X-0.3428 Y0.6371 
G01 X-0.3296 Y0.6316 
G01 X-0.3194 Y0.6214 
G01 X-0.3139 Y0.6082 
G01 X-0.3139 Y0.5418 
G01 X-0.3194 Y0.5286 
G01 X-0.3296 Y0.5184 
G01 X-0.3428 Y0.5129 
G01 X-0.3572 Y0.5129 
G01 X-0.3704 Y0.5184 
G01 X-0.3806 Y0.5286 
G01 X-0.3861 Y0.5418 
G00 Z0.0200 
G00 X-1.0861 Y0.5418 
G01 Z-0.0050 F2.50  
G01 X-1.0861 Y0.6082 
G01 X-1.0806 Y0.6214 
G01 X-1.0704 Y0.6316 
G01 X-1.0572 Y0.6371 
G01 X-1.0428 Y0.6371 
G01 X-1.0296 Y0.6316 
G01 X-1.0194 Y0.6214 
G01 X-1.0139 Y0.6082 
G01 X-1.0139 Y0.5418 
G01 X-1.0194 Y0.5286 
G01 X-1.0296 Y0.5184 
G01 X-1.0428 Y0.5129 
G01 X-1.0572 Y0.5129 
G01 X-1.0704 Y0.5184 
G01 X-1.0806 Y0.5286 
G01 X-1.0861 Y0.5418 
G00 Z0.0200 
G00 X-1.1861 Y0.5418 
G01 Z-0.0050 F2.50  
G01 X-1.1861 Y0.6082 
G01 X-1.1806 Y0.6214 
G01 X-1.1704 Y0.6316 
G01 X-1.1572 Y0.6371 
G01 X-1.1428 Y0.6371 
G01 X-1.1296 Y0.6316 
G01 X-1.1194 Y0.6214 
G01 X-1.1139 Y0.6082 
G01 X-1.1139 Y0.5418 
G01 X-1.1194 Y0.5286 
G01 X-1.1296 Y0.5184 
G01 X-1.1428 Y0.5129 
G01 X-1.1572 Y0.5129 
G01 X-1.1704 Y0.5184 
G01 X-1.1806 Y0.5286 
G01 X-1.1861 Y0.5418 
G00 Z0.0200 
G00 X-1.2806 Y0.6214 
G01 Z-0.0050 F2.50  
G01 X-1.2704 Y0.6316 
G01 X-1.2572 Y0.6371 
G01 X-1.2428 Y0.6371 
G01 X-1.2296 Y0.6316 
G01 X-1.2194 Y0.6214 
G01 X-1.2139 Y0.6082 
G01 X-1.2139 Y0.5418 
G01 X-1.2194 Y0.5286 
G01 X-1.2296 Y0.5184 
G01 X-1.2315 Y0.5176 
G01 X-1.1827 Y0.5176 
G01 X-1.1724 Y0.5073 
G01 X-1.1724 Y0.4927 
G01 X-1.1724 Y0.2080 
G01 X-1.1719 Y0.2075 
G01 X-1.1719 Y0.1650 
G01 X-1.1825 Y0.1544 
G01 X-1.2300 Y0.1069 
G01 X-1.2450 Y0.1069 
G01 X-2.0575 Y0.1069 
G01 X-2.0681 Y0.1175 
G01 X-2.1431 Y0.1925 
G01 X-2.1431 Y0.2075 
G01 X-2.1431 Y0.7300 
G01 X-2.1556 Y0.7425 
G01 X-2.1556 Y0.7550 
G01 X-2.1575 Y0.7569 
G01 X-2.4575 Y0.7569 
G01 X-2.4681 Y0.7675 
G01 X-2.4681 Y0.7675 
G01 X-2.5200 Y0.8194 
G01 X-2.5200 Y0.8194 
G01 X-2.5306 Y0.8300 
G01 X-2.5306 Y1.0200 
G01 X-2.5200 Y1.0306 
G01 X-2.5200 Y1.0306 
G01 X-2.4181 Y1.1325 
G01 X-2.4075 Y1.1431 
G01 X-2.3075 Y1.1431 
G01 X-2.2181 Y1.2325 
G01 X-2.2181 Y1.2325 
G01 X-2.2075 Y1.2431 
G01 X-1.9681 Y1.2431 
G01 X-1.9681 Y1.4075 
G01 X-1.9575 Y1.4181 
G01 X-1.9425 Y1.4181 
G01 X-1.5925 Y1.4181 
G01 X-1.5819 Y1.4075 
G01 X-1.5819 Y1.4068 
G01 X-1.5112 Y1.3361 
G01 X-1.4668 Y1.3361 
G01 X-1.4536 Y1.3306 
G01 X-1.4434 Y1.3204 
G01 X-1.4379 Y1.3072 
G01 X-1.4379 Y1.2928 
G01 X-1.4420 Y1.2828 
G01 X-1.4073 Y1.3176 
G01 X-1.3927 Y1.3176 
G01 X-0.8827 Y1.3176 
G01 X-0.8724 Y1.3073 
G01 X-0.8724 Y1.2927 
G01 X-0.8724 Y1.1573 
G01 X-0.8724 Y1.1427 
G01 X-0.8824 Y1.1327 
G01 X-0.8824 Y0.9171 
G01 X-0.8806 Y0.9214 
G01 X-0.8704 Y0.9316 
G01 X-0.8572 Y0.9371 
G01 X-0.8428 Y0.9371 
G01 X-0.8296 Y0.9316 
G01 X-0.8264 Y0.9285 
G01 X-0.7976 Y0.9573 
G01 X-0.7873 Y0.9676 
G01 X-0.4285 Y0.9676 
G01 X-0.4431 Y0.9821 
G01 X-0.4431 Y1.0024 
G01 X-0.4927 Y1.0024 
G01 X-0.5073 Y1.0024 
G01 X-0.5950 Y1.0901 
G01 X-0.5978 Y1.0889 
G01 X-0.6122 Y1.0889 
G01 X-0.6254 Y1.0944 
G01 X-0.6356 Y1.1046 
G01 X-0.6411 Y1.1178 
G01 X-0.6411 Y1.1322 
G01 X-0.6356 Y1.1454 
G01 X-0.6254 Y1.1556 
G01 X-0.6122 Y1.1611 
G01 X-0.5978 Y1.1611 
G01 X-0.5846 Y1.1556 
G01 X-0.5744 Y1.1454 
G01 X-0.5689 Y1.1322 
G01 X-0.5689 Y1.1178 
G01 X-0.5701 Y1.1150 
G01 X-0.4927 Y1.0376 
G01 X-0.4233 Y1.0376 
G01 X-0.4178 Y1.0431 
G01 X-0.3918 Y1.0431 
G01 X-0.2325 Y1.2024 
G01 X-0.3027 Y1.2024 
G01 X-0.3374 Y1.1677 
G01 X-0.3477 Y1.1574 
G01 X-0.3596 Y1.1455 
G01 X-0.3569 Y1.1428 
G01 X-0.3569 Y1.1071 
G01 X-0.3821 Y1.0819 
G01 X-0.4178 Y1.0819 
G01 X-0.4431 Y1.1071 
G01 X-0.4431 Y1.1428 
G01 X-0.4235 Y1.1624 
G01 X-0.7327 Y1.1624 
G01 X-0.7601 Y1.1350 
G01 X-0.7589 Y1.1322 
G01 X-0.7589 Y1.1178 
G01 X-0.7644 Y1.1046 
G01 X-0.7746 Y1.0944 
G01 X-0.7878 Y1.0889 
G01 X-0.8022 Y1.0889 
G01 X-0.8154 Y1.0944 
G01 X-0.8256 Y1.1046 
G01 X-0.8311 Y1.1178 
G01 X-0.8311 Y1.1322 
G01 X-0.8256 Y1.1454 
G01 X-0.8154 Y1.1556 
G01 X-0.8022 Y1.1611 
G01 X-0.7878 Y1.1611 
G01 X-0.7850 Y1.1599 
G01 X-0.7473 Y1.1976 
G01 X-0.7327 Y1.1976 
G01 X-0.3673 Y1.1976 
G01 X-0.3573 Y1.1976 
G01 X-0.3173 Y1.2376 
G01 X-0.3027 Y1.2376 
G01 X-0.1027 Y1.2376 
G01 X-0.0924 Y1.2273 
G01 X-0.0924 Y1.2127 
G01 X-0.0924 Y0.8627 
G01 X-0.1027 Y0.8524 
G01 X-0.2027 Y0.7524 
G01 X-0.2173 Y0.7524 
G01 X-0.6073 Y0.7524 
G01 X-0.6176 Y0.7627 
G01 X-0.6373 Y0.7824 
G01 X-0.6375 Y0.7824 
G01 X-0.4927 Y0.6376 
G01 X-0.4824 Y0.6273 
G01 X-0.4824 Y0.6171 
G01 X-0.4806 Y0.6214 
G01 X-0.4704 Y0.6316 
G01 X-0.4572 Y0.6371 
G01 X-0.4428 Y0.6371 
G01 X-0.4296 Y0.6316 
G01 X-0.4194 Y0.6214 
G01 X-0.4139 Y0.6082 
G01 X-0.4139 Y0.5418 
G01 X-0.4194 Y0.5286 
G01 X-0.4296 Y0.5184 
G01 X-0.4428 Y0.5129 
G01 X-0.4572 Y0.5129 
G01 X-0.4704 Y0.5184 
G01 X-0.4806 Y0.5286 
G01 X-0.4824 Y0.5329 
G01 X-0.4824 Y0.1973 
G01 X-0.4824 Y0.1827 
G01 X-0.4927 Y0.1724 
G01 X-1.0027 Y0.1724 
G01 X-1.0173 Y0.1724 
G01 X-1.0530 Y0.2081 
G01 X-1.0656 Y0.2029 
G01 X-1.0844 Y0.2029 
G01 X-1.1017 Y0.2101 
G01 X-1.1149 Y0.2233 
G01 X-1.1221 Y0.2406 
G01 X-1.1221 Y0.2594 
G01 X-1.1149 Y0.2767 
G01 X-1.1017 Y0.2899 
G01 X-1.0876 Y0.2958 
G01 X-1.0876 Y0.3459 
G01 X-1.0890 Y0.3473 
G01 X-1.0951 Y0.3620 
G01 X-1.0951 Y0.4380 
G01 X-1.0890 Y0.4527 
G01 X-1.0777 Y0.4640 
G01 X-1.0676 Y0.4682 
G01 X-1.0676 Y0.4773 
G01 X-1.0573 Y0.4876 
G01 X-0.9861 Y0.5588 
G01 X-0.9861 Y0.5912 
G01 X-1.1173 Y0.7224 
G01 X-1.2027 Y0.7224 
G01 X-1.2173 Y0.7224 
G01 X-1.3176 Y0.8227 
G01 X-1.3176 Y0.8329 
G01 X-1.3194 Y0.8286 
G01 X-1.3296 Y0.8184 
G01 X-1.3428 Y0.8129 
G01 X-1.3572 Y0.8129 
G01 X-1.3704 Y0.8184 
G01 X-1.3806 Y0.8286 
G01 X-1.3861 Y0.8418 
G01 X-1.3861 Y0.8912 
G01 X-1.4573 Y0.9624 
G01 X-1.4614 Y0.9610 
G01 X-1.4642 Y0.9624 
G01 X-1.5075 Y0.9624 
G01 X-1.5024 Y0.9573 
G01 X-1.4736 Y0.9285 
G01 X-1.4704 Y0.9316 
G01 X-1.4572 Y0.9371 
G01 X-1.4428 Y0.9371 
G01 X-1.4296 Y0.9316 
G01 X-1.4194 Y0.9214 
G01 X-1.4139 Y0.9082 
G01 X-1.4139 Y0.8588 
G01 X-1.3527 Y0.7976 
G01 X-1.2927 Y0.7976 
G01 X-1.2824 Y0.7873 
G01 X-1.2824 Y0.7727 
G01 X-1.2824 Y0.6171 
G01 X-1.2806 Y0.6214 
G00 Z0.0200 
G00 X-2.0295 Y0.4942 
G01 Z-0.0050 F2.50  
G01 X-2.0154 Y0.5000 
G01 X-2.0295 Y0.5058 
G01 X-2.0374 Y0.5137 
G01 X-2.0374 Y0.4863 
G01 X-2.0295 Y0.4942 
G00 Z0.0200 
G00 X-2.0295 Y0.3942 
G01 Z-0.0050 F2.50  
G01 X-2.0154 Y0.4000 
G01 X-2.0295 Y0.4058 
G01 X-2.0374 Y0.4137 
G01 X-2.0374 Y0.3863 
G01 X-2.0295 Y0.3942 
G00 Z0.0200 
G00 X-1.8308 Y0.6045 
G01 Z-0.0050 F2.50  
G01 X-1.8250 Y0.5904 
G01 X-1.8192 Y0.6045 
G01 X-1.8063 Y0.6174 
G01 X-1.8437 Y0.6174 
G01 X-1.8308 Y0.6045 
G00 Z0.0200 
G00 X-1.7326 Y0.6063 
G01 Z-0.0050 F2.50  
G01 X-1.7326 Y0.6174 
G01 X-1.7437 Y0.6174 
G01 X-1.7326 Y0.6063 
G00 Z0.0200 
G00 X-1.4981 Y0.2449 
G01 Z-0.0050 F2.50  
G01 X-1.4726 Y0.2704 
G01 X-1.4726 Y0.3006 
G01 X-1.4979 Y0.3260 
G01 X-1.4979 Y0.3146 
G01 X-1.5058 Y0.2955 
G01 X-1.5205 Y0.2808 
G01 X-1.5396 Y0.2729 
G01 X-1.5604 Y0.2729 
G01 X-1.5637 Y0.2743 
G01 X-1.5769 Y0.2611 
G01 X-1.5769 Y0.2520 
G01 X-1.5838 Y0.2355 
G01 X-1.5965 Y0.2228 
G01 X-1.5969 Y0.2226 
G01 X-1.4981 Y0.2226 
G01 X-1.4981 Y0.2449 
G00 Z0.0200 
G00 X-1.6475 Y0.2992 
G01 Z-0.0050 F2.50  
G01 X-1.6310 Y0.3061 
G01 X-1.6130 Y0.3061 
G01 X-1.6009 Y0.3011 
G01 X-1.5978 Y0.3042 
G01 X-1.6021 Y0.3146 
G01 X-1.6021 Y0.3354 
G01 X-1.5942 Y0.3545 
G01 X-1.5813 Y0.3674 
G01 X-1.5894 Y0.3674 
G01 X-1.6026 Y0.3806 
G01 X-1.6159 Y0.3939 
G01 X-1.6310 Y0.3939 
G01 X-1.6475 Y0.4008 
G01 X-1.6574 Y0.4106 
G01 X-1.6574 Y0.2926 
G01 X-1.6542 Y0.2926 
G01 X-1.6475 Y0.2992 
G00 Z0.0200 
G00 X-1.8398 Y0.2355 
G01 Z-0.0050 F2.50  
G01 X-1.8525 Y0.2228 
G01 X-1.8529 Y0.2226 
G01 X-1.6471 Y0.2226 
G01 X-1.6475 Y0.2228 
G01 X-1.6602 Y0.2355 
G01 X-1.6652 Y0.2474 
G01 X-1.6894 Y0.2474 
G01 X-1.8348 Y0.2474 
G01 X-1.8398 Y0.2355 
G00 Z0.0200 
G00 X-1.9846 Y0.5000 
G01 Z-0.0050 F2.50  
G01 X-1.9827 Y0.4992 
G01 X-1.9801 Y0.5019 
G01 X-1.9846 Y0.5000 
G00 Z0.0200 
G00 X-1.7706 Y0.4574 
G01 Z-0.0050 F2.50  
G01 X-1.7894 Y0.4574 
G01 X-1.8206 Y0.4574 
G01 X-1.8329 Y0.4451 
G01 X-1.8329 Y0.4300 
G01 X-1.8398 Y0.4135 
G01 X-1.8525 Y0.4008 
G01 X-1.8690 Y0.3939 
G01 X-1.8870 Y0.3939 
G01 X-1.9035 Y0.4008 
G01 X-1.9162 Y0.4135 
G01 X-1.9231 Y0.4300 
G01 X-1.9231 Y0.4480 
G01 X-1.9162 Y0.4645 
G01 X-1.9035 Y0.4772 
G01 X-1.8870 Y0.4841 
G01 X-1.8690 Y0.4841 
G01 X-1.8611 Y0.4808 
G01 X-1.8545 Y0.4874 
G01 X-1.9306 Y0.4874 
G01 X-1.9508 Y0.4673 
G01 X-1.9479 Y0.4604 
G01 X-1.9479 Y0.4396 
G01 X-1.9558 Y0.4205 
G01 X-1.9705 Y0.4058 
G01 X-1.9846 Y0.4000 
G01 X-1.9705 Y0.3942 
G01 X-1.9558 Y0.3795 
G01 X-1.9530 Y0.3726 
G01 X-1.9506 Y0.3726 
G01 X-1.9374 Y0.3594 
G01 X-1.8841 Y0.3061 
G01 X-1.8690 Y0.3061 
G01 X-1.8525 Y0.2992 
G01 X-1.8458 Y0.2926 
G01 X-1.7026 Y0.2926 
G01 X-1.7026 Y0.5255 
G01 X-1.7706 Y0.4574 
G00 Z0.0200 
G00 X-1.8250 Y0.5596 
G01 Z-0.0050 F2.50  
G01 X-1.8269 Y0.5551 
G01 X-1.8242 Y0.5577 
G01 X-1.8250 Y0.5596 
G00 Z0.0200 
G00 X-1.7894 Y0.5026 
G01 Z-0.0050 F2.50  
G01 X-1.7690 Y0.5229 
G01 X-1.7854 Y0.5229 
G01 X-1.7923 Y0.5258 
G01 X-1.8155 Y0.5026 
G01 X-1.7894 Y0.5026 
G00 Z0.0200 
G00 X-1.9192 Y0.6045 
G01 Z-0.0050 F2.50  
G01 X-1.9063 Y0.6174 
G01 X-2.0374 Y0.6174 
G01 X-2.0374 Y0.5863 
G01 X-2.0295 Y0.5942 
G01 X-2.0104 Y0.6021 
G01 X-1.9896 Y0.6021 
G01 X-1.9705 Y0.5942 
G01 X-1.9689 Y0.5926 
G01 X-1.9241 Y0.5926 
G01 X-1.9192 Y0.6045 
G00 Z0.0200 
G00 X-1.9192 Y0.5455 
G01 Z-0.0050 F2.50  
G01 X-1.9200 Y0.5474 
G01 X-1.9479 Y0.5474 
G01 X-1.9479 Y0.5396 
G01 X-1.9519 Y0.5301 
G01 X-1.9494 Y0.5326 
G01 X-1.9063 Y0.5326 
G01 X-1.9192 Y0.5455 
G00 Z0.0200 
G00 X-1.4911 Y0.5408 
G01 Z-0.0050 F2.50  
G01 X-1.4911 Y0.6092 
G01 X-1.4848 Y0.6243 
G01 X-1.4733 Y0.6358 
G01 X-1.4582 Y0.6421 
G01 X-1.4418 Y0.6421 
G01 X-1.4267 Y0.6358 
G01 X-1.4152 Y0.6243 
G01 X-1.4089 Y0.6092 
G01 X-1.4089 Y0.5408 
G01 X-1.4152 Y0.5257 
G01 X-1.4267 Y0.5142 
G01 X-1.4269 Y0.5141 
G01 X-1.4269 Y0.5096 
G01 X-1.4194 Y0.5021 
G01 X-1.4146 Y0.5021 
G01 X-1.3955 Y0.4942 
G01 X-1.3808 Y0.4795 
G01 X-1.3729 Y0.4604 
G01 X-1.3729 Y0.4396 
G01 X-1.3808 Y0.4205 
G01 X-1.3955 Y0.4058 
G01 X-1.4146 Y0.3979 
G01 X-1.4354 Y0.3979 
G01 X-1.4545 Y0.4058 
G01 X-1.4692 Y0.4205 
G01 X-1.4750 Y0.4346 
G01 X-1.4808 Y0.4205 
G01 X-1.4955 Y0.4058 
G01 X-1.5085 Y0.4004 
G01 X-1.4406 Y0.3326 
G01 X-1.4274 Y0.3194 
G01 X-1.4274 Y0.2704 
G01 X-1.4019 Y0.2449 
G01 X-1.4019 Y0.2051 
G01 X-1.4244 Y0.1826 
G01 X-1.3194 Y0.1826 
G01 X-1.2975 Y0.2045 
G01 X-1.2981 Y0.2051 
G01 X-1.2981 Y0.2449 
G01 X-1.2726 Y0.2704 
G01 X-1.2726 Y0.2780 
G01 X-1.2795 Y0.2808 
G01 X-1.2942 Y0.2955 
G01 X-1.3021 Y0.3146 
G01 X-1.3021 Y0.3354 
G01 X-1.2942 Y0.3545 
G01 X-1.2795 Y0.3692 
G01 X-1.2604 Y0.3771 
G01 X-1.2396 Y0.3771 
G01 X-1.2205 Y0.3692 
G01 X-1.2126 Y0.3613 
G01 X-1.2126 Y0.4774 
G01 X-1.2606 Y0.4774 
G01 X-1.2794 Y0.4774 
G01 X-1.3094 Y0.5074 
G01 X-1.3214 Y0.5195 
G01 X-1.3267 Y0.5142 
G01 X-1.3418 Y0.5079 
G01 X-1.3582 Y0.5079 
G01 X-1.3733 Y0.5142 
G01 X-1.3848 Y0.5257 
G01 X-1.3911 Y0.5408 
G01 X-1.3911 Y0.6092 
G01 X-1.3848 Y0.6243 
G01 X-1.3733 Y0.6358 
G01 X-1.3582 Y0.6421 
G01 X-1.3418 Y0.6421 
G01 X-1.3267 Y0.6358 
G01 X-1.3226 Y0.6317 
G01 X-1.3226 Y0.7574 
G01 X-1.3506 Y0.7574 
G01 X-1.3694 Y0.7574 
G01 X-1.4264 Y0.8145 
G01 X-1.4267 Y0.8142 
G01 X-1.4418 Y0.8079 
G01 X-1.4582 Y0.8079 
G01 X-1.4733 Y0.8142 
G01 X-1.4848 Y0.8257 
G01 X-1.4911 Y0.8408 
G01 X-1.4911 Y0.8891 
G01 X-1.5089 Y0.9070 
G01 X-1.5089 Y0.8408 
G01 X-1.5152 Y0.8257 
G01 X-1.5267 Y0.8142 
G01 X-1.5274 Y0.8139 
G01 X-1.5274 Y0.6406 
G01 X-1.5306 Y0.6374 
G01 X-1.5267 Y0.6358 
G01 X-1.5152 Y0.6243 
G01 X-1.5089 Y0.6092 
G01 X-1.5089 Y0.5408 
G01 X-1.5152 Y0.5257 
G01 X-1.5267 Y0.5142 
G01 X-1.5269 Y0.5141 
G01 X-1.5269 Y0.5096 
G01 X-1.5194 Y0.5021 
G01 X-1.5146 Y0.5021 
G01 X-1.4955 Y0.4942 
G01 X-1.4808 Y0.4795 
G01 X-1.4750 Y0.4654 
G01 X-1.4692 Y0.4795 
G01 X-1.4657 Y0.4830 
G01 X-1.4731 Y0.4904 
G01 X-1.4731 Y0.5141 
G01 X-1.4733 Y0.5142 
G01 X-1.4848 Y0.5257 
G01 X-1.4911 Y0.5408 
G00 Z0.0200 
G00 X-1.5733 Y0.5142 
G01 Z-0.0050 F2.50  
G01 X-1.5848 Y0.5257 
G01 X-1.5911 Y0.5408 
G01 X-1.5911 Y0.5970 
G01 X-1.6574 Y0.5306 
G01 X-1.6574 Y0.4674 
G01 X-1.6475 Y0.4772 
G01 X-1.6310 Y0.4841 
G01 X-1.6130 Y0.4841 
G01 X-1.5965 Y0.4772 
G01 X-1.5838 Y0.4645 
G01 X-1.5771 Y0.4484 
G01 X-1.5771 Y0.4604 
G01 X-1.5692 Y0.4795 
G01 X-1.5657 Y0.4830 
G01 X-1.5731 Y0.4904 
G01 X-1.5731 Y0.5141 
G01 X-1.5733 Y0.5142 
G00 Z0.0200 
G00 X-1.2301 Y0.1769 
G01 Z-0.0050 F2.50  
G01 X-1.2611 Y0.1769 
G01 X-1.2874 Y0.1506 
G01 X-1.2900 Y0.1481 
G01 X-1.2471 Y0.1481 
G01 X-1.2131 Y0.1821 
G01 X-1.2131 Y0.1939 
G01 X-1.2301 Y0.1769 
G00 Z0.0200 
G00 X-2.3904 Y1.1019 
G01 Z-0.0050 F2.50  
G01 X-2.4894 Y1.0029 
G01 X-2.4894 Y0.8471 
G01 X-2.4404 Y0.7981 
G01 X-2.4108 Y0.7981 
G01 X-2.4295 Y0.8058 
G01 X-2.4442 Y0.8205 
G01 X-2.4521 Y0.8396 
G01 X-2.4521 Y0.8604 
G01 X-2.4494 Y0.8668 
G01 X-2.4721 Y0.8894 
G01 X-2.4856 Y0.9029 
G01 X-2.4856 Y0.9971 
G01 X-2.4721 Y1.0106 
G01 X-2.4721 Y1.0106 
G01 X-2.3981 Y1.0846 
G01 X-2.3981 Y1.0846 
G01 X-2.3846 Y1.0981 
G01 X-2.2846 Y1.0981 
G01 X-2.1981 Y1.1846 
G01 X-2.1981 Y1.1846 
G01 X-2.1846 Y1.1981 
G01 X-1.9106 Y1.1981 
G01 X-1.9106 Y1.3404 
G01 X-1.9106 Y1.3596 
G01 X-1.8971 Y1.3731 
G01 X-1.7346 Y1.3731 
G01 X-1.7154 Y1.3731 
G01 X-1.6529 Y1.3106 
G01 X-1.6394 Y1.2971 
G01 X-1.6394 Y1.2846 
G01 X-1.6269 Y1.2721 
G01 X-1.6269 Y1.0731 
G01 X-1.5572 Y1.0731 
G01 X-1.5608 Y1.0767 
G01 X-1.5671 Y1.0918 
G01 X-1.5671 Y1.1082 
G01 X-1.5608 Y1.1233 
G01 X-1.5493 Y1.1348 
G01 X-1.5342 Y1.1411 
G01 X-1.5226 Y1.1411 
G01 X-1.5226 Y1.1589 
G01 X-1.5342 Y1.1589 
G01 X-1.5493 Y1.1652 
G01 X-1.5608 Y1.1767 
G01 X-1.5671 Y1.1918 
G01 X-1.5671 Y1.2082 
G01 X-1.5608 Y1.2233 
G01 X-1.5493 Y1.2348 
G01 X-1.5342 Y1.2411 
G01 X-1.4909 Y1.2411 
G01 X-1.4730 Y1.2589 
G01 X-1.5342 Y1.2589 
G01 X-1.5493 Y1.2652 
G01 X-1.5608 Y1.2767 
G01 X-1.5671 Y1.2918 
G01 X-1.5671 Y1.3082 
G01 X-1.5608 Y1.3233 
G01 X-1.5580 Y1.3261 
G01 X-1.6089 Y1.3769 
G01 X-1.9269 Y1.3769 
G01 X-1.9269 Y1.2346 
G01 X-1.9269 Y1.2154 
G01 X-1.9404 Y1.2019 
G01 X-2.1904 Y1.2019 
G01 X-2.2904 Y1.1019 
G01 X-2.3096 Y1.1019 
G01 X-2.3904 Y1.1019 
G00 Z0.0200 
G00 X-2.0994 Y0.2074 
G01 Z-0.0050 F2.50  
G01 X-2.1019 Y0.2100 
G01 X-2.1019 Y0.2096 
G01 X-2.0404 Y0.1481 
G01 X-2.0400 Y0.1481 
G01 X-2.0994 Y0.2074 
G00 Z0.0200 
G00 X-2.0994 Y0.7226 
G01 Z-0.0050 F2.50  
G01 X-2.0545 Y0.7226 
G01 X-2.2250 Y0.8930 
G01 X-2.2508 Y0.8673 
G01 X-2.2479 Y0.8604 
G01 X-2.2479 Y0.8396 
G01 X-2.2558 Y0.8205 
G01 X-2.2705 Y0.8058 
G01 X-2.2892 Y0.7981 
G01 X-2.1596 Y0.7981 
G01 X-2.1404 Y0.7981 
G01 X-2.1279 Y0.7856 
G01 X-2.1144 Y0.7721 
G01 X-2.1144 Y0.7596 
G01 X-2.1019 Y0.7471 
G01 X-2.1019 Y0.7200 
G01 X-2.0994 Y0.7226 
G00 Z0.0200 
G00 X-2.3295 Y0.8058 
G01 Z-0.0050 F2.50  
G01 X-2.3442 Y0.8205 
G01 X-2.3500 Y0.8346 
G01 X-2.3558 Y0.8205 
G01 X-2.3705 Y0.8058 
G01 X-2.3892 Y0.7981 
G01 X-2.3108 Y0.7981 
G01 X-2.3295 Y0.8058 
G00 Z0.0200 
G00 X-1.3911 Y0.8891 
G01 Z-0.0050 F2.50  
G01 X-1.4089 Y0.9070 
G01 X-1.4089 Y0.8609 
G01 X-1.3911 Y0.8430 
G01 X-1.3911 Y0.8891 
G00 Z0.0200 
G00 X-1.3045 Y0.8026 
G01 Z-0.0050 F2.50  
G01 X-1.3214 Y0.8195 
G01 X-1.3267 Y0.8142 
G01 X-1.3418 Y0.8079 
G01 X-1.3560 Y0.8079 
G01 X-1.3506 Y0.8026 
G01 X-1.3045 Y0.8026 
G00 Z0.0200 
G00 X-1.2205 Y0.2808 
G01 Z-0.0050 F2.50  
G01 X-1.2274 Y0.2780 
G01 X-1.2274 Y0.2704 
G01 X-1.2126 Y0.2556 
G01 X-1.2126 Y0.2887 
G01 X-1.2205 Y0.2808 
G00 Z0.0200 
G00 X-0.6152 Y0.9243 
G01 Z-0.0050 F2.50  
G01 X-0.6089 Y0.9092 
G01 X-0.6089 Y0.8609 
G01 X-0.5911 Y0.8430 
G01 X-0.5911 Y0.9092 
G01 X-0.5848 Y0.9243 
G01 X-0.5817 Y0.9274 
G01 X-0.6183 Y0.9274 
G01 X-0.6152 Y0.9243 
G00 Z0.0200 
G00 X-0.7152 Y0.9243 
G01 Z-0.0050 F2.50  
G01 X-0.7089 Y0.9092 
G01 X-0.7089 Y0.8609 
G01 X-0.6911 Y0.8430 
G01 X-0.6911 Y0.9092 
G01 X-0.6848 Y0.9243 
G01 X-0.6817 Y0.9274 
G01 X-0.7183 Y0.9274 
G01 X-0.7152 Y0.9243 
G00 Z0.0200 
G00 X-0.7911 Y0.9070 
G01 Z-0.0050 F2.50  
G01 X-0.8089 Y0.8891 
G01 X-0.8089 Y0.8609 
G01 X-0.7911 Y0.8430 
G01 X-0.7911 Y0.9070 
G00 Z0.0200 
G00 X-0.7264 Y0.8145 
G01 Z-0.0050 F2.50  
G01 X-0.7267 Y0.8142 
G01 X-0.7418 Y0.8079 
G01 X-0.7560 Y0.8079 
G01 X-0.7406 Y0.7926 
G01 X-0.7045 Y0.7926 
G01 X-0.7264 Y0.8145 
G00 Z0.0200 
G00 X-0.1626 Y1.0306 
G01 Z-0.0050 F2.50  
G01 X-0.1626 Y1.0944 
G01 X-0.1774 Y1.0796 
G01 X-0.1774 Y1.0454 
G01 X-0.1626 Y1.0306 
G00 Z0.0200 
G00 X-0.2481 Y1.1051 
G01 Z-0.0050 F2.50  
G01 X-0.2481 Y1.1300 
G01 X-0.3550 Y1.0230 
G01 X-0.3519 Y1.0199 
G01 X-0.3519 Y1.0000 
G01 X-0.3426 Y1.0094 
G01 X-0.3294 Y1.0226 
G01 X-0.2454 Y1.0226 
G01 X-0.2226 Y1.0454 
G01 X-0.2226 Y1.0796 
G01 X-0.2481 Y1.1051 
G00 Z0.0200 
G00 X-0.3418 Y0.9421 
G01 Z-0.0050 F2.50  
G01 X-0.3267 Y0.9358 
G01 X-0.3152 Y0.9243 
G01 X-0.3089 Y0.9092 
G01 X-0.3089 Y0.8408 
G01 X-0.3152 Y0.8257 
G01 X-0.3183 Y0.8226 
G01 X-0.2817 Y0.8226 
G01 X-0.2848 Y0.8257 
G01 X-0.2911 Y0.8408 
G01 X-0.2911 Y0.9092 
G01 X-0.2848 Y0.9243 
G01 X-0.2733 Y0.9358 
G01 X-0.2582 Y0.9421 
G01 X-0.2418 Y0.9421 
G01 X-0.2267 Y0.9358 
G01 X-0.2152 Y0.9243 
G01 X-0.2089 Y0.9092 
G01 X-0.2089 Y0.8530 
G01 X-0.1626 Y0.8994 
G01 X-0.1626 Y0.9694 
G01 X-0.1801 Y0.9519 
G01 X-0.2199 Y0.9519 
G01 X-0.2454 Y0.9774 
G01 X-0.3106 Y0.9774 
G01 X-0.3460 Y0.9421 
G01 X-0.3418 Y0.9421 
G00 Z0.0200 
G00 X-0.4089 Y0.9092 
G01 Z-0.0050 F2.50  
G01 X-0.4089 Y0.8408 
G01 X-0.4152 Y0.8257 
G01 X-0.4183 Y0.8226 
G01 X-0.3817 Y0.8226 
G01 X-0.3848 Y0.8257 
G01 X-0.3911 Y0.8408 
G01 X-0.3911 Y0.9092 
G01 X-0.3877 Y0.9174 
G01 X-0.3894 Y0.9174 
G01 X-0.4123 Y0.9174 
G01 X-0.4089 Y0.9092 
G00 Z0.0200 
G00 X-0.4911 Y0.8408 
G01 Z-0.0050 F2.50  
G01 X-0.4911 Y0.9092 
G01 X-0.4848 Y0.9243 
G01 X-0.4817 Y0.9274 
G01 X-0.5183 Y0.9274 
G01 X-0.5152 Y0.9243 
G01 X-0.5089 Y0.9092 
G01 X-0.5089 Y0.8408 
G01 X-0.5152 Y0.8257 
G01 X-0.5183 Y0.8226 
G01 X-0.4817 Y0.8226 
G01 X-0.4848 Y0.8257 
G01 X-0.4911 Y0.8408 
G00 Z0.0200 
G00 X-0.4254 Y1.0426 
G01 Z-0.0050 F2.50  
G01 X-0.4199 Y1.0481 
G01 X-0.3939 Y1.0481 
G01 X-0.2445 Y1.1974 
G01 X-0.3006 Y1.1974 
G01 X-0.3324 Y1.1656 
G01 X-0.3456 Y1.1524 
G01 X-0.3525 Y1.1455 
G01 X-0.3519 Y1.1449 
G01 X-0.3519 Y1.1051 
G01 X-0.3801 Y1.0769 
G01 X-0.4199 Y1.0769 
G01 X-0.4481 Y1.1051 
G01 X-0.4481 Y1.1449 
G01 X-0.4356 Y1.1574 
G01 X-0.5793 Y1.1574 
G01 X-0.5702 Y1.1483 
G01 X-0.5639 Y1.1332 
G01 X-0.5639 Y1.1168 
G01 X-0.5642 Y1.1161 
G01 X-0.4906 Y1.0426 
G01 X-0.4254 Y1.0426 
G00 Z0.0200 
G00 X-0.1626 Y1.1556 
G01 Z-0.0050 F2.50  
G01 X-0.1626 Y1.1674 
G01 X-0.1744 Y1.1674 
G01 X-0.1626 Y1.1556 
G00 Z0.0200 
G00 X-1.9705 Y0.3058 
G01 Z-0.0050 F2.50  
G01 X-1.9795 Y0.3021 
G01 X-1.9567 Y0.3021 
G01 X-1.9479 Y0.2933 
G01 X-1.9479 Y0.2299 
G01 X-1.9406 Y0.2226 
G01 X-1.9031 Y0.2226 
G01 X-1.9035 Y0.2228 
G01 X-1.9162 Y0.2355 
G01 X-1.9231 Y0.2520 
G01 X-1.9231 Y0.2700 
G01 X-1.9198 Y0.2779 
G01 X-1.9591 Y0.3172 
G01 X-1.9705 Y0.3058 
G00 Z0.0200 
G00 X-1.5671 Y1.0082 
G01 Z-0.0050 F2.50  
G01 X-1.5608 Y1.0233 
G01 X-1.5572 Y1.0269 
G01 X-1.6154 Y1.0269 
G01 X-1.6398 Y1.0026 
G01 X-1.5671 Y1.0026 
G01 X-1.5671 Y1.0082 
G00 Z0.0200 
G00 X-0.9094 Y0.4774 
G01 Z-0.0050 F2.50  
G01 X-0.9226 Y0.4906 
G01 X-0.9226 Y0.5094 
G01 X-0.9226 Y0.5183 
G01 X-0.9267 Y0.5142 
G01 X-0.9418 Y0.5079 
G01 X-0.9582 Y0.5079 
G01 X-0.9733 Y0.5142 
G01 X-0.9736 Y0.5145 
G01 X-1.0246 Y0.4634 
G01 X-1.0168 Y0.4555 
G01 X-1.0099 Y0.4390 
G01 X-1.0099 Y0.3610 
G01 X-1.0168 Y0.3445 
G01 X-1.0295 Y0.3318 
G01 X-1.0460 Y0.3249 
G01 X-1.0474 Y0.3249 
G01 X-1.0474 Y0.2950 
G01 X-1.0455 Y0.2942 
G01 X-1.0308 Y0.2795 
G01 X-1.0229 Y0.2604 
G01 X-1.0229 Y0.2396 
G01 X-1.0243 Y0.2363 
G01 X-1.0006 Y0.2126 
G01 X-0.8113 Y0.2126 
G01 X-0.8192 Y0.2205 
G01 X-0.8271 Y0.2396 
G01 X-0.8271 Y0.2604 
G01 X-0.8192 Y0.2795 
G01 X-0.8045 Y0.2942 
G01 X-0.7854 Y0.3021 
G01 X-0.7646 Y0.3021 
G01 X-0.7455 Y0.2942 
G01 X-0.7308 Y0.2795 
G01 X-0.7280 Y0.2726 
G01 X-0.7094 Y0.2726 
G01 X-0.6742 Y0.3077 
G01 X-0.6771 Y0.3146 
G01 X-0.6771 Y0.3354 
G01 X-0.6692 Y0.3545 
G01 X-0.6545 Y0.3692 
G01 X-0.6404 Y0.3750 
G01 X-0.6545 Y0.3808 
G01 X-0.6692 Y0.3955 
G01 X-0.6771 Y0.4146 
G01 X-0.6771 Y0.4354 
G01 X-0.6726 Y0.4462 
G01 X-0.6726 Y0.5139 
G01 X-0.6733 Y0.5142 
G01 X-0.6786 Y0.5195 
G01 X-0.6906 Y0.5074 
G01 X-0.7206 Y0.4774 
G01 X-0.7394 Y0.4774 
G01 X-0.9094 Y0.4774 
G00 Z0.0200 
G00 X-0.9901 Y0.3610 
G01 Z-0.0050 F2.50  
G01 X-0.9901 Y0.4390 
G01 X-0.9832 Y0.4555 
G01 X-0.9705 Y0.4682 
G01 X-0.9540 Y0.4751 
G01 X-0.9360 Y0.4751 
G01 X-0.9195 Y0.4682 
G01 X-0.9068 Y0.4555 
G01 X-0.8999 Y0.4390 
G01 X-0.8999 Y0.3610 
G01 X-0.9068 Y0.3445 
G01 X-0.9195 Y0.3318 
G01 X-0.9360 Y0.3249 
G01 X-0.9540 Y0.3249 
G01 X-0.9705 Y0.3318 
G01 X-0.9832 Y0.3445 
G01 X-0.9901 Y0.3610 
G00 Z0.0200 
G00 X-0.9267 Y0.8142 
G01 Z-0.0050 F2.50  
G01 X-0.9274 Y0.8139 
G01 X-0.9274 Y0.8094 
G01 X-0.9274 Y0.7906 
G01 X-0.9274 Y0.7894 
G01 X-0.7736 Y0.6355 
G01 X-0.7733 Y0.6358 
G01 X-0.7582 Y0.6421 
G01 X-0.7418 Y0.6421 
G01 X-0.7267 Y0.6358 
G01 X-0.7226 Y0.6317 
G01 X-0.7226 Y0.7174 
G01 X-0.8006 Y0.7174 
G01 X-0.8194 Y0.7174 
G01 X-0.9094 Y0.8074 
G01 X-0.9214 Y0.8195 
G01 X-0.9267 Y0.8142 
G00 Z0.0200 
G00 X-0.7745 Y0.7626 
G01 Z-0.0050 F2.50  
G01 X-0.8264 Y0.8145 
G01 X-0.8267 Y0.8142 
G01 X-0.8418 Y0.8079 
G01 X-0.8460 Y0.8079 
G01 X-0.8006 Y0.7626 
G01 X-0.7745 Y0.7626 
G00 Z0.0200 
G00 X-0.6733 Y0.6358 
G01 Z-0.0050 F2.50  
G01 X-0.6582 Y0.6421 
G01 X-0.6418 Y0.6421 
G01 X-0.6267 Y0.6358 
G01 X-0.6152 Y0.6243 
G01 X-0.6089 Y0.6092 
G01 X-0.6089 Y0.5408 
G01 X-0.6152 Y0.5257 
G01 X-0.6267 Y0.5142 
G01 X-0.6274 Y0.5139 
G01 X-0.6274 Y0.4771 
G01 X-0.6146 Y0.4771 
G01 X-0.5955 Y0.4692 
G01 X-0.5808 Y0.4545 
G01 X-0.5729 Y0.4354 
G01 X-0.5729 Y0.4146 
G01 X-0.5808 Y0.3955 
G01 X-0.5955 Y0.3808 
G01 X-0.6096 Y0.3750 
G01 X-0.5955 Y0.3692 
G01 X-0.5808 Y0.3545 
G01 X-0.5729 Y0.3354 
G01 X-0.5729 Y0.3146 
G01 X-0.5808 Y0.2955 
G01 X-0.5955 Y0.2808 
G01 X-0.6146 Y0.2729 
G01 X-0.6354 Y0.2729 
G01 X-0.6423 Y0.2758 
G01 X-0.6774 Y0.2406 
G01 X-0.6906 Y0.2274 
G01 X-0.7280 Y0.2274 
G01 X-0.7308 Y0.2205 
G01 X-0.7387 Y0.2126 
G01 X-0.5226 Y0.2126 
G01 X-0.5226 Y0.5183 
G01 X-0.5267 Y0.5142 
G01 X-0.5418 Y0.5079 
G01 X-0.5582 Y0.5079 
G01 X-0.5733 Y0.5142 
G01 X-0.5848 Y0.5257 
G01 X-0.5911 Y0.5408 
G01 X-0.5911 Y0.6092 
G01 X-0.5848 Y0.6243 
G01 X-0.5733 Y0.6358 
G01 X-0.5582 Y0.6421 
G01 X-0.5540 Y0.6421 
G01 X-0.6594 Y0.7474 
G01 X-0.6774 Y0.7474 
G01 X-0.6774 Y0.7306 
G01 X-0.6774 Y0.6317 
G01 X-0.6733 Y0.6358 
G00 Z0.0200 
G00 X-0.7848 Y0.5257 
G01 Z-0.0050 F2.50  
G01 X-0.7911 Y0.5408 
G01 X-0.7911 Y0.5891 
G01 X-0.8089 Y0.6070 
G01 X-0.8089 Y0.5408 
G01 X-0.8152 Y0.5257 
G01 X-0.8183 Y0.5226 
G01 X-0.7817 Y0.5226 
G01 X-0.7848 Y0.5257 
G00 Z0.0200 
G00 X-0.8733 Y0.6358 
G01 Z-0.0050 F2.50  
G01 X-0.8582 Y0.6421 
G01 X-0.8440 Y0.6421 
G01 X-0.9594 Y0.7574 
G01 X-0.9726 Y0.7706 
G01 X-0.9726 Y0.7774 
G01 X-1.0255 Y0.7774 
G01 X-0.8906 Y0.6426 
G01 X-0.8786 Y0.6305 
G01 X-0.8733 Y0.6358 
G00 Z0.0200 
G00 X-1.0855 Y0.7474 
G01 Z-0.0050 F2.50  
G01 X-0.9736 Y0.6355 
G01 X-0.9733 Y0.6358 
G01 X-0.9582 Y0.6421 
G01 X-0.9540 Y0.6421 
G01 X-1.0594 Y0.7474 
G01 X-1.0855 Y0.7474 
G00 Z0.0200 
G00 X-1.8250 Y0.8904 
G01 Z-0.0050 F2.50  
G01 X-1.8231 Y0.8949 
G01 X-1.8258 Y0.8923 
G01 X-1.8250 Y0.8904 
G00 Z0.0200 
G00 X-1.3733 Y0.9358 
G01 Z-0.0050 F2.50  
G01 X-1.3582 Y0.9421 
G01 X-1.3418 Y0.9421 
G01 X-1.3267 Y0.9358 
G01 X-1.3226 Y0.9317 
G01 X-1.3226 Y0.9395 
G01 X-1.3350 Y0.9519 
G01 X-1.3846 Y0.9519 
G01 X-1.3981 Y0.9654 
G01 X-1.4329 Y1.0003 
G01 X-1.4329 Y0.9949 
G01 X-1.3736 Y0.9355 
G01 X-1.3733 Y0.9358 
G00 Z0.0200 
G00 X-1.9271 Y0.8854 
G01 Z-0.0050 F2.50  
G01 X-1.9192 Y0.9045 
G01 X-1.9063 Y0.9174 
G01 X-1.9506 Y0.9174 
G01 X-1.9519 Y0.9161 
G01 X-1.9519 Y0.8939 
G01 X-1.9271 Y0.8690 
G01 X-1.9271 Y0.8854 
G00 Z0.0200 
G00 X-1.8192 Y0.8455 
G01 Z-0.0050 F2.50  
G01 X-1.8250 Y0.8596 
G01 X-1.8308 Y0.8455 
G01 X-1.8437 Y0.8326 
G01 X-1.8063 Y0.8326 
G01 X-1.8192 Y0.8455 
G00 Z0.0200 
G00 X-1.5692 Y0.4205 
G01 Z-0.0050 F2.50  
G01 X-1.5769 Y0.4392 
G01 X-1.5769 Y0.4300 
G01 X-1.5802 Y0.4221 
G01 X-1.5706 Y0.4126 
G01 X-1.5613 Y0.4126 
G01 X-1.5692 Y0.4205 
G00 Z0.0200 
G00 X-1.8644 Y1.3146 
G01 Z-0.0050 F2.50  
G01 X-1.8608 Y1.3233 
G01 X-1.8572 Y1.3269 
G01 X-1.8644 Y1.3269 
G01 X-1.8644 Y1.3146 
G00 Z0.0200 
G00 X-1.4428 Y1.0269 
G01 Z-0.0050 F2.50  
G01 X-1.4392 Y1.0233 
G01 X-1.4356 Y1.0146 
G01 X-1.4356 Y1.0221 
G01 X-1.4356 Y1.0269 
G01 X-1.4428 Y1.0269 
G00 Z0.0200 
G00 X-1.3951 Y1.1610 
G01 Z-0.0050 F2.50  
G01 X-1.3951 Y1.2390 
G01 X-1.3882 Y1.2555 
G01 X-1.3755 Y1.2682 
G01 X-1.3590 Y1.2751 
G01 X-1.3410 Y1.2751 
G01 X-1.3245 Y1.2682 
G01 X-1.3118 Y1.2555 
G01 X-1.3049 Y1.2390 
G01 X-1.3049 Y1.1610 
G01 X-1.3118 Y1.1445 
G01 X-1.3245 Y1.1318 
G01 X-1.3274 Y1.1306 
G01 X-1.3274 Y1.0855 
G01 X-1.3231 Y1.0812 
G01 X-1.3231 Y1.0904 
G01 X-1.3231 Y1.1096 
G01 X-1.3096 Y1.1231 
G01 X-1.2846 Y1.1231 
G01 X-1.2731 Y1.1346 
G01 X-1.2731 Y1.1408 
G01 X-1.2755 Y1.1418 
G01 X-1.2882 Y1.1545 
G01 X-1.2951 Y1.1710 
G01 X-1.2951 Y1.2490 
G01 X-1.2882 Y1.2655 
G01 X-1.2764 Y1.2774 
G01 X-1.3906 Y1.2774 
G01 X-1.4420 Y1.2261 
G01 X-1.4392 Y1.2233 
G01 X-1.4329 Y1.2082 
G01 X-1.4329 Y1.1918 
G01 X-1.4392 Y1.1767 
G01 X-1.4507 Y1.1652 
G01 X-1.4658 Y1.1589 
G01 X-1.4774 Y1.1589 
G01 X-1.4774 Y1.1411 
G01 X-1.4658 Y1.1411 
G01 X-1.4507 Y1.1348 
G01 X-1.4392 Y1.1233 
G01 X-1.4329 Y1.1082 
G01 X-1.4329 Y1.0918 
G01 X-1.4392 Y1.0767 
G01 X-1.4428 Y1.0731 
G01 X-1.4221 Y1.0731 
G01 X-1.4029 Y1.0731 
G01 X-1.3911 Y1.0612 
G01 X-1.3911 Y1.0670 
G01 X-1.3726 Y1.0855 
G01 X-1.3726 Y1.1306 
G01 X-1.3755 Y1.1318 
G01 X-1.3882 Y1.1445 
G01 X-1.3951 Y1.1610 
G00 Z0.0200 
G00 X-1.1089 Y0.8408 
G01 Z-0.0050 F2.50  
G01 X-1.1152 Y0.8257 
G01 X-1.1183 Y0.8226 
G01 X-1.0817 Y0.8226 
G01 X-1.0848 Y0.8257 
G01 X-1.0911 Y0.8408 
G01 X-1.0911 Y0.9070 
G01 X-1.1089 Y0.8891 
G01 X-1.1089 Y0.8408 
G00 Z0.0200 
G00 X-1.0951 Y1.1710 
G01 Z-0.0050 F2.50  
G01 X-1.0951 Y1.2490 
G01 X-1.0882 Y1.2655 
G01 X-1.0764 Y1.2774 
G01 X-1.2236 Y1.2774 
G01 X-1.2118 Y1.2655 
G01 X-1.2049 Y1.2490 
G01 X-1.2049 Y1.1710 
G01 X-1.2118 Y1.1545 
G01 X-1.2245 Y1.1418 
G01 X-1.2269 Y1.1408 
G01 X-1.2269 Y1.1346 
G01 X-1.2269 Y1.1154 
G01 X-1.2513 Y1.0911 
G01 X-1.2330 Y1.0911 
G01 X-1.2089 Y1.0670 
G01 X-1.2089 Y1.0330 
G01 X-1.2274 Y1.0145 
G01 X-1.2274 Y0.9726 
G01 X-1.2206 Y0.9726 
G01 X-1.1906 Y0.9426 
G01 X-1.1786 Y0.9305 
G01 X-1.1733 Y0.9358 
G01 X-1.1582 Y0.9421 
G01 X-1.1418 Y0.9421 
G01 X-1.1267 Y0.9358 
G01 X-1.1264 Y0.9355 
G01 X-1.0626 Y0.9994 
G01 X-1.0553 Y1.0066 
G01 X-1.0692 Y1.0205 
G01 X-1.0750 Y1.0346 
G01 X-1.0808 Y1.0205 
G01 X-1.0955 Y1.0058 
G01 X-1.1146 Y0.9979 
G01 X-1.1354 Y0.9979 
G01 X-1.1545 Y1.0058 
G01 X-1.1692 Y1.0205 
G01 X-1.1771 Y1.0396 
G01 X-1.1771 Y1.0604 
G01 X-1.1692 Y1.0795 
G01 X-1.1545 Y1.0942 
G01 X-1.1526 Y1.0949 
G01 X-1.1731 Y1.1154 
G01 X-1.1731 Y1.1308 
G01 X-1.1755 Y1.1318 
G01 X-1.1882 Y1.1445 
G01 X-1.1951 Y1.1610 
G01 X-1.1951 Y1.2390 
G01 X-1.1882 Y1.2555 
G01 X-1.1755 Y1.2682 
G01 X-1.1590 Y1.2751 
G01 X-1.1410 Y1.2751 
G01 X-1.1245 Y1.2682 
G01 X-1.1118 Y1.2555 
G01 X-1.1049 Y1.2390 
G01 X-1.1049 Y1.1610 
G01 X-1.1118 Y1.1445 
G01 X-1.1243 Y1.1319 
G01 X-1.1154 Y1.1231 
G01 X-1.1019 Y1.1096 
G01 X-1.1019 Y1.0968 
G01 X-1.0955 Y1.0942 
G01 X-1.0808 Y1.0795 
G01 X-1.0750 Y1.0654 
G01 X-1.0692 Y1.0795 
G01 X-1.0545 Y1.0942 
G01 X-1.0526 Y1.0949 
G01 X-1.0731 Y1.1154 
G01 X-1.0731 Y1.1346 
G01 X-1.0731 Y1.1408 
G01 X-1.0755 Y1.1418 
G01 X-1.0882 Y1.1545 
G01 X-1.0951 Y1.1710 
G00 Z0.0200 
G00 X-0.9955 Y1.0942 
G01 Z-0.0050 F2.50  
G01 X-0.9808 Y1.0795 
G01 X-0.9729 Y1.0604 
G01 X-0.9729 Y1.0490 
G01 X-0.9726 Y1.0494 
G01 X-0.9726 Y1.1305 
G01 X-0.9755 Y1.1318 
G01 X-0.9882 Y1.1445 
G01 X-0.9951 Y1.1610 
G01 X-0.9951 Y1.2390 
G01 X-0.9882 Y1.2555 
G01 X-0.9755 Y1.2682 
G01 X-0.9590 Y1.2751 
