( This gcode generated by /Applications/EAGLE/ulp/pcb-gcode.ulp )
( Copyright 2005 by John Johnson. See readme.txt for licensing terms. )

( This file generated from the board /Users/gregorywitt/Documents/eagle/color factory/sensor.brd )
( This file generated 12/19/09 8:27 PM )

( T01 0.032000 )
( T02 0.035433 )
( T03 0.040000 )
( T04 0.130000 )
G20

G90
M05
G00 X0.0000 Y0.0000 Z3.0000 
M06 T01  ; 0.0320 
G00 Z0.0200 
M03
G04 P3.000000
G82 X-0.2000 Y1.0000 Z-0.1000 F3.00  R0.0200 P0.100000
G82 X-0.2000 Y1.1250 
G82 X-0.2500 Y0.5750 
G82 X-0.2500 Y0.8750 
G82 X-0.3500 Y0.5750 
G82 X-0.3500 Y0.8750 
G82 X-0.4000 Y1.0000 
G82 X-0.4000 Y1.1250 
G82 X-0.4500 Y0.5750 
G82 X-0.4500 Y0.8750 
G82 X-0.5500 Y0.5750 
G82 X-0.5500 Y0.8750 
G82 X-0.6050 Y1.1250 
G82 X-0.6250 Y0.3250 
G82 X-0.6250 Y0.4250 
G82 X-0.6500 Y0.5750 
G82 X-0.6500 Y0.8750 
G82 X-0.7500 Y0.5750 
G82 X-0.7500 Y0.8750 
G82 X-0.7950 Y1.1250 
G82 X-0.8500 Y0.5750 
G82 X-0.8500 Y0.8750 
G82 X-0.9500 Y0.5750 
G82 X-0.9500 Y0.8750 
G82 X-1.0500 Y0.5750 
G82 X-1.0500 Y0.8750 
G82 X-1.1500 Y0.5750 
G82 X-1.1500 Y0.8750 
G82 X-1.2500 Y0.2250 
G82 X-1.2500 Y0.5750 
G82 X-1.2500 Y0.8750 
G82 X-1.2500 Y1.0500 
G82 X-1.3000 Y0.9750 
G82 X-1.3500 Y0.5750 
G82 X-1.3500 Y0.8750 
G82 X-1.3500 Y1.0500 
G82 X-1.4500 Y0.2250 
G82 X-1.4500 Y0.5750 
G82 X-1.4500 Y0.8750 
G82 X-1.5000 Y1.0000 
G82 X-1.5000 Y1.1000 
G82 X-1.5000 Y1.2000 
G82 X-1.5000 Y1.3000 
G82 X-1.5500 Y0.5750 
G82 X-1.5500 Y0.8750 
G82 X-1.8000 Y1.0000 
G82 X-1.8000 Y1.1000 
G82 X-1.8000 Y1.2000 
G82 X-1.8000 Y1.3000 
G82 X-2.0000 Y0.7000 
G82 X-2.0000 Y0.9000 
M05
G00 X0.0000 Y0.0000 Z3.0000 
M06 T02  ; 0.0354 
G00 Z0.0200 
M03
G04 P3.000000
G82 X-0.7750 Y0.2500 Z-0.1000 F3.00  R0.0200 P0.100000
G82 X-1.0750 Y0.2500 
G82 X-1.2500 Y0.3250 
G82 X-1.5500 Y0.3250 
G82 X-1.7750 Y0.5750 
G82 X-1.7750 Y0.8750 
G82 X-1.8750 Y0.5750 
G82 X-1.8750 Y0.8750 
M05
G00 X0.0000 Y0.0000 Z3.0000 
M06 T03  ; 0.0400 
G00 Z0.0200 
M03
G04 P3.000000
G82 X-0.9450 Y0.4000 Z-0.1000 F3.00  R0.0200 P0.100000
G82 X-0.9500 Y1.2000 
G82 X-1.0250 Y1.0500 
G82 X-1.0500 Y1.2100 
G82 X-1.0550 Y0.4000 
G82 X-1.1250 Y1.0500 
G82 X-1.1500 Y1.2000 
G82 X-1.2500 Y1.2100 
G82 X-1.3500 Y1.2000 
G82 X-1.4250 Y0.4500 
G82 X-1.5250 Y0.4500 
G82 X-1.6220 Y0.2610 
G82 X-1.6220 Y0.4390 
G82 X-1.8780 Y0.2610 
G82 X-1.8780 Y0.4390 
G82 X-2.0000 Y0.2500 
G82 X-2.0000 Y0.3500 
G82 X-2.0000 Y0.4500 
G82 X-2.0000 Y0.5500 
G82 X-2.3000 Y0.8500 
G82 X-2.3000 Y0.9500 
G82 X-2.4000 Y0.8500 
G82 X-2.4000 Y0.9500 
M05
G00 X0.0000 Y0.0000 Z3.0000 
M06 T04  ; 0.1300 
G00 Z0.0200 
M03
G04 P3.000000
G82 X-0.3500 Y0.3750 Z-0.1000 F3.00  R0.0200 P0.100000
G82 X-2.0875 Y1.3625 
(File Footer)
T01 
G00 Z0.5000 
M05
M02
