( This gcode generated by /Applications/EAGLE/ulp/pcb-gcode.ulp )
( Copyright 2005 by John Johnson. See readme.txt for licensing terms. )

( This file generated from the board /Users/gregorywitt/Documents/eagle/color factory/sensor_v2.brd )
( This file generated 1/31/10 2:37 PM )

G20

G90
G00 Z0.5000 
G00 X0 Y0
M03
G04 P3.000000
G00 Z0.0200 
G00 X0.7875 Y1.2375 
G01 Z-0.0700 F2.50  
G01 X0.2375 Y1.2375 
G01 X0.1375 Y1.1375 
G01 X0.1375 Y0.5125 
G00 Z0.0200 
G00 X0.6250 Y0.2250 
G01 Z-0.0700 F2.50  
G01 X0.7000 Y0.1500 
G01 X1.3375 Y0.1500 
G01 X1.4125 Y0.0750 
G01 X2.0500 Y0.0750 
G01 X2.2000 Y0.2250 
G01 X2.2000 Y0.5750 
G00 Z0.0200 
G00 X2.2750 Y1.1125 
G01 Z-0.0700 F2.50  
G01 X2.1500 Y1.2375 
G00 Z0.0200 
G00 X2.2000 Y0.5750 
G01 Z-0.0700 F2.50  
G01 X2.3125 Y0.6875 
G00 Z0.0200 
G00 X0.7875 Y1.2375 
G01 Z-0.0700 F2.50  
G01 X0.9125 Y1.3625 
G01 X1.2500 Y1.3625 
G01 X1.3375 Y1.4500 
G01 X1.8875 Y1.4500 
G00 Z0.0200 
G00 X1.9875 Y1.3500 
G01 Z-0.0700 F2.50  
G02 X2.0625 Y1.3500 I0.0375 J0.0000 
G00 Z0.0200 
G00 X2.0625 Y1.3500 
G01 Z-0.0700 F2.50  
G02 X1.9875 Y1.3500 I-0.0375 J0.0000 
G00 Z0.0200 
G00 X0.2000 Y0.3750 
G01 Z-0.0700 F2.50  
G02 X0.2750 Y0.3750 I0.0375 J0.0000 
G00 Z0.0200 
G00 X0.2750 Y0.3750 
G01 Z-0.0700 F2.50  
G02 X0.2000 Y0.3750 I-0.0375 J0.0000 
G00 Z0.0200 
G00 X0.1375 Y0.5125 
G01 Z-0.0700 F2.50  
G01 X0.0750 Y0.4500 
G01 X0.0750 Y0.3125 
G01 X0.1625 Y0.2250 
G01 X0.6250 Y0.2250 
G00 Z0.0200 
G00 X1.8875 Y1.4500 
G01 Z-0.0700 F2.50  
G01 X1.9375 Y1.5000 
G01 X2.1000 Y1.5000 
G01 X2.1750 Y1.4250 
G01 X2.1750 Y1.2625 
G01 X2.1500 Y1.2375 
G00 Z0.0200 
G00 X2.2750 Y1.1125 
G01 Z-0.0700 F2.50  
G01 X2.4125 Y1.1125 
G01 X2.5250 Y1.0000 
G01 X2.5250 Y0.7875 
G01 X2.4250 Y0.6875 
G01 X2.3125 Y0.6875 
(File Footer)
G00 Z0.5000 
M05
M02
