( This gcode generated by /Applications/EAGLE/ulp/pcb-gcode.ulp )
( Copyright 2005 by John Johnson. See readme.txt for licensing terms. )

( This file generated from the board /Users/gregorywitt/Documents/eagle/color factory/sensor_v2.brd )
( This file generated 1/31/10 2:37 PM )

G20

G90
G00 Z0.5000 
G00 X0 Y0
M03
G04 P3.000000
G00 Z0.0200 
G00 X-1.9151 Y0.5585 
G01 Z-0.0050 F2.50  
G01 X-1.9151 Y0.5664 
G01 X-1.9136 Y0.5742 
G01 X-1.9105 Y0.5815 
G01 X-1.9061 Y0.5881 
G01 X-1.9006 Y0.5936 
G01 X-1.8940 Y0.5980 
G01 X-1.8867 Y0.6011 
G01 X-1.8789 Y0.6026 
G01 X-1.8710 Y0.6026 
G01 X-1.8633 Y0.6011 
G01 X-1.8560 Y0.5980 
G01 X-1.8494 Y0.5936 
G01 X-1.8439 Y0.5881 
G01 X-1.8395 Y0.5815 
G01 X-1.8364 Y0.5742 
G01 X-1.8349 Y0.5664 
G01 X-1.8349 Y0.5585 
G01 X-1.8363 Y0.5515 
G01 X-1.8070 Y0.5281 
G01 X-1.7705 Y0.5281 
G01 X-1.7131 Y0.6084 
G01 X-1.7125 Y0.6096 
G01 X-1.7119 Y0.6101 
G01 X-1.7115 Y0.6107 
G01 X-1.7105 Y0.6116 
G01 X-1.7096 Y0.6125 
G01 X-1.7089 Y0.6129 
G01 X-1.7083 Y0.6133 
G01 X-1.7071 Y0.6139 
G01 X-1.7060 Y0.6145 
G01 X-1.7053 Y0.6147 
G01 X-1.7046 Y0.6150 
G01 X-1.7033 Y0.6153 
G01 X-1.7021 Y0.6156 
G01 X-1.7013 Y0.6156 
G01 X-1.7005 Y0.6157 
G01 X-1.6992 Y0.6156 
G01 X-1.6440 Y0.6156 
G01 X-1.5971 Y0.6625 
G01 X-1.5935 Y0.6645 
G01 X-1.5896 Y0.6656 
G01 X-1.5854 Y0.6656 
G01 X-1.5854 Y0.6656 
G01 X-1.4619 Y0.6656 
G01 X-1.5621 Y0.7657 
G01 X-1.5641 Y0.7692 
G01 X-1.5651 Y0.7730 
G01 X-1.5651 Y0.7770 
G01 X-1.5651 Y0.8189 
G01 X-1.5659 Y0.8192 
G01 X-1.5714 Y0.8229 
G01 X-1.5761 Y0.8276 
G01 X-1.5798 Y0.8331 
G01 X-1.5823 Y0.8392 
G01 X-1.5836 Y0.8457 
G01 X-1.5836 Y0.9043 
G01 X-1.5823 Y0.9108 
G01 X-1.5798 Y0.9169 
G01 X-1.5761 Y0.9224 
G01 X-1.5714 Y0.9271 
G01 X-1.5659 Y0.9308 
G01 X-1.5598 Y0.9333 
G01 X-1.5533 Y0.9346 
G01 X-1.5467 Y0.9346 
G01 X-1.5402 Y0.9333 
G01 X-1.5341 Y0.9308 
G01 X-1.5286 Y0.9271 
G01 X-1.5239 Y0.9224 
G01 X-1.5202 Y0.9169 
G01 X-1.5177 Y0.9108 
G01 X-1.5164 Y0.9043 
G01 X-1.5164 Y0.8457 
G01 X-1.5177 Y0.8392 
G01 X-1.5202 Y0.8331 
G01 X-1.5239 Y0.8276 
G01 X-1.5286 Y0.8229 
G01 X-1.5341 Y0.8192 
G01 X-1.5349 Y0.8189 
G01 X-1.5349 Y0.7813 
G01 X-1.4171 Y0.6634 
G01 X-1.4154 Y0.6625 
G01 X-1.4125 Y0.6596 
G01 X-1.4116 Y0.6579 
G01 X-1.3907 Y0.6371 
G01 X-1.3879 Y0.6343 
G01 X-1.3859 Y0.6308 
G01 X-1.3849 Y0.6270 
G01 X-1.3849 Y0.5313 
G01 X-1.3407 Y0.4871 
G01 X-1.3379 Y0.4843 
G01 X-1.3359 Y0.4808 
G01 X-1.3349 Y0.4770 
G01 X-1.3349 Y0.4270 
G01 X-1.3349 Y0.4230 
G01 X-1.3359 Y0.4192 
G01 X-1.3379 Y0.4157 
G01 X-1.4379 Y0.3157 
G01 X-1.4407 Y0.3129 
G01 X-1.4442 Y0.3109 
G01 X-1.4480 Y0.3099 
G01 X-1.5080 Y0.3099 
G01 X-1.5087 Y0.3079 
G01 X-1.5119 Y0.3016 
G01 X-1.5160 Y0.2959 
G01 X-1.5209 Y0.2910 
G01 X-1.5266 Y0.2869 
G01 X-1.5329 Y0.2837 
G01 X-1.5396 Y0.2815 
G01 X-1.5465 Y0.2804 
G01 X-1.5535 Y0.2804 
G01 X-1.5604 Y0.2815 
G01 X-1.5671 Y0.2837 
G01 X-1.5690 Y0.2846 
G01 X-1.5852 Y0.2685 
G01 X-1.5844 Y0.2647 
G01 X-1.5844 Y0.2573 
G01 X-1.5859 Y0.2500 
G01 X-1.5887 Y0.2432 
G01 X-1.5928 Y0.2370 
G01 X-1.5980 Y0.2318 
G01 X-1.6042 Y0.2277 
G01 X-1.6110 Y0.2249 
G01 X-1.6183 Y0.2234 
G01 X-1.6257 Y0.2234 
G01 X-1.6330 Y0.2249 
G01 X-1.6398 Y0.2277 
G01 X-1.6460 Y0.2318 
G01 X-1.6512 Y0.2370 
G01 X-1.6553 Y0.2432 
G01 X-1.6562 Y0.2454 
G01 X-1.8438 Y0.2454 
G01 X-1.8447 Y0.2432 
G01 X-1.8488 Y0.2370 
G01 X-1.8540 Y0.2318 
G01 X-1.8602 Y0.2277 
G01 X-1.8670 Y0.2249 
G01 X-1.8743 Y0.2234 
G01 X-1.8817 Y0.2234 
G01 X-1.8890 Y0.2249 
G01 X-1.8958 Y0.2277 
G01 X-1.9020 Y0.2318 
G01 X-1.9072 Y0.2370 
G01 X-1.9113 Y0.2432 
G01 X-1.9141 Y0.2500 
G01 X-1.9156 Y0.2573 
G01 X-1.9156 Y0.2647 
G01 X-1.9141 Y0.2720 
G01 X-1.9113 Y0.2788 
G01 X-1.9072 Y0.2850 
G01 X-1.9020 Y0.2902 
G01 X-1.8958 Y0.2943 
G01 X-1.8890 Y0.2971 
G01 X-1.8817 Y0.2986 
G01 X-1.8743 Y0.2986 
G01 X-1.8670 Y0.2971 
G01 X-1.8602 Y0.2943 
G01 X-1.8540 Y0.2902 
G01 X-1.8488 Y0.2850 
G01 X-1.8447 Y0.2788 
G01 X-1.8438 Y0.2766 
G01 X-1.6562 Y0.2766 
G01 X-1.6553 Y0.2788 
G01 X-1.6512 Y0.2850 
G01 X-1.6460 Y0.2902 
G01 X-1.6398 Y0.2943 
G01 X-1.6330 Y0.2971 
G01 X-1.6257 Y0.2986 
G01 X-1.6183 Y0.2986 
G01 X-1.6110 Y0.2971 
G01 X-1.6042 Y0.2943 
G01 X-1.6029 Y0.2934 
G01 X-1.5904 Y0.3060 
G01 X-1.5913 Y0.3079 
G01 X-1.5935 Y0.3146 
G01 X-1.5946 Y0.3215 
G01 X-1.5946 Y0.3285 
G01 X-1.5935 Y0.3354 
G01 X-1.5913 Y0.3421 
G01 X-1.5881 Y0.3484 
G01 X-1.5840 Y0.3540 
G01 X-1.5790 Y0.3590 
G01 X-1.5734 Y0.3631 
G01 X-1.5671 Y0.3663 
G01 X-1.5604 Y0.3685 
G01 X-1.5535 Y0.3696 
G01 X-1.5465 Y0.3696 
G01 X-1.5396 Y0.3685 
G01 X-1.5329 Y0.3663 
G01 X-1.5266 Y0.3631 
G01 X-1.5209 Y0.3590 
G01 X-1.5160 Y0.3540 
G01 X-1.5119 Y0.3484 
G01 X-1.5087 Y0.3421 
G01 X-1.5080 Y0.3401 
G01 X-1.4563 Y0.3401 
G01 X-1.3651 Y0.4313 
G01 X-1.3651 Y0.4687 
G01 X-1.4121 Y0.5157 
G01 X-1.4141 Y0.5192 
G01 X-1.4151 Y0.5230 
G01 X-1.4151 Y0.5270 
G01 X-1.4151 Y0.6187 
G01 X-1.4308 Y0.6344 
G01 X-1.4458 Y0.6344 
G01 X-1.4402 Y0.6333 
G01 X-1.4341 Y0.6308 
G01 X-1.4286 Y0.6271 
G01 X-1.4239 Y0.6224 
G01 X-1.4202 Y0.6169 
G01 X-1.4177 Y0.6108 
G01 X-1.4164 Y0.6043 
G01 X-1.4164 Y0.5457 
G01 X-1.4177 Y0.5392 
G01 X-1.4202 Y0.5331 
G01 X-1.4239 Y0.5276 
G01 X-1.4286 Y0.5229 
G01 X-1.4341 Y0.5192 
G01 X-1.4344 Y0.5191 
G01 X-1.4344 Y0.5065 
G01 X-1.4225 Y0.4946 
G01 X-1.4215 Y0.4946 
G01 X-1.4146 Y0.4935 
G01 X-1.4079 Y0.4913 
G01 X-1.4016 Y0.4881 
G01 X-1.3959 Y0.4840 
G01 X-1.3910 Y0.4790 
G01 X-1.3869 Y0.4734 
G01 X-1.3837 Y0.4671 
G01 X-1.3815 Y0.4604 
G01 X-1.3804 Y0.4535 
G01 X-1.3804 Y0.4465 
G01 X-1.3815 Y0.4396 
G01 X-1.3837 Y0.4329 
G01 X-1.3869 Y0.4266 
G01 X-1.3910 Y0.4209 
G01 X-1.3959 Y0.4160 
G01 X-1.4016 Y0.4119 
G01 X-1.4079 Y0.4087 
G01 X-1.4146 Y0.4065 
G01 X-1.4215 Y0.4054 
G01 X-1.4285 Y0.4054 
G01 X-1.4354 Y0.4065 
G01 X-1.4421 Y0.4087 
G01 X-1.4484 Y0.4119 
G01 X-1.4540 Y0.4160 
G01 X-1.4590 Y0.4209 
G01 X-1.4631 Y0.4266 
G01 X-1.4663 Y0.4329 
G01 X-1.4685 Y0.4396 
G01 X-1.4696 Y0.4465 
G01 X-1.4696 Y0.4535 
G01 X-1.4685 Y0.4604 
G01 X-1.4663 Y0.4671 
G01 X-1.4631 Y0.4734 
G01 X-1.4590 Y0.4790 
G01 X-1.4551 Y0.4830 
G01 X-1.4596 Y0.4875 
G01 X-1.4625 Y0.4904 
G01 X-1.4645 Y0.4940 
G01 X-1.4656 Y0.4979 
G01 X-1.4656 Y0.5191 
G01 X-1.4659 Y0.5192 
G01 X-1.4714 Y0.5229 
G01 X-1.4761 Y0.5276 
G01 X-1.4798 Y0.5331 
G01 X-1.4823 Y0.5392 
G01 X-1.4836 Y0.5457 
G01 X-1.4836 Y0.6043 
G01 X-1.4823 Y0.6108 
G01 X-1.4798 Y0.6169 
G01 X-1.4761 Y0.6224 
G01 X-1.4714 Y0.6271 
G01 X-1.4659 Y0.6308 
G01 X-1.4598 Y0.6333 
G01 X-1.4542 Y0.6344 
G01 X-1.5458 Y0.6344 
G01 X-1.5402 Y0.6333 
G01 X-1.5341 Y0.6308 
G01 X-1.5286 Y0.6271 
G01 X-1.5239 Y0.6224 
G01 X-1.5202 Y0.6169 
G01 X-1.5177 Y0.6108 
G01 X-1.5164 Y0.6043 
G01 X-1.5164 Y0.5457 
G01 X-1.5177 Y0.5392 
G01 X-1.5202 Y0.5331 
G01 X-1.5239 Y0.5276 
G01 X-1.5286 Y0.5229 
G01 X-1.5341 Y0.5192 
G01 X-1.5344 Y0.5191 
G01 X-1.5344 Y0.5065 
G01 X-1.5225 Y0.4946 
G01 X-1.5215 Y0.4946 
G01 X-1.5146 Y0.4935 
G01 X-1.5079 Y0.4913 
G01 X-1.5016 Y0.4881 
G01 X-1.4959 Y0.4840 
G01 X-1.4910 Y0.4790 
G01 X-1.4869 Y0.4734 
G01 X-1.4837 Y0.4671 
G01 X-1.4815 Y0.4604 
G01 X-1.4804 Y0.4535 
G01 X-1.4804 Y0.4465 
G01 X-1.4815 Y0.4396 
G01 X-1.4837 Y0.4329 
G01 X-1.4869 Y0.4266 
G01 X-1.4910 Y0.4209 
G01 X-1.4959 Y0.4160 
G01 X-1.5016 Y0.4119 
G01 X-1.5079 Y0.4087 
G01 X-1.5146 Y0.4065 
G01 X-1.5215 Y0.4054 
G01 X-1.5285 Y0.4054 
G01 X-1.5354 Y0.4065 
G01 X-1.5421 Y0.4087 
G01 X-1.5484 Y0.4119 
G01 X-1.5540 Y0.4160 
G01 X-1.5590 Y0.4209 
G01 X-1.5631 Y0.4266 
G01 X-1.5663 Y0.4329 
G01 X-1.5685 Y0.4396 
G01 X-1.5696 Y0.4465 
G01 X-1.5696 Y0.4535 
G01 X-1.5685 Y0.4604 
G01 X-1.5663 Y0.4671 
G01 X-1.5631 Y0.4734 
G01 X-1.5590 Y0.4790 
G01 X-1.5551 Y0.4830 
G01 X-1.5596 Y0.4875 
G01 X-1.5625 Y0.4904 
G01 X-1.5645 Y0.4940 
G01 X-1.5656 Y0.4979 
G01 X-1.5656 Y0.5191 
G01 X-1.5659 Y0.5192 
G01 X-1.5714 Y0.5229 
G01 X-1.5761 Y0.5276 
G01 X-1.5798 Y0.5331 
G01 X-1.5823 Y0.5392 
G01 X-1.5836 Y0.5457 
G01 X-1.5836 Y0.6043 
G01 X-1.5823 Y0.6108 
G01 X-1.5798 Y0.6169 
G01 X-1.5761 Y0.6224 
G01 X-1.5714 Y0.6271 
G01 X-1.5659 Y0.6308 
G01 X-1.5598 Y0.6333 
G01 X-1.5542 Y0.6344 
G01 X-1.5810 Y0.6344 
G01 X-1.6279 Y0.5875 
G01 X-1.6315 Y0.5855 
G01 X-1.6354 Y0.5844 
G01 X-1.6396 Y0.5844 
G01 X-1.6920 Y0.5844 
G01 X-1.7494 Y0.5041 
G01 X-1.7500 Y0.5029 
G01 X-1.7506 Y0.5024 
G01 X-1.7510 Y0.5018 
G01 X-1.7520 Y0.5009 
G01 X-1.7529 Y0.5000 
G01 X-1.7536 Y0.4996 
G01 X-1.7542 Y0.4992 
G01 X-1.7554 Y0.4986 
G01 X-1.7565 Y0.4980 
G01 X-1.7572 Y0.4978 
G01 X-1.7579 Y0.4975 
G01 X-1.7592 Y0.4972 
G01 X-1.7604 Y0.4969 
G01 X-1.7612 Y0.4969 
G01 X-1.7620 Y0.4968 
G01 X-1.7633 Y0.4969 
G01 X-1.8116 Y0.4969 
G01 X-1.8128 Y0.4968 
G01 X-1.8137 Y0.4969 
G01 X-1.8146 Y0.4969 
G01 X-1.8157 Y0.4972 
G01 X-1.8169 Y0.4974 
G01 X-1.8177 Y0.4977 
G01 X-1.8185 Y0.4980 
G01 X-1.8195 Y0.4986 
G01 X-1.8206 Y0.4990 
G01 X-1.8213 Y0.4996 
G01 X-1.8221 Y0.5000 
G01 X-1.8229 Y0.5009 
G01 X-1.8558 Y0.5271 
G01 X-1.8560 Y0.5270 
G01 X-1.8633 Y0.5239 
G01 X-1.8710 Y0.5224 
G01 X-1.8789 Y0.5224 
G01 X-1.8867 Y0.5239 
G01 X-1.8940 Y0.5270 
G01 X-1.9006 Y0.5314 
G01 X-1.9061 Y0.5369 
G01 X-1.9105 Y0.5435 
G01 X-1.9136 Y0.5508 
G01 X-1.9151 Y0.5585 
G00 Z0.0200 
G00 X-1.9763 Y0.6874 
G01 Z-0.0050 F2.50  
G01 X-2.0437 Y0.6874 
G01 X-2.0510 Y0.6889 
G01 X-2.0578 Y0.6917 
G01 X-2.0640 Y0.6958 
G01 X-2.0692 Y0.7010 
G01 X-2.0733 Y0.7072 
G01 X-2.0761 Y0.7140 
G01 X-2.0776 Y0.7213 
G01 X-2.0776 Y0.7287 
G01 X-2.0761 Y0.7360 
G01 X-2.0733 Y0.7428 
G01 X-2.0692 Y0.7490 
G01 X-2.0640 Y0.7542 
G01 X-2.0578 Y0.7583 
G01 X-2.0510 Y0.7611 
G01 X-2.0437 Y0.7626 
G01 X-1.9763 Y0.7626 
G01 X-1.9690 Y0.7611 
G01 X-1.9622 Y0.7583 
G01 X-1.9560 Y0.7542 
G01 X-1.9508 Y0.7490 
G01 X-1.9467 Y0.7428 
G01 X-1.9458 Y0.7406 
G01 X-1.9146 Y0.7406 
G01 X-1.9104 Y0.7406 
G01 X-1.9065 Y0.7395 
G01 X-1.9029 Y0.7375 
G01 X-1.9000 Y0.7346 
G01 X-1.8980 Y0.7310 
G01 X-1.8969 Y0.7271 
G01 X-1.8969 Y0.7065 
G01 X-1.8901 Y0.6996 
G01 X-1.8867 Y0.7011 
G01 X-1.8789 Y0.7026 
G01 X-1.8710 Y0.7026 
G01 X-1.8633 Y0.7011 
G01 X-1.8560 Y0.6980 
G01 X-1.8494 Y0.6936 
G01 X-1.8439 Y0.6881 
G01 X-1.8395 Y0.6815 
G01 X-1.8364 Y0.6742 
G01 X-1.8349 Y0.6664 
G01 X-1.8349 Y0.6585 
G01 X-1.8364 Y0.6508 
G01 X-1.8395 Y0.6435 
G01 X-1.8439 Y0.6369 
G01 X-1.8494 Y0.6314 
G01 X-1.8560 Y0.6270 
G01 X-1.8633 Y0.6239 
G01 X-1.8710 Y0.6224 
G01 X-1.8789 Y0.6224 
G01 X-1.8867 Y0.6239 
G01 X-1.8940 Y0.6270 
G01 X-1.9006 Y0.6314 
G01 X-1.9061 Y0.6369 
G01 X-1.9105 Y0.6435 
G01 X-1.9136 Y0.6508 
G01 X-1.9151 Y0.6585 
G01 X-1.9151 Y0.6664 
G01 X-1.9136 Y0.6742 
G01 X-1.9121 Y0.6776 
G01 X-1.9250 Y0.6904 
G01 X-1.9270 Y0.6940 
G01 X-1.9281 Y0.6979 
G01 X-1.9281 Y0.7021 
G01 X-1.9281 Y0.7094 
G01 X-1.9458 Y0.7094 
G01 X-1.9467 Y0.7072 
G01 X-1.9508 Y0.7010 
G01 X-1.9560 Y0.6958 
G01 X-1.9622 Y0.6917 
G01 X-1.9690 Y0.6889 
G01 X-1.9763 Y0.6874 
G00 Z0.0200 
G00 X-1.9663 Y0.3874 
G01 Z-0.0050 F2.50  
G01 X-2.0337 Y0.3874 
G01 X-2.0410 Y0.3889 
G01 X-2.0478 Y0.3917 
G01 X-2.0540 Y0.3958 
G01 X-2.0592 Y0.4010 
G01 X-2.0633 Y0.4072 
G01 X-2.0661 Y0.4140 
G01 X-2.0676 Y0.4213 
G01 X-2.0676 Y0.4287 
G01 X-2.0661 Y0.4360 
G01 X-2.0633 Y0.4428 
G01 X-2.0592 Y0.4490 
G01 X-2.0540 Y0.4542 
G01 X-2.0478 Y0.4583 
G01 X-2.0410 Y0.4611 
G01 X-2.0337 Y0.4626 
G01 X-1.9663 Y0.4626 
G01 X-1.9590 Y0.4611 
G01 X-1.9522 Y0.4583 
G01 X-1.9460 Y0.4542 
G01 X-1.9408 Y0.4490 
G01 X-1.9367 Y0.4428 
G01 X-1.9339 Y0.4360 
G01 X-1.9324 Y0.4287 
G01 X-1.9324 Y0.4213 
G01 X-1.9339 Y0.4140 
G01 X-1.9367 Y0.4072 
G01 X-1.9408 Y0.4010 
G01 X-1.9460 Y0.3958 
G01 X-1.9522 Y0.3917 
G01 X-1.9590 Y0.3889 
G01 X-1.9663 Y0.3874 
G00 Z0.0200 
G00 X-2.0480 Y0.8690 
G01 Z-0.0050 F2.50  
G01 X-2.0436 Y0.8756 
G01 X-2.0381 Y0.8811 
G01 X-2.0315 Y0.8855 
G01 X-2.0242 Y0.8886 
G01 X-2.0164 Y0.8901 
G01 X-2.0085 Y0.8901 
G01 X-2.0008 Y0.8886 
G01 X-1.9935 Y0.8855 
G01 X-1.9869 Y0.8811 
G01 X-1.9814 Y0.8756 
G01 X-1.9770 Y0.8690 
G01 X-1.9756 Y0.8656 
G01 X-1.9190 Y0.8656 
G01 X-1.9031 Y0.8815 
G01 X-1.9031 Y1.0021 
G01 X-1.9020 Y1.0060 
G01 X-1.9000 Y1.0096 
G01 X-1.8971 Y1.0125 
G01 X-1.8935 Y1.0145 
G01 X-1.8896 Y1.0156 
G01 X-1.8854 Y1.0156 
G01 X-1.8836 Y1.0151 
G01 X-1.8811 Y1.0151 
G01 X-1.8808 Y1.0159 
G01 X-1.8771 Y1.0214 
G01 X-1.8724 Y1.0261 
G01 X-1.8669 Y1.0298 
G01 X-1.8608 Y1.0323 
G01 X-1.8543 Y1.0336 
G01 X-1.7957 Y1.0336 
G01 X-1.7892 Y1.0323 
G01 X-1.7831 Y1.0298 
G01 X-1.7776 Y1.0261 
G01 X-1.7739 Y1.0224 
G01 X-1.7276 Y1.0688 
G01 X-1.7276 Y1.2359 
G01 X-1.7277 Y1.2363 
G01 X-1.7276 Y1.2379 
G01 X-1.7276 Y1.2395 
G01 X-1.7275 Y1.2399 
G01 X-1.7275 Y1.2403 
G01 X-1.7270 Y1.2418 
G01 X-1.7266 Y1.2433 
G01 X-1.7264 Y1.2437 
G01 X-1.7262 Y1.2441 
G01 X-1.7254 Y1.2454 
G01 X-1.7246 Y1.2468 
G01 X-1.7243 Y1.2471 
G01 X-1.7241 Y1.2474 
G01 X-1.7229 Y1.2484 
G01 X-1.7218 Y1.2496 
G01 X-1.7214 Y1.2498 
G01 X-1.5979 Y1.3610 
G01 X-1.5968 Y1.3621 
G01 X-1.5964 Y1.3623 
G01 X-1.5961 Y1.3625 
G01 X-1.5947 Y1.3633 
G01 X-1.5933 Y1.3641 
G01 X-1.5929 Y1.3642 
G01 X-1.5926 Y1.3644 
G01 X-1.5910 Y1.3647 
G01 X-1.5895 Y1.3651 
G01 X-1.5891 Y1.3651 
G01 X-1.5887 Y1.3652 
G01 X-1.5871 Y1.3651 
G01 X-1.3730 Y1.3651 
G01 X-1.3692 Y1.3641 
G01 X-1.3657 Y1.3621 
G01 X-1.3629 Y1.3593 
G01 X-1.2733 Y1.2696 
G01 X-1.2678 Y1.2733 
G01 X-1.2610 Y1.2761 
G01 X-1.2537 Y1.2776 
G01 X-1.2463 Y1.2776 
G01 X-1.2390 Y1.2761 
G01 X-1.2322 Y1.2733 
G01 X-1.2260 Y1.2692 
G01 X-1.2208 Y1.2640 
G01 X-1.2167 Y1.2578 
G01 X-1.2139 Y1.2510 
G01 X-1.2124 Y1.2437 
G01 X-1.2124 Y1.1763 
G01 X-1.2139 Y1.1690 
G01 X-1.2167 Y1.1622 
G01 X-1.2208 Y1.1560 
G01 X-1.2260 Y1.1508 
G01 X-1.2322 Y1.1467 
G01 X-1.2390 Y1.1439 
G01 X-1.2463 Y1.1424 
G01 X-1.2520 Y1.1424 
G01 X-1.2724 Y1.1083 
G01 X-1.2724 Y1.0199 
G01 X-1.2539 Y1.0014 
G01 X-1.2539 Y0.9736 
G01 X-1.2736 Y0.9539 
G01 X-1.3014 Y0.9539 
G01 X-1.3211 Y0.9736 
G01 X-1.3211 Y1.0014 
G01 X-1.3026 Y1.0199 
G01 X-1.3026 Y1.1106 
G01 X-1.3026 Y1.1108 
G01 X-1.3026 Y1.1126 
G01 X-1.3026 Y1.1145 
G01 X-1.3026 Y1.1146 
G01 X-1.3026 Y1.1147 
G01 X-1.3021 Y1.1165 
G01 X-1.3016 Y1.1183 
G01 X-1.3015 Y1.1184 
G01 X-1.3015 Y1.1186 
G01 X-1.3006 Y1.1200 
G01 X-1.2996 Y1.1218 
G01 X-1.2995 Y1.1219 
G01 X-1.2791 Y1.1559 
G01 X-1.2792 Y1.1560 
G01 X-1.2833 Y1.1622 
G01 X-1.2861 Y1.1690 
G01 X-1.2876 Y1.1763 
G01 X-1.2876 Y1.2412 
G01 X-1.3813 Y1.3349 
G01 X-1.5817 Y1.3349 
G01 X-1.6974 Y1.2308 
G01 X-1.6974 Y1.0645 
G01 X-1.6974 Y1.0605 
G01 X-1.6984 Y1.0567 
G01 X-1.7004 Y1.0532 
G01 X-1.7629 Y0.9907 
G01 X-1.7657 Y0.9879 
G01 X-1.7682 Y0.9865 
G01 X-1.7692 Y0.9841 
G01 X-1.7729 Y0.9786 
G01 X-1.7776 Y0.9739 
G01 X-1.7831 Y0.9702 
G01 X-1.7892 Y0.9677 
G01 X-1.7957 Y0.9664 
G01 X-1.8543 Y0.9664 
G01 X-1.8608 Y0.9677 
G01 X-1.8669 Y0.9702 
G01 X-1.8719 Y0.9736 
G01 X-1.8719 Y0.8771 
G01 X-1.8719 Y0.8729 
G01 X-1.8730 Y0.8690 
G01 X-1.8750 Y0.8654 
G01 X-1.9000 Y0.8404 
G01 X-1.9029 Y0.8375 
G01 X-1.9065 Y0.8355 
G01 X-1.9104 Y0.8344 
G01 X-1.9756 Y0.8344 
G01 X-1.9770 Y0.8310 
G01 X-1.9814 Y0.8244 
G01 X-1.9869 Y0.8189 
G01 X-1.9935 Y0.8145 
G01 X-2.0008 Y0.8114 
G01 X-2.0085 Y0.8099 
G01 X-2.0164 Y0.8099 
G01 X-2.0242 Y0.8114 
G01 X-2.0315 Y0.8145 
G01 X-2.0381 Y0.8189 
G01 X-2.0436 Y0.8244 
G01 X-2.0480 Y0.8310 
G01 X-2.0494 Y0.8344 
G01 X-2.0771 Y0.8344 
G01 X-2.0810 Y0.8355 
G01 X-2.0846 Y0.8375 
G01 X-2.0875 Y0.8404 
G01 X-2.0940 Y0.8469 
G01 X-2.1219 Y0.8469 
G01 X-2.1219 Y0.6690 
G01 X-2.0904 Y0.6375 
G01 X-2.0875 Y0.6346 
G01 X-2.0855 Y0.6310 
G01 X-2.0844 Y0.6271 
G01 X-2.0844 Y0.3690 
G01 X-2.0668 Y0.3514 
G01 X-2.0640 Y0.3542 
G01 X-2.0578 Y0.3583 
G01 X-2.0510 Y0.3611 
G01 X-2.0437 Y0.3626 
G01 X-1.9763 Y0.3626 
G01 X-1.9690 Y0.3611 
G01 X-1.9622 Y0.3583 
G01 X-1.9560 Y0.3542 
G01 X-1.9508 Y0.3490 
G01 X-1.9467 Y0.3428 
G01 X-1.9458 Y0.3406 
G01 X-1.9065 Y0.3406 
G01 X-1.8936 Y0.3535 
G01 X-1.8936 Y0.4048 
G01 X-1.8958 Y0.4057 
G01 X-1.9020 Y0.4098 
G01 X-1.9072 Y0.4150 
G01 X-1.9113 Y0.4212 
G01 X-1.9141 Y0.4280 
G01 X-1.9156 Y0.4353 
G01 X-1.9156 Y0.4427 
G01 X-1.9141 Y0.4500 
G01 X-1.9113 Y0.4568 
G01 X-1.9072 Y0.4630 
G01 X-1.9020 Y0.4682 
G01 X-1.8958 Y0.4723 
G01 X-1.8890 Y0.4751 
G01 X-1.8817 Y0.4766 
G01 X-1.8743 Y0.4766 
G01 X-1.8670 Y0.4751 
G01 X-1.8602 Y0.4723 
G01 X-1.8540 Y0.4682 
G01 X-1.8488 Y0.4630 
G01 X-1.8447 Y0.4568 
G01 X-1.8419 Y0.4500 
G01 X-1.8404 Y0.4427 
G01 X-1.8404 Y0.4353 
G01 X-1.8419 Y0.4280 
G01 X-1.8427 Y0.4260 
G01 X-1.8314 Y0.4151 
G01 X-1.6686 Y0.4151 
G01 X-1.6573 Y0.4260 
G01 X-1.6581 Y0.4280 
G01 X-1.6596 Y0.4353 
G01 X-1.6596 Y0.4427 
G01 X-1.6581 Y0.4500 
G01 X-1.6553 Y0.4568 
G01 X-1.6512 Y0.4630 
G01 X-1.6460 Y0.4682 
G01 X-1.6398 Y0.4723 
G01 X-1.6330 Y0.4751 
G01 X-1.6257 Y0.4766 
G01 X-1.6183 Y0.4766 
G01 X-1.6110 Y0.4751 
G01 X-1.6042 Y0.4723 
G01 X-1.5980 Y0.4682 
G01 X-1.5928 Y0.4630 
G01 X-1.5887 Y0.4568 
G01 X-1.5859 Y0.4500 
G01 X-1.5844 Y0.4427 
G01 X-1.5844 Y0.4353 
G01 X-1.5859 Y0.4280 
G01 X-1.5887 Y0.4212 
G01 X-1.5928 Y0.4150 
G01 X-1.5980 Y0.4098 
G01 X-1.6042 Y0.4057 
G01 X-1.6110 Y0.4029 
G01 X-1.6183 Y0.4014 
G01 X-1.6257 Y0.4014 
G01 X-1.6330 Y0.4029 
G01 X-1.6363 Y0.4042 
G01 X-1.6519 Y0.3893 
G01 X-1.6532 Y0.3879 
G01 X-1.6534 Y0.3878 
G01 X-1.6535 Y0.3877 
G01 X-1.6551 Y0.3869 
G01 X-1.6567 Y0.3859 
G01 X-1.6568 Y0.3859 
G01 X-1.6569 Y0.3858 
G01 X-1.6587 Y0.3854 
G01 X-1.6605 Y0.3849 
G01 X-1.6607 Y0.3849 
G01 X-1.6608 Y0.3849 
G01 X-1.6627 Y0.3849 
G01 X-1.8373 Y0.3849 
G01 X-1.8392 Y0.3849 
G01 X-1.8393 Y0.3849 
G01 X-1.8395 Y0.3849 
G01 X-1.8413 Y0.3854 
G01 X-1.8431 Y0.3858 
G01 X-1.8432 Y0.3859 
G01 X-1.8433 Y0.3859 
G01 X-1.8449 Y0.3869 
G01 X-1.8465 Y0.3877 
G01 X-1.8466 Y0.3878 
G01 X-1.8468 Y0.3879 
G01 X-1.8481 Y0.3893 
G01 X-1.8624 Y0.4030 
G01 X-1.8624 Y0.3491 
G01 X-1.8624 Y0.3449 
G01 X-1.8635 Y0.3410 
G01 X-1.8655 Y0.3374 
G01 X-1.8875 Y0.3154 
G01 X-1.8904 Y0.3125 
G01 X-1.8940 Y0.3105 
G01 X-1.8979 Y0.3094 
G01 X-1.9458 Y0.3094 
G01 X-1.9467 Y0.3072 
G01 X-1.9508 Y0.3010 
G01 X-1.9560 Y0.2958 
G01 X-1.9622 Y0.2917 
G01 X-1.9690 Y0.2889 
G01 X-1.9763 Y0.2874 
G01 X-1.9844 Y0.2874 
G01 X-1.9844 Y0.2626 
G01 X-1.9663 Y0.2626 
G01 X-1.9590 Y0.2611 
G01 X-1.9522 Y0.2583 
G01 X-1.9460 Y0.2542 
G01 X-1.9408 Y0.2490 
G01 X-1.9367 Y0.2428 
G01 X-1.9339 Y0.2360 
G01 X-1.9324 Y0.2287 
G01 X-1.9324 Y0.2213 
G01 X-1.9336 Y0.2151 
G01 X-1.6063 Y0.2151 
G01 X-1.5871 Y0.2343 
G01 X-1.5871 Y0.2343 
G01 X-1.5843 Y0.2371 
G01 X-1.5808 Y0.2391 
G01 X-1.5770 Y0.2401 
G01 X-1.4563 Y0.2401 
G01 X-1.2901 Y0.4063 
G01 X-1.2901 Y0.4334 
G01 X-1.2936 Y0.4369 
G01 X-1.2980 Y0.4435 
G01 X-1.3011 Y0.4508 
G01 X-1.3026 Y0.4585 
G01 X-1.3026 Y0.4664 
G01 X-1.3011 Y0.4742 
G01 X-1.2980 Y0.4815 
G01 X-1.2936 Y0.4881 
G01 X-1.2881 Y0.4936 
G01 X-1.2815 Y0.4980 
G01 X-1.2742 Y0.5011 
G01 X-1.2664 Y0.5026 
G01 X-1.2585 Y0.5026 
G01 X-1.2508 Y0.5011 
G01 X-1.2435 Y0.4980 
G01 X-1.2369 Y0.4936 
G01 X-1.2314 Y0.4881 
G01 X-1.2270 Y0.4815 
G01 X-1.2239 Y0.4742 
G01 X-1.2224 Y0.4664 
G01 X-1.2224 Y0.4585 
G01 X-1.2239 Y0.4508 
G01 X-1.2270 Y0.4435 
G01 X-1.2314 Y0.4369 
G01 X-1.2369 Y0.4314 
G01 X-1.2435 Y0.4270 
G01 X-1.2508 Y0.4239 
G01 X-1.2585 Y0.4224 
G01 X-1.2599 Y0.4224 
G01 X-1.2599 Y0.4151 
G01 X-1.1395 Y0.4151 
G01 X-1.0926 Y0.4151 
G01 X-1.0926 Y0.4337 
G01 X-1.0911 Y0.4410 
G01 X-1.0883 Y0.4478 
G01 X-1.0842 Y0.4540 
G01 X-1.0790 Y0.4592 
G01 X-1.0728 Y0.4633 
G01 X-1.0660 Y0.4661 
G01 X-1.0656 Y0.4662 
G01 X-1.0656 Y0.4708 
G01 X-1.0645 Y0.4748 
G01 X-1.0625 Y0.4783 
G01 X-1.0596 Y0.4812 
G01 X-1.0283 Y0.5125 
G01 X-1.0248 Y0.5145 
G01 X-1.0208 Y0.5156 
G01 X-1.0167 Y0.5156 
G01 X-0.9656 Y0.5156 
G01 X-0.9656 Y0.5191 
G01 X-0.9659 Y0.5192 
G01 X-0.9714 Y0.5229 
G01 X-0.9761 Y0.5276 
G01 X-0.9798 Y0.5331 
G01 X-0.9823 Y0.5392 
G01 X-0.9836 Y0.5457 
G01 X-0.9836 Y0.6043 
G01 X-0.9823 Y0.6108 
G01 X-0.9798 Y0.6169 
G01 X-0.9761 Y0.6224 
G01 X-0.9714 Y0.6271 
G01 X-0.9659 Y0.6308 
G01 X-0.9598 Y0.6333 
G01 X-0.9533 Y0.6346 
G01 X-0.9467 Y0.6346 
G01 X-0.9402 Y0.6333 
G01 X-0.9341 Y0.6308 
G01 X-0.9286 Y0.6271 
G01 X-0.9239 Y0.6224 
G01 X-0.9202 Y0.6169 
G01 X-0.9177 Y0.6108 
G01 X-0.9164 Y0.6043 
G01 X-0.9164 Y0.5457 
G01 X-0.9177 Y0.5392 
G01 X-0.9202 Y0.5331 
G01 X-0.9239 Y0.5276 
G01 X-0.9286 Y0.5229 
G01 X-0.9341 Y0.5192 
G01 X-0.9344 Y0.5191 
G01 X-0.9344 Y0.5156 
G01 X-0.9021 Y0.5156 
G01 X-0.8979 Y0.5156 
G01 X-0.8940 Y0.5145 
G01 X-0.8904 Y0.5125 
G01 X-0.8529 Y0.4750 
G01 X-0.8500 Y0.4721 
G01 X-0.8480 Y0.4685 
G01 X-0.8469 Y0.4646 
G01 X-0.8469 Y0.3690 
G01 X-0.8310 Y0.3531 
G01 X-0.7994 Y0.3531 
G01 X-0.7980 Y0.3565 
G01 X-0.7936 Y0.3631 
G01 X-0.7881 Y0.3686 
G01 X-0.7815 Y0.3730 
G01 X-0.7742 Y0.3761 
G01 X-0.7664 Y0.3776 
G01 X-0.7585 Y0.3776 
G01 X-0.7508 Y0.3761 
G01 X-0.7435 Y0.3730 
G01 X-0.7369 Y0.3686 
G01 X-0.7327 Y0.3644 
G01 X-0.7156 Y0.3815 
G01 X-0.7156 Y0.6810 
G01 X-0.8500 Y0.8154 
G01 X-0.8533 Y0.8154 
G01 X-0.8598 Y0.8167 
G01 X-0.8659 Y0.8192 
G01 X-0.8714 Y0.8229 
G01 X-0.8761 Y0.8276 
G01 X-0.8798 Y0.8331 
G01 X-0.8823 Y0.8392 
G01 X-0.8836 Y0.8457 
G01 X-0.8836 Y0.9043 
G01 X-0.8823 Y0.9108 
G01 X-0.8798 Y0.9169 
G01 X-0.8761 Y0.9224 
G01 X-0.8714 Y0.9271 
G01 X-0.8659 Y0.9308 
G01 X-0.8598 Y0.9333 
G01 X-0.8533 Y0.9346 
G01 X-0.8500 Y0.9346 
G01 X-0.8471 Y0.9375 
G01 X-0.8435 Y0.9395 
G01 X-0.8396 Y0.9406 
G01 X-0.8354 Y0.9406 
G01 X-0.8315 Y0.9406 
G01 X-0.7898 Y0.9822 
G01 X-0.7901 Y0.9835 
G01 X-0.7901 Y0.9914 
G01 X-0.7886 Y0.9992 
G01 X-0.7855 Y1.0065 
G01 X-0.7811 Y1.0131 
G01 X-0.7756 Y1.0186 
G01 X-0.7690 Y1.0230 
G01 X-0.7617 Y1.0261 
G01 X-0.7539 Y1.0276 
G01 X-0.7460 Y1.0276 
G01 X-0.7383 Y1.0261 
G01 X-0.7349 Y1.0246 
G01 X-0.7077 Y1.0518 
G01 X-0.7105 Y1.0560 
G01 X-0.7136 Y1.0633 
G01 X-0.7151 Y1.0710 
G01 X-0.7151 Y1.0789 
G01 X-0.7136 Y1.0867 
G01 X-0.7105 Y1.0940 
G01 X-0.7061 Y1.1006 
G01 X-0.7006 Y1.1061 
G01 X-0.6940 Y1.1105 
G01 X-0.6867 Y1.1136 
G01 X-0.6789 Y1.1151 
G01 X-0.6710 Y1.1151 
G01 X-0.6633 Y1.1136 
G01 X-0.6560 Y1.1105 
G01 X-0.6494 Y1.1061 
G01 X-0.6439 Y1.1006 
G01 X-0.6395 Y1.0940 
G01 X-0.6364 Y1.0867 
G01 X-0.6349 Y1.0789 
G01 X-0.6349 Y1.0710 
G01 X-0.6364 Y1.0633 
G01 X-0.6395 Y1.0560 
G01 X-0.6439 Y1.0494 
G01 X-0.6494 Y1.0439 
G01 X-0.6560 Y1.0395 
G01 X-0.6633 Y1.0364 
G01 X-0.6710 Y1.0349 
G01 X-0.6789 Y1.0349 
G01 X-0.6803 Y1.0352 
G01 X-0.7129 Y1.0026 
G01 X-0.7114 Y0.9992 
G01 X-0.7099 Y0.9914 
G01 X-0.7099 Y0.9835 
G01 X-0.7114 Y0.9758 
G01 X-0.7145 Y0.9685 
G01 X-0.7189 Y0.9619 
G01 X-0.7244 Y0.9564 
G01 X-0.7310 Y0.9520 
G01 X-0.7383 Y0.9489 
G01 X-0.7460 Y0.9474 
G01 X-0.7539 Y0.9474 
G01 X-0.7617 Y0.9489 
G01 X-0.7690 Y0.9520 
G01 X-0.7732 Y0.9548 
G01 X-0.8125 Y0.9154 
G01 X-0.8125 Y0.9154 
G01 X-0.8154 Y0.9125 
G01 X-0.8178 Y0.9111 
G01 X-0.8177 Y0.9108 
G01 X-0.8164 Y0.9043 
G01 X-0.8164 Y0.8457 
G01 X-0.8177 Y0.8392 
G01 X-0.8202 Y0.8331 
G01 X-0.8216 Y0.8311 
G01 X-0.6904 Y0.7000 
G01 X-0.6875 Y0.6971 
G01 X-0.6855 Y0.6935 
G01 X-0.6844 Y0.6896 
G01 X-0.6844 Y0.3771 
G01 X-0.6844 Y0.3729 
G01 X-0.6855 Y0.3690 
G01 X-0.6875 Y0.3654 
G01 X-0.7232 Y0.3298 
G01 X-0.7239 Y0.3258 
G01 X-0.7270 Y0.3185 
G01 X-0.7314 Y0.3119 
G01 X-0.7369 Y0.3064 
G01 X-0.7435 Y0.3020 
G01 X-0.7508 Y0.2989 
G01 X-0.7585 Y0.2974 
G01 X-0.7664 Y0.2974 
G01 X-0.7742 Y0.2989 
G01 X-0.7815 Y0.3020 
G01 X-0.7881 Y0.3064 
G01 X-0.7936 Y0.3119 
G01 X-0.7980 Y0.3185 
G01 X-0.7994 Y0.3219 
G01 X-0.8396 Y0.3219 
G01 X-0.8435 Y0.3230 
G01 X-0.8471 Y0.3250 
G01 X-0.8500 Y0.3279 
G01 X-0.8750 Y0.3529 
G01 X-0.8770 Y0.3565 
G01 X-0.8781 Y0.3604 
G01 X-0.8781 Y0.3646 
G01 X-0.8781 Y0.4560 
G01 X-0.9065 Y0.4844 
G01 X-0.9479 Y0.4844 
G01 X-1.0123 Y0.4844 
G01 X-1.0344 Y0.4623 
G01 X-1.0344 Y0.4614 
G01 X-1.0310 Y0.4592 
G01 X-1.0258 Y0.4540 
G01 X-1.0217 Y0.4478 
G01 X-1.0189 Y0.4410 
G01 X-1.0174 Y0.4337 
G01 X-1.0174 Y0.3663 
G01 X-1.0189 Y0.3590 
G01 X-1.0217 Y0.3522 
G01 X-1.0258 Y0.3460 
G01 X-1.0310 Y0.3408 
G01 X-1.0372 Y0.3367 
G01 X-1.0440 Y0.3339 
G01 X-1.0513 Y0.3324 
G01 X-1.0587 Y0.3324 
G01 X-1.0660 Y0.3339 
G01 X-1.0728 Y0.3367 
G01 X-1.0790 Y0.3408 
G01 X-1.0842 Y0.3460 
G01 X-1.0883 Y0.3522 
G01 X-1.0911 Y0.3590 
G01 X-1.0926 Y0.3663 
G01 X-1.0926 Y0.3849 
G01 X-1.1224 Y0.3849 
G01 X-1.1224 Y0.2688 
G01 X-1.1187 Y0.2651 
G01 X-1.1170 Y0.2651 
G01 X-1.1163 Y0.2671 
G01 X-1.1131 Y0.2734 
G01 X-1.1090 Y0.2790 
G01 X-1.1040 Y0.2840 
G01 X-1.0984 Y0.2881 
G01 X-1.0921 Y0.2913 
G01 X-1.0854 Y0.2935 
G01 X-1.0785 Y0.2946 
G01 X-1.0715 Y0.2946 
G01 X-1.0646 Y0.2935 
G01 X-1.0579 Y0.2913 
G01 X-1.0516 Y0.2881 
G01 X-1.0459 Y0.2840 
G01 X-1.0410 Y0.2790 
G01 X-1.0369 Y0.2734 
G01 X-1.0337 Y0.2671 
G01 X-1.0315 Y0.2604 
G01 X-1.0304 Y0.2535 
G01 X-1.0304 Y0.2465 
G01 X-1.0315 Y0.2396 
G01 X-1.0337 Y0.2329 
G01 X-1.0369 Y0.2266 
G01 X-1.0410 Y0.2209 
G01 X-1.0459 Y0.2160 
G01 X-1.0516 Y0.2119 
G01 X-1.0579 Y0.2087 
G01 X-1.0646 Y0.2065 
G01 X-1.0715 Y0.2054 
G01 X-1.0785 Y0.2054 
G01 X-1.0854 Y0.2065 
G01 X-1.0921 Y0.2087 
G01 X-1.0984 Y0.2119 
G01 X-1.1040 Y0.2160 
G01 X-1.1090 Y0.2209 
G01 X-1.1131 Y0.2266 
G01 X-1.1163 Y0.2329 
G01 X-1.1170 Y0.2349 
G01 X-1.1270 Y0.2349 
G01 X-1.1308 Y0.2359 
G01 X-1.1343 Y0.2379 
G01 X-1.1371 Y0.2407 
G01 X-1.1371 Y0.2407 
G01 X-1.1496 Y0.2532 
G01 X-1.1516 Y0.2567 
G01 X-1.1526 Y0.2605 
G01 X-1.1526 Y0.2645 
G01 X-1.1526 Y0.3849 
G01 X-1.2687 Y0.3849 
G01 X-1.4407 Y0.2129 
G01 X-1.4442 Y0.2109 
G01 X-1.4480 Y0.2099 
G01 X-1.4520 Y0.2099 
G01 X-1.5687 Y0.2099 
G01 X-1.5879 Y0.1907 
G01 X-1.5907 Y0.1879 
G01 X-1.5942 Y0.1859 
G01 X-1.5980 Y0.1849 
G01 X-1.9461 Y0.1849 
G01 X-1.9479 Y0.1844 
G01 X-1.9521 Y0.1844 
G01 X-1.9560 Y0.1855 
G01 X-1.9596 Y0.1875 
G01 X-1.9606 Y0.1885 
G01 X-1.9663 Y0.1874 
G01 X-2.0337 Y0.1874 
G01 X-2.0410 Y0.1889 
G01 X-2.0478 Y0.1917 
G01 X-2.0540 Y0.1958 
G01 X-2.0592 Y0.2010 
G01 X-2.0633 Y0.2072 
G01 X-2.0661 Y0.2140 
G01 X-2.0676 Y0.2213 
G01 X-2.0676 Y0.2287 
G01 X-2.0661 Y0.2360 
G01 X-2.0633 Y0.2428 
G01 X-2.0592 Y0.2490 
G01 X-2.0540 Y0.2542 
G01 X-2.0478 Y0.2583 
G01 X-2.0410 Y0.2611 
G01 X-2.0337 Y0.2626 
G01 X-2.0156 Y0.2626 
G01 X-2.0156 Y0.2874 
G01 X-2.0437 Y0.2874 
G01 X-2.0510 Y0.2889 
G01 X-2.0578 Y0.2917 
G01 X-2.0640 Y0.2958 
G01 X-2.0692 Y0.3010 
G01 X-2.0733 Y0.3072 
G01 X-2.0761 Y0.3140 
G01 X-2.0768 Y0.3172 
G01 X-2.1096 Y0.3500 
G01 X-2.1096 Y0.3500 
G01 X-2.1125 Y0.3529 
G01 X-2.1145 Y0.3565 
G01 X-2.1156 Y0.3604 
G01 X-2.1156 Y0.6185 
G01 X-2.1500 Y0.6529 
G01 X-2.1520 Y0.6565 
G01 X-2.1531 Y0.6604 
G01 X-2.1531 Y0.6646 
G01 X-2.1531 Y0.8469 
G01 X-2.1969 Y0.8469 
G01 X-2.1969 Y0.8229 
G01 X-2.1980 Y0.8190 
G01 X-2.2000 Y0.8154 
G01 X-2.2029 Y0.8125 
G01 X-2.2529 Y0.7625 
G01 X-2.2565 Y0.7605 
G01 X-2.2604 Y0.7594 
G01 X-2.2646 Y0.7594 
G01 X-2.3521 Y0.7594 
G01 X-2.3560 Y0.7605 
G01 X-2.3596 Y0.7625 
G01 X-2.3625 Y0.7654 
G01 X-2.4025 Y0.8054 
G01 X-2.4035 Y0.8054 
G01 X-2.4104 Y0.8065 
G01 X-2.4171 Y0.8087 
G01 X-2.4234 Y0.8119 
G01 X-2.4290 Y0.8160 
G01 X-2.4340 Y0.8209 
G01 X-2.4381 Y0.8266 
G01 X-2.4413 Y0.8329 
G01 X-2.4435 Y0.8396 
G01 X-2.4446 Y0.8465 
G01 X-2.4446 Y0.8535 
G01 X-2.4435 Y0.8604 
G01 X-2.4413 Y0.8671 
G01 X-2.4381 Y0.8734 
G01 X-2.4340 Y0.8790 
G01 X-2.4290 Y0.8840 
G01 X-2.4234 Y0.8881 
G01 X-2.4171 Y0.8913 
G01 X-2.4104 Y0.8935 
G01 X-2.4035 Y0.8946 
G01 X-2.3965 Y0.8946 
G01 X-2.3896 Y0.8935 
G01 X-2.3829 Y0.8913 
G01 X-2.3766 Y0.8881 
G01 X-2.3709 Y0.8840 
G01 X-2.3660 Y0.8790 
G01 X-2.3619 Y0.8734 
G01 X-2.3587 Y0.8671 
G01 X-2.3565 Y0.8604 
G01 X-2.3554 Y0.8535 
G01 X-2.3554 Y0.8465 
G01 X-2.3565 Y0.8396 
G01 X-2.3587 Y0.8329 
G01 X-2.3619 Y0.8266 
G01 X-2.3660 Y0.8209 
G01 X-2.3699 Y0.8170 
G01 X-2.3435 Y0.7906 
G01 X-2.2690 Y0.7906 
G01 X-2.2281 Y0.8315 
G01 X-2.2281 Y0.8604 
G01 X-2.2281 Y0.8646 
G01 X-2.2270 Y0.8685 
G01 X-2.2250 Y0.8721 
G01 X-2.2221 Y0.8750 
G01 X-2.2185 Y0.8770 
G01 X-2.2146 Y0.8781 
G01 X-2.1354 Y0.8781 
G01 X-2.0896 Y0.8781 
G01 X-2.0854 Y0.8781 
G01 X-2.0815 Y0.8770 
G01 X-2.0779 Y0.8750 
G01 X-2.0685 Y0.8656 
G01 X-2.0494 Y0.8656 
G01 X-2.0480 Y0.8690 
G00 Z0.0200 
G00 X-0.8901 Y0.9835 
G01 Z-0.0050 F2.50  
G01 X-0.8901 Y0.9914 
G01 X-0.8886 Y0.9992 
G01 X-0.8855 Y1.0065 
G01 X-0.8811 Y1.0131 
G01 X-0.8756 Y1.0186 
G01 X-0.8690 Y1.0230 
G01 X-0.8656 Y1.0244 
G01 X-0.8656 Y1.0860 
G01 X-0.8657 Y1.0865 
G01 X-0.8656 Y1.0880 
G01 X-0.8656 Y1.0896 
G01 X-0.8655 Y1.0900 
G01 X-0.8654 Y1.0906 
G01 X-0.8649 Y1.0921 
G01 X-0.8645 Y1.0935 
G01 X-0.8643 Y1.0940 
G01 X-0.8641 Y1.0945 
G01 X-0.8632 Y1.0957 
G01 X-0.8625 Y1.0971 
G01 X-0.8621 Y1.0974 
G01 X-0.8618 Y1.0979 
G01 X-0.8606 Y1.0989 
G01 X-0.8596 Y1.1000 
G01 X-0.8591 Y1.1002 
G01 X-0.7606 Y1.1864 
G01 X-0.7596 Y1.1875 
G01 X-0.7591 Y1.1877 
G01 X-0.7587 Y1.1881 
G01 X-0.7573 Y1.1888 
G01 X-0.7560 Y1.1895 
G01 X-0.7555 Y1.1897 
G01 X-0.7550 Y1.1899 
G01 X-0.7535 Y1.1902 
G01 X-0.7521 Y1.1906 
G01 X-0.7515 Y1.1906 
G01 X-0.7510 Y1.1907 
G01 X-0.7495 Y1.1906 
G01 X-0.4640 Y1.1906 
G01 X-0.4635 Y1.1907 
G01 X-0.4620 Y1.1906 
G01 X-0.4604 Y1.1906 
G01 X-0.4599 Y1.1905 
G01 X-0.4594 Y1.1904 
G01 X-0.4580 Y1.1899 
G01 X-0.4565 Y1.1895 
G01 X-0.4560 Y1.1893 
G01 X-0.4556 Y1.1891 
G01 X-0.4543 Y1.1882 
G01 X-0.4529 Y1.1875 
G01 X-0.4526 Y1.1871 
G01 X-0.3793 Y1.1383 
G01 X-0.3779 Y1.1375 
G01 X-0.3776 Y1.1371 
G01 X-0.3771 Y1.1368 
G01 X-0.3761 Y1.1357 
G01 X-0.3750 Y1.1346 
G01 X-0.3748 Y1.1341 
G01 X-0.3744 Y1.1338 
G01 X-0.3737 Y1.1323 
G01 X-0.3730 Y1.1310 
G01 X-0.3728 Y1.1305 
G01 X-0.3726 Y1.1301 
G01 X-0.3723 Y1.1285 
G01 X-0.3719 Y1.1271 
G01 X-0.3719 Y1.1265 
G01 X-0.3718 Y1.1260 
G01 X-0.3719 Y1.1245 
G01 X-0.3719 Y1.0176 
G01 X-0.3372 Y1.0524 
G01 X-0.3373 Y1.0527 
G01 X-0.3386 Y1.0592 
G01 X-0.3386 Y1.0658 
G01 X-0.3373 Y1.0723 
G01 X-0.3348 Y1.0784 
G01 X-0.3311 Y1.0839 
G01 X-0.3264 Y1.0886 
G01 X-0.3209 Y1.0923 
G01 X-0.3148 Y1.0948 
G01 X-0.3083 Y1.0961 
G01 X-0.3017 Y1.0961 
G01 X-0.2952 Y1.0948 
G01 X-0.2891 Y1.0923 
G01 X-0.2836 Y1.0886 
G01 X-0.2789 Y1.0839 
G01 X-0.2752 Y1.0784 
G01 X-0.2727 Y1.0723 
G01 X-0.2714 Y1.0658 
G01 X-0.2714 Y1.0592 
G01 X-0.2727 Y1.0527 
G01 X-0.2752 Y1.0466 
G01 X-0.2789 Y1.0411 
G01 X-0.2836 Y1.0364 
G01 X-0.2891 Y1.0327 
G01 X-0.2952 Y1.0302 
G01 X-0.3017 Y1.0289 
G01 X-0.3083 Y1.0289 
G01 X-0.3148 Y1.0302 
G01 X-0.3151 Y1.0303 
G01 X-0.3650 Y0.9804 
G01 X-0.3650 Y0.9804 
G01 X-0.3679 Y0.9775 
G01 X-0.4079 Y0.9375 
G01 X-0.4115 Y0.9355 
G01 X-0.4154 Y0.9344 
G01 X-0.4196 Y0.9344 
G01 X-0.4458 Y0.9344 
G01 X-0.4402 Y0.9333 
G01 X-0.4341 Y0.9308 
G01 X-0.4286 Y0.9271 
G01 X-0.4239 Y0.9224 
G01 X-0.4202 Y0.9169 
G01 X-0.4177 Y0.9108 
G01 X-0.4164 Y0.9043 
G01 X-0.4164 Y0.8457 
G01 X-0.4177 Y0.8392 
G01 X-0.4202 Y0.8331 
G01 X-0.4239 Y0.8276 
G01 X-0.4286 Y0.8229 
G01 X-0.4341 Y0.8192 
G01 X-0.4402 Y0.8167 
G01 X-0.4467 Y0.8154 
G01 X-0.4533 Y0.8154 
G01 X-0.4598 Y0.8167 
G01 X-0.4659 Y0.8192 
G01 X-0.4714 Y0.8229 
G01 X-0.4761 Y0.8276 
G01 X-0.4798 Y0.8331 
G01 X-0.4823 Y0.8392 
G01 X-0.4836 Y0.8457 
G01 X-0.4836 Y0.9043 
G01 X-0.4823 Y0.9108 
G01 X-0.4798 Y0.9169 
G01 X-0.4761 Y0.9224 
G01 X-0.4714 Y0.9271 
G01 X-0.4659 Y0.9308 
G01 X-0.4598 Y0.9333 
G01 X-0.4542 Y0.9344 
G01 X-0.5458 Y0.9344 
G01 X-0.5402 Y0.9333 
G01 X-0.5341 Y0.9308 
G01 X-0.5286 Y0.9271 
G01 X-0.5239 Y0.9224 
G01 X-0.5202 Y0.9169 
G01 X-0.5177 Y0.9108 
G01 X-0.5164 Y0.9043 
G01 X-0.5164 Y0.8457 
G01 X-0.5177 Y0.8392 
G01 X-0.5202 Y0.8331 
G01 X-0.5239 Y0.8276 
G01 X-0.5286 Y0.8229 
G01 X-0.5341 Y0.8192 
G01 X-0.5402 Y0.8167 
G01 X-0.5467 Y0.8154 
G01 X-0.5533 Y0.8154 
G01 X-0.5598 Y0.8167 
G01 X-0.5659 Y0.8192 
G01 X-0.5714 Y0.8229 
G01 X-0.5761 Y0.8276 
G01 X-0.5798 Y0.8331 
G01 X-0.5823 Y0.8392 
G01 X-0.5836 Y0.8457 
G01 X-0.5836 Y0.9043 
G01 X-0.5823 Y0.9108 
G01 X-0.5798 Y0.9169 
G01 X-0.5761 Y0.9224 
G01 X-0.5714 Y0.9271 
G01 X-0.5659 Y0.9308 
G01 X-0.5598 Y0.9333 
G01 X-0.5542 Y0.9344 
G01 X-0.6060 Y0.9344 
G01 X-0.6216 Y0.9189 
G01 X-0.6202 Y0.9169 
G01 X-0.6177 Y0.9108 
G01 X-0.6164 Y0.9043 
G01 X-0.6164 Y0.8457 
G01 X-0.6177 Y0.8392 
G01 X-0.6202 Y0.8331 
G01 X-0.6239 Y0.8276 
G01 X-0.6286 Y0.8229 
G01 X-0.6341 Y0.8192 
G01 X-0.6402 Y0.8167 
G01 X-0.6467 Y0.8154 
G01 X-0.6533 Y0.8154 
G01 X-0.6598 Y0.8167 
G01 X-0.6659 Y0.8192 
G01 X-0.6714 Y0.8229 
G01 X-0.6761 Y0.8276 
G01 X-0.6798 Y0.8331 
G01 X-0.6823 Y0.8392 
G01 X-0.6836 Y0.8457 
G01 X-0.6836 Y0.9043 
G01 X-0.6823 Y0.9108 
G01 X-0.6798 Y0.9169 
G01 X-0.6761 Y0.9224 
G01 X-0.6714 Y0.9271 
G01 X-0.6659 Y0.9308 
G01 X-0.6598 Y0.9333 
G01 X-0.6533 Y0.9346 
G01 X-0.6500 Y0.9346 
G01 X-0.6250 Y0.9596 
G01 X-0.6221 Y0.9625 
G01 X-0.6185 Y0.9645 
G01 X-0.6146 Y0.9656 
G01 X-0.4240 Y0.9656 
G01 X-0.3995 Y0.9900 
G01 X-0.4000 Y0.9904 
G01 X-0.4020 Y0.9940 
G01 X-0.4031 Y0.9979 
G01 X-0.4031 Y1.0021 
G01 X-0.4031 Y1.1167 
G01 X-0.4672 Y1.1594 
G01 X-0.7441 Y1.1594 
G01 X-0.8344 Y1.0804 
G01 X-0.8344 Y1.0244 
G01 X-0.8310 Y1.0230 
G01 X-0.8244 Y1.0186 
G01 X-0.8189 Y1.0131 
G01 X-0.8145 Y1.0065 
G01 X-0.8114 Y0.9992 
G01 X-0.8099 Y0.9914 
G01 X-0.8099 Y0.9835 
G01 X-0.8114 Y0.9758 
G01 X-0.8145 Y0.9685 
G01 X-0.8189 Y0.9619 
G01 X-0.8244 Y0.9564 
G01 X-0.8310 Y0.9520 
G01 X-0.8383 Y0.9489 
G01 X-0.8460 Y0.9474 
G01 X-0.8539 Y0.9474 
G01 X-0.8617 Y0.9489 
G01 X-0.8690 Y0.9520 
G01 X-0.8756 Y0.9564 
G01 X-0.8811 Y0.9619 
G01 X-0.8855 Y0.9685 
G01 X-0.8886 Y0.9758 
G01 X-0.8901 Y0.9835 
G00 Z0.0200 
G00 X-0.8151 Y1.0710 
G01 Z-0.0050 F2.50  
G01 X-0.8151 Y1.0789 
G01 X-0.8136 Y1.0867 
G01 X-0.8105 Y1.0940 
G01 X-0.8061 Y1.1006 
G01 X-0.8006 Y1.1061 
G01 X-0.7940 Y1.1105 
G01 X-0.7867 Y1.1136 
G01 X-0.7827 Y1.1143 
G01 X-0.7500 Y1.1471 
G01 X-0.7471 Y1.1500 
G01 X-0.7435 Y1.1520 
G01 X-0.7396 Y1.1531 
G01 X-0.6271 Y1.1531 
G01 X-0.6229 Y1.1531 
G01 X-0.6190 Y1.1520 
G01 X-0.6154 Y1.1500 
G01 X-0.5779 Y1.1125 
G01 X-0.5750 Y1.1096 
G01 X-0.5730 Y1.1060 
G01 X-0.5719 Y1.1021 
G01 X-0.5719 Y1.0076 
G01 X-0.5272 Y1.0524 
G01 X-0.5273 Y1.0527 
G01 X-0.5286 Y1.0592 
G01 X-0.5286 Y1.0658 
G01 X-0.5273 Y1.0723 
G01 X-0.5248 Y1.0784 
G01 X-0.5211 Y1.0839 
G01 X-0.5164 Y1.0886 
G01 X-0.5109 Y1.0923 
G01 X-0.5048 Y1.0948 
G01 X-0.4983 Y1.0961 
G01 X-0.4917 Y1.0961 
G01 X-0.4852 Y1.0948 
G01 X-0.4791 Y1.0923 
G01 X-0.4736 Y1.0886 
G01 X-0.4689 Y1.0839 
G01 X-0.4652 Y1.0784 
G01 X-0.4627 Y1.0723 
G01 X-0.4614 Y1.0658 
G01 X-0.4614 Y1.0592 
G01 X-0.4627 Y1.0527 
G01 X-0.4652 Y1.0466 
G01 X-0.4689 Y1.0411 
G01 X-0.4736 Y1.0364 
G01 X-0.4791 Y1.0327 
G01 X-0.4852 Y1.0302 
G01 X-0.4917 Y1.0289 
G01 X-0.4983 Y1.0289 
G01 X-0.5048 Y1.0302 
G01 X-0.5051 Y1.0303 
G01 X-0.5575 Y0.9779 
G01 X-0.5604 Y0.9750 
G01 X-0.5640 Y0.9730 
G01 X-0.5679 Y0.9719 
G01 X-0.5854 Y0.9719 
G01 X-0.5896 Y0.9719 
G01 X-0.6560 Y0.9719 
G01 X-0.7176 Y0.9103 
G01 X-0.7164 Y0.9043 
G01 X-0.7164 Y0.8457 
G01 X-0.7177 Y0.8392 
G01 X-0.7202 Y0.8331 
G01 X-0.7239 Y0.8276 
G01 X-0.7286 Y0.8229 
G01 X-0.7341 Y0.8192 
G01 X-0.7402 Y0.8167 
G01 X-0.7467 Y0.8154 
G01 X-0.7533 Y0.8154 
G01 X-0.7598 Y0.8167 
G01 X-0.7659 Y0.8192 
G01 X-0.7714 Y0.8229 
G01 X-0.7761 Y0.8276 
G01 X-0.7798 Y0.8331 
G01 X-0.7823 Y0.8392 
G01 X-0.7836 Y0.8457 
G01 X-0.7836 Y0.9043 
G01 X-0.7823 Y0.9108 
G01 X-0.7798 Y0.9169 
G01 X-0.7761 Y0.9224 
G01 X-0.7714 Y0.9271 
G01 X-0.7659 Y0.9308 
G01 X-0.7598 Y0.9333 
G01 X-0.7533 Y0.9346 
G01 X-0.7467 Y0.9346 
G01 X-0.7402 Y0.9333 
G01 X-0.7392 Y0.9329 
G01 X-0.6750 Y0.9971 
G01 X-0.6721 Y1.0000 
G01 X-0.6685 Y1.0020 
G01 X-0.6646 Y1.0031 
G01 X-0.6031 Y1.0031 
G01 X-0.6031 Y1.0935 
G01 X-0.6315 Y1.1219 
G01 X-0.7310 Y1.1219 
G01 X-0.7481 Y1.1048 
G01 X-0.7439 Y1.1006 
G01 X-0.7395 Y1.0940 
G01 X-0.7364 Y1.0867 
G01 X-0.7349 Y1.0789 
G01 X-0.7349 Y1.0710 
G01 X-0.7364 Y1.0633 
G01 X-0.7395 Y1.0560 
G01 X-0.7439 Y1.0494 
G01 X-0.7494 Y1.0439 
G01 X-0.7560 Y1.0395 
G01 X-0.7633 Y1.0364 
G01 X-0.7710 Y1.0349 
G01 X-0.7789 Y1.0349 
G01 X-0.7867 Y1.0364 
G01 X-0.7940 Y1.0395 
G01 X-0.8006 Y1.0439 
G01 X-0.8061 Y1.0494 
G01 X-0.8105 Y1.0560 
G01 X-0.8136 Y1.0633 
G01 X-0.8151 Y1.0710 
G00 Z0.0200 
G00 X-1.0696 Y1.0465 
G01 Z-0.0050 F2.50  
G01 X-1.0696 Y1.0535 
G01 X-1.0685 Y1.0604 
G01 X-1.0663 Y1.0671 
G01 X-1.0631 Y1.0734 
G01 X-1.0590 Y1.0790 
G01 X-1.0540 Y1.0840 
G01 X-1.0484 Y1.0881 
G01 X-1.0421 Y1.0913 
G01 X-1.0406 Y1.0918 
G01 X-1.0406 Y1.0935 
G01 X-1.0625 Y1.1154 
G01 X-1.0645 Y1.1190 
G01 X-1.0656 Y1.1229 
G01 X-1.0656 Y1.1271 
G01 X-1.0656 Y1.1458 
G01 X-1.0678 Y1.1467 
G01 X-1.0740 Y1.1508 
G01 X-1.0792 Y1.1560 
G01 X-1.0833 Y1.1622 
G01 X-1.0861 Y1.1690 
G01 X-1.0876 Y1.1763 
G01 X-1.0876 Y1.2437 
G01 X-1.0861 Y1.2510 
G01 X-1.0833 Y1.2578 
G01 X-1.0792 Y1.2640 
G01 X-1.0740 Y1.2692 
G01 X-1.0678 Y1.2733 
G01 X-1.0610 Y1.2761 
G01 X-1.0537 Y1.2776 
G01 X-1.0463 Y1.2776 
G01 X-1.0390 Y1.2761 
G01 X-1.0322 Y1.2733 
G01 X-1.0260 Y1.2692 
G01 X-1.0208 Y1.2640 
G01 X-1.0167 Y1.2578 
G01 X-1.0139 Y1.2510 
G01 X-1.0124 Y1.2437 
G01 X-1.0124 Y1.1763 
G01 X-1.0139 Y1.1690 
G01 X-1.0167 Y1.1622 
G01 X-1.0208 Y1.1560 
G01 X-1.0260 Y1.1508 
G01 X-1.0322 Y1.1467 
G01 X-1.0344 Y1.1458 
G01 X-1.0344 Y1.1315 
G01 X-1.0154 Y1.1125 
G01 X-1.0154 Y1.1125 
G01 X-1.0125 Y1.1096 
G01 X-1.0105 Y1.1060 
G01 X-1.0094 Y1.1021 
G01 X-1.0094 Y1.0918 
G01 X-1.0079 Y1.0913 
G01 X-1.0016 Y1.0881 
G01 X-0.9959 Y1.0840 
G01 X-0.9910 Y1.0790 
G01 X-0.9869 Y1.0734 
G01 X-0.9837 Y1.0671 
G01 X-0.9815 Y1.0604 
G01 X-0.9804 Y1.0535 
G01 X-0.9804 Y1.0465 
G01 X-0.9815 Y1.0396 
G01 X-0.9837 Y1.0329 
G01 X-0.9869 Y1.0266 
G01 X-0.9910 Y1.0209 
G01 X-0.9959 Y1.0160 
G01 X-1.0016 Y1.0119 
G01 X-1.0079 Y1.0087 
G01 X-1.0146 Y1.0065 
G01 X-1.0215 Y1.0054 
G01 X-1.0285 Y1.0054 
G01 X-1.0354 Y1.0065 
G01 X-1.0421 Y1.0087 
G01 X-1.0484 Y1.0119 
G01 X-1.0540 Y1.0160 
G01 X-1.0590 Y1.0209 
G01 X-1.0631 Y1.0266 
G01 X-1.0663 Y1.0329 
G01 X-1.0685 Y1.0396 
G01 X-1.0696 Y1.0465 
G00 Z0.0200 
G00 X-2.3446 Y0.9465 
G01 Z-0.0050 F2.50  
G01 X-2.3446 Y0.9535 
G01 X-2.3435 Y0.9604 
G01 X-2.3413 Y0.9671 
G01 X-2.3381 Y0.9734 
G01 X-2.3340 Y0.9790 
G01 X-2.3290 Y0.9840 
G01 X-2.3234 Y0.9881 
G01 X-2.3171 Y0.9913 
G01 X-2.3104 Y0.9935 
G01 X-2.3035 Y0.9946 
G01 X-2.2965 Y0.9946 
G01 X-2.2896 Y0.9935 
G01 X-2.2829 Y0.9913 
G01 X-2.2766 Y0.9881 
G01 X-2.2709 Y0.9840 
G01 X-2.2660 Y0.9790 
G01 X-2.2619 Y0.9734 
G01 X-2.2587 Y0.9671 
G01 X-2.2580 Y0.9651 
G01 X-2.1276 Y0.9651 
G01 X-2.1276 Y1.0895 
G01 X-2.1266 Y1.0933 
G01 X-2.1246 Y1.0968 
G01 X-2.1218 Y1.0996 
G01 X-2.1093 Y1.1121 
G01 X-2.1058 Y1.1141 
G01 X-2.1020 Y1.1151 
G01 X-2.0980 Y1.1151 
G01 X-1.8811 Y1.1151 
G01 X-1.8808 Y1.1159 
G01 X-1.8771 Y1.1214 
G01 X-1.8724 Y1.1261 
G01 X-1.8669 Y1.1298 
G01 X-1.8608 Y1.1323 
G01 X-1.8543 Y1.1336 
G01 X-1.7957 Y1.1336 
G01 X-1.7892 Y1.1323 
G01 X-1.7831 Y1.1298 
G01 X-1.7776 Y1.1261 
G01 X-1.7729 Y1.1214 
G01 X-1.7692 Y1.1159 
G01 X-1.7667 Y1.1098 
G01 X-1.7654 Y1.1033 
G01 X-1.7654 Y1.0967 
G01 X-1.7667 Y1.0902 
G01 X-1.7692 Y1.0841 
G01 X-1.7729 Y1.0786 
G01 X-1.7776 Y1.0739 
G01 X-1.7831 Y1.0702 
G01 X-1.7892 Y1.0677 
G01 X-1.7957 Y1.0664 
G01 X-1.8543 Y1.0664 
G01 X-1.8608 Y1.0677 
G01 X-1.8669 Y1.0702 
G01 X-1.8724 Y1.0739 
G01 X-1.8771 Y1.0786 
G01 X-1.8808 Y1.0841 
G01 X-1.8811 Y1.0849 
G01 X-2.0937 Y1.0849 
G01 X-2.0974 Y1.0812 
G01 X-2.0974 Y0.9520 
G01 X-2.0974 Y0.9480 
G01 X-2.0984 Y0.9442 
G01 X-2.1004 Y0.9407 
G01 X-2.1032 Y0.9379 
G01 X-2.1067 Y0.9359 
G01 X-2.1105 Y0.9349 
G01 X-2.2580 Y0.9349 
G01 X-2.2587 Y0.9329 
G01 X-2.2619 Y0.9266 
G01 X-2.2660 Y0.9209 
G01 X-2.2709 Y0.9160 
G01 X-2.2766 Y0.9119 
G01 X-2.2829 Y0.9087 
G01 X-2.2896 Y0.9065 
G01 X-2.2965 Y0.9054 
G01 X-2.3035 Y0.9054 
G01 X-2.3104 Y0.9065 
G01 X-2.3171 Y0.9087 
G01 X-2.3234 Y0.9119 
G01 X-2.3290 Y0.9160 
G01 X-2.3340 Y0.9209 
G01 X-2.3381 Y0.9266 
G01 X-2.3413 Y0.9329 
G01 X-2.3435 Y0.9396 
G01 X-2.3446 Y0.9465 
G00 Z0.0200 
G00 X-2.4446 Y0.9465 
G01 Z-0.0050 F2.50  
G01 X-2.4446 Y0.9535 
G01 X-2.4435 Y0.9604 
G01 X-2.4413 Y0.9671 
G01 X-2.4381 Y0.9734 
G01 X-2.4340 Y0.9790 
G01 X-2.4290 Y0.9840 
G01 X-2.4234 Y0.9881 
G01 X-2.4171 Y0.9913 
G01 X-2.4104 Y0.9935 
G01 X-2.4035 Y0.9946 
G01 X-2.4025 Y0.9946 
G01 X-2.3625 Y1.0346 
G01 X-2.3596 Y1.0375 
G01 X-2.3560 Y1.0395 
G01 X-2.3521 Y1.0406 
G01 X-2.2604 Y1.0406 
G01 X-2.2565 Y1.0395 
G01 X-2.2529 Y1.0375 
G01 X-2.2500 Y1.0346 
G01 X-2.2500 Y1.0346 
G01 X-2.2185 Y1.0031 
G01 X-2.1656 Y1.0031 
G01 X-2.1656 Y1.0979 
G01 X-2.1656 Y1.1021 
G01 X-2.1645 Y1.1060 
G01 X-2.1625 Y1.1096 
G01 X-2.1125 Y1.1596 
G01 X-2.1125 Y1.1596 
G01 X-2.1096 Y1.1625 
G01 X-2.1060 Y1.1645 
G01 X-2.1021 Y1.1656 
G01 X-1.8815 Y1.1656 
G01 X-1.8728 Y1.1743 
G01 X-1.8771 Y1.1786 
G01 X-1.8808 Y1.1841 
G01 X-1.8833 Y1.1902 
G01 X-1.8846 Y1.1967 
G01 X-1.8846 Y1.2033 
G01 X-1.8833 Y1.2098 
G01 X-1.8808 Y1.2159 
G01 X-1.8771 Y1.2214 
G01 X-1.8724 Y1.2261 
G01 X-1.8669 Y1.2298 
G01 X-1.8608 Y1.2323 
G01 X-1.8543 Y1.2336 
G01 X-1.7957 Y1.2336 
G01 X-1.7892 Y1.2323 
G01 X-1.7831 Y1.2298 
G01 X-1.7776 Y1.2261 
G01 X-1.7729 Y1.2214 
G01 X-1.7692 Y1.2159 
G01 X-1.7667 Y1.2098 
G01 X-1.7654 Y1.2033 
G01 X-1.7654 Y1.1967 
G01 X-1.7667 Y1.1902 
G01 X-1.7692 Y1.1841 
G01 X-1.7729 Y1.1786 
G01 X-1.7776 Y1.1739 
G01 X-1.7831 Y1.1702 
G01 X-1.7892 Y1.1677 
G01 X-1.7957 Y1.1664 
G01 X-1.8365 Y1.1664 
G01 X-1.8654 Y1.1375 
G01 X-1.8690 Y1.1355 
G01 X-1.8729 Y1.1344 
G01 X-1.8771 Y1.1344 
G01 X-2.0935 Y1.1344 
G01 X-2.1344 Y1.0935 
G01 X-2.1344 Y0.9854 
G01 X-2.1355 Y0.9815 
G01 X-2.1375 Y0.9779 
G01 X-2.1404 Y0.9750 
G01 X-2.1440 Y0.9730 
G01 X-2.1479 Y0.9719 
G01 X-2.1521 Y0.9719 
G01 X-2.2271 Y0.9719 
G01 X-2.2310 Y0.9730 
G01 X-2.2346 Y0.9750 
G01 X-2.2375 Y0.9779 
G01 X-2.2375 Y0.9779 
G01 X-2.2690 Y1.0094 
G01 X-2.3435 Y1.0094 
G01 X-2.3699 Y0.9830 
G01 X-2.3660 Y0.9790 
G01 X-2.3619 Y0.9734 
G01 X-2.3587 Y0.9671 
G01 X-2.3565 Y0.9604 
G01 X-2.3554 Y0.9535 
G01 X-2.3554 Y0.9465 
G01 X-2.3565 Y0.9396 
G01 X-2.3587 Y0.9329 
G01 X-2.3619 Y0.9266 
G01 X-2.3660 Y0.9209 
G01 X-2.3709 Y0.9160 
G01 X-2.3766 Y0.9119 
G01 X-2.3829 Y0.9087 
G01 X-2.3896 Y0.9065 
G01 X-2.3965 Y0.9054 
G01 X-2.4035 Y0.9054 
G01 X-2.4104 Y0.9065 
G01 X-2.4171 Y0.9087 
G01 X-2.4234 Y0.9119 
G01 X-2.4290 Y0.9160 
G01 X-2.4340 Y0.9209 
G01 X-2.4381 Y0.9266 
G01 X-2.4413 Y0.9329 
G01 X-2.4435 Y0.9396 
G01 X-2.4446 Y0.9465 
G00 Z0.0200 
G00 X-1.3711 Y1.0486 
G01 Z-0.0050 F2.50  
G01 X-1.3711 Y1.0764 
G01 X-1.3648 Y1.0827 
G01 X-1.3656 Y1.0854 
G01 X-1.3656 Y1.1358 
G01 X-1.3678 Y1.1367 
G01 X-1.3740 Y1.1408 
G01 X-1.3792 Y1.1460 
G01 X-1.3833 Y1.1522 
G01 X-1.3861 Y1.1590 
G01 X-1.3876 Y1.1663 
G01 X-1.3876 Y1.2337 
G01 X-1.3861 Y1.2410 
G01 X-1.3833 Y1.2478 
G01 X-1.3792 Y1.2540 
G01 X-1.3740 Y1.2592 
G01 X-1.3678 Y1.2633 
G01 X-1.3610 Y1.2661 
G01 X-1.3537 Y1.2676 
G01 X-1.3463 Y1.2676 
G01 X-1.3390 Y1.2661 
G01 X-1.3322 Y1.2633 
G01 X-1.3260 Y1.2592 
G01 X-1.3208 Y1.2540 
G01 X-1.3167 Y1.2478 
G01 X-1.3139 Y1.2410 
G01 X-1.3124 Y1.2337 
G01 X-1.3124 Y1.1663 
G01 X-1.3139 Y1.1590 
G01 X-1.3167 Y1.1522 
G01 X-1.3208 Y1.1460 
G01 X-1.3260 Y1.1408 
G01 X-1.3322 Y1.1367 
G01 X-1.3344 Y1.1358 
G01 X-1.3344 Y1.0961 
G01 X-1.3236 Y1.0961 
G01 X-1.3039 Y1.0764 
G01 X-1.3039 Y1.0486 
G01 X-1.3236 Y1.0289 
G01 X-1.3514 Y1.0289 
G01 X-1.3711 Y1.0486 
G00 Z0.0200 
G00 X-0.9826 Y0.3663 
G01 Z-0.0050 F2.50  
G01 X-0.9826 Y0.4337 
G01 X-0.9811 Y0.4410 
G01 X-0.9783 Y0.4478 
G01 X-0.9742 Y0.4540 
G01 X-0.9690 Y0.4592 
G01 X-0.9628 Y0.4633 
G01 X-0.9560 Y0.4661 
G01 X-0.9487 Y0.4676 
G01 X-0.9413 Y0.4676 
G01 X-0.9340 Y0.4661 
G01 X-0.9272 Y0.4633 
G01 X-0.9210 Y0.4592 
G01 X-0.9158 Y0.4540 
G01 X-0.9117 Y0.4478 
G01 X-0.9089 Y0.4410 
G01 X-0.9074 Y0.4337 
G01 X-0.9074 Y0.3663 
G01 X-0.9089 Y0.3590 
G01 X-0.9117 Y0.3522 
G01 X-0.9158 Y0.3460 
G01 X-0.9210 Y0.3408 
G01 X-0.9272 Y0.3367 
G01 X-0.9340 Y0.3339 
G01 X-0.9413 Y0.3324 
G01 X-0.9487 Y0.3324 
G01 X-0.9560 Y0.3339 
G01 X-0.9628 Y0.3367 
G01 X-0.9690 Y0.3408 
G01 X-0.9742 Y0.3460 
G01 X-0.9783 Y0.3522 
G01 X-0.9811 Y0.3590 
G01 X-0.9826 Y0.3663 
G00 Z0.0200 
G00 X-0.9876 Y1.1663 
G01 Z-0.0050 F2.50  
G01 X-0.9876 Y1.2337 
G01 X-0.9861 Y1.2410 
G01 X-0.9833 Y1.2478 
G01 X-0.9792 Y1.2540 
G01 X-0.9740 Y1.2592 
G01 X-0.9678 Y1.2633 
G01 X-0.9610 Y1.2661 
G01 X-0.9537 Y1.2676 
G01 X-0.9463 Y1.2676 
G01 X-0.9390 Y1.2661 
G01 X-0.9322 Y1.2633 
G01 X-0.9260 Y1.2592 
G01 X-0.9208 Y1.2540 
G01 X-0.9167 Y1.2478 
G01 X-0.9139 Y1.2410 
G01 X-0.9124 Y1.2337 
G01 X-0.9124 Y1.1663 
G01 X-0.9139 Y1.1590 
G01 X-0.9167 Y1.1522 
G01 X-0.9208 Y1.1460 
G01 X-0.9260 Y1.1408 
G01 X-0.9322 Y1.1367 
G01 X-0.9349 Y1.1356 
G01 X-0.9349 Y1.0230 
G01 X-0.9359 Y1.0192 
G01 X-0.9379 Y1.0157 
G01 X-0.9407 Y1.0129 
G01 X-0.9907 Y0.9629 
G01 X-0.9942 Y0.9609 
G01 X-0.9980 Y0.9599 
G01 X-1.0020 Y0.9599 
G01 X-1.0437 Y0.9599 
G01 X-1.1164 Y0.8872 
G01 X-1.1164 Y0.8457 
G01 X-1.1177 Y0.8392 
G01 X-1.1202 Y0.8331 
G01 X-1.1239 Y0.8276 
G01 X-1.1286 Y0.8229 
G01 X-1.1341 Y0.8192 
G01 X-1.1402 Y0.8167 
G01 X-1.1467 Y0.8154 
G01 X-1.1533 Y0.8154 
G01 X-1.1598 Y0.8167 
G01 X-1.1659 Y0.8192 
G01 X-1.1714 Y0.8229 
G01 X-1.1761 Y0.8276 
G01 X-1.1798 Y0.8331 
G01 X-1.1823 Y0.8392 
G01 X-1.1836 Y0.8457 
G01 X-1.1836 Y0.9043 
G01 X-1.1823 Y0.9108 
G01 X-1.1798 Y0.9169 
G01 X-1.1761 Y0.9224 
G01 X-1.1714 Y0.9271 
G01 X-1.1659 Y0.9308 
G01 X-1.1598 Y0.9333 
G01 X-1.1533 Y0.9346 
G01 X-1.1467 Y0.9346 
G01 X-1.1402 Y0.9333 
G01 X-1.1341 Y0.9308 
G01 X-1.1286 Y0.9271 
G01 X-1.1239 Y0.9224 
G01 X-1.0621 Y0.9843 
G01 X-1.0593 Y0.9871 
G01 X-1.0558 Y0.9891 
G01 X-1.0520 Y0.9901 
G01 X-1.0063 Y0.9901 
G01 X-0.9651 Y1.0313 
G01 X-0.9651 Y1.1356 
G01 X-0.9678 Y1.1367 
G01 X-0.9740 Y1.1408 
G01 X-0.9792 Y1.1460 
G01 X-0.9833 Y1.1522 
G01 X-0.9861 Y1.1590 
G01 X-0.9876 Y1.1663 
G00 Z0.0200 
G00 X-1.1876 Y1.1663 
G01 Z-0.0050 F2.50  
G01 X-1.1876 Y1.2337 
G01 X-1.1861 Y1.2410 
G01 X-1.1833 Y1.2478 
G01 X-1.1792 Y1.2540 
G01 X-1.1740 Y1.2592 
G01 X-1.1678 Y1.2633 
G01 X-1.1610 Y1.2661 
G01 X-1.1537 Y1.2676 
G01 X-1.1463 Y1.2676 
G01 X-1.1390 Y1.2661 
G01 X-1.1322 Y1.2633 
G01 X-1.1260 Y1.2592 
G01 X-1.1208 Y1.2540 
G01 X-1.1167 Y1.2478 
G01 X-1.1139 Y1.2410 
G01 X-1.1124 Y1.2337 
G01 X-1.1124 Y1.1663 
G01 X-1.1139 Y1.1590 
G01 X-1.1167 Y1.1522 
G01 X-1.1208 Y1.1460 
G01 X-1.1260 Y1.1408 
G01 X-1.1322 Y1.1367 
G01 X-1.1344 Y1.1358 
G01 X-1.1344 Y1.1315 
G01 X-1.1154 Y1.1125 
G01 X-1.1154 Y1.1125 
G01 X-1.1125 Y1.1096 
G01 X-1.1105 Y1.1060 
G01 X-1.1094 Y1.1021 
G01 X-1.1094 Y1.0918 
G01 X-1.1079 Y1.0913 
G01 X-1.1016 Y1.0881 
G01 X-1.0959 Y1.0840 
G01 X-1.0910 Y1.0790 
G01 X-1.0869 Y1.0734 
G01 X-1.0837 Y1.0671 
G01 X-1.0815 Y1.0604 
G01 X-1.0804 Y1.0535 
G01 X-1.0804 Y1.0465 
G01 X-1.0815 Y1.0396 
G01 X-1.0837 Y1.0329 
G01 X-1.0869 Y1.0266 
G01 X-1.0910 Y1.0209 
G01 X-1.0959 Y1.0160 
G01 X-1.1016 Y1.0119 
G01 X-1.1079 Y1.0087 
G01 X-1.1146 Y1.0065 
G01 X-1.1215 Y1.0054 
G01 X-1.1285 Y1.0054 
G01 X-1.1354 Y1.0065 
G01 X-1.1421 Y1.0087 
G01 X-1.1484 Y1.0119 
G01 X-1.1540 Y1.0160 
G01 X-1.1590 Y1.0209 
G01 X-1.1631 Y1.0266 
G01 X-1.1663 Y1.0329 
G01 X-1.1685 Y1.0396 
G01 X-1.1696 Y1.0465 
G01 X-1.1696 Y1.0535 
G01 X-1.1685 Y1.0604 
G01 X-1.1663 Y1.0671 
G01 X-1.1631 Y1.0734 
G01 X-1.1590 Y1.0790 
G01 X-1.1540 Y1.0840 
G01 X-1.1484 Y1.0881 
G01 X-1.1421 Y1.0913 
G01 X-1.1406 Y1.0918 
G01 X-1.1406 Y1.0935 
G01 X-1.1596 Y1.1125 
G01 X-1.1596 Y1.1125 
G01 X-1.1625 Y1.1154 
G01 X-1.1645 Y1.1190 
G01 X-1.1656 Y1.1229 
G01 X-1.1656 Y1.1358 
G01 X-1.1678 Y1.1367 
G01 X-1.1740 Y1.1408 
G01 X-1.1792 Y1.1460 
G01 X-1.1833 Y1.1522 
G01 X-1.1861 Y1.1590 
G01 X-1.1876 Y1.1663 
G00 Z0.0200 
G00 X-1.5543 Y1.0336 
G01 Z-0.0050 F2.50  
G01 X-1.4957 Y1.0336 
G01 X-1.4892 Y1.0323 
G01 X-1.4831 Y1.0298 
G01 X-1.4776 Y1.0261 
G01 X-1.4729 Y1.0214 
G01 X-1.4692 Y1.0159 
G01 X-1.4682 Y1.0135 
G01 X-1.4657 Y1.0121 
G01 X-1.4651 Y1.0114 
G01 X-1.4651 Y1.2187 
G01 X-1.4813 Y1.2349 
G01 X-1.5687 Y1.2349 
G01 X-1.6224 Y1.1812 
G01 X-1.6224 Y1.0164 
G01 X-1.6219 Y1.0146 
G01 X-1.6219 Y1.0104 
G01 X-1.6230 Y1.0065 
G01 X-1.6250 Y1.0029 
G01 X-1.7429 Y0.8850 
G01 X-1.7429 Y0.8840 
G01 X-1.7440 Y0.8771 
G01 X-1.7462 Y0.8704 
G01 X-1.7494 Y0.8641 
G01 X-1.7535 Y0.8584 
G01 X-1.7584 Y0.8535 
G01 X-1.7641 Y0.8494 
G01 X-1.7704 Y0.8462 
G01 X-1.7771 Y0.8440 
G01 X-1.7840 Y0.8429 
G01 X-1.7910 Y0.8429 
G01 X-1.7979 Y0.8440 
G01 X-1.8046 Y0.8462 
G01 X-1.8109 Y0.8494 
G01 X-1.8165 Y0.8535 
G01 X-1.8215 Y0.8584 
G01 X-1.8256 Y0.8641 
G01 X-1.8288 Y0.8704 
G01 X-1.8310 Y0.8771 
G01 X-1.8321 Y0.8840 
G01 X-1.8321 Y0.8910 
G01 X-1.8310 Y0.8979 
G01 X-1.8288 Y0.9046 
G01 X-1.8256 Y0.9109 
G01 X-1.8215 Y0.9165 
G01 X-1.8165 Y0.9215 
G01 X-1.8109 Y0.9256 
G01 X-1.8046 Y0.9288 
G01 X-1.7979 Y0.9310 
G01 X-1.7910 Y0.9321 
G01 X-1.7840 Y0.9321 
G01 X-1.7771 Y0.9310 
G01 X-1.7704 Y0.9288 
G01 X-1.7641 Y0.9256 
G01 X-1.7584 Y0.9215 
G01 X-1.7545 Y0.9176 
G01 X-1.6526 Y1.0195 
G01 X-1.6526 Y1.1855 
G01 X-1.6526 Y1.1895 
G01 X-1.6516 Y1.1933 
G01 X-1.6496 Y1.1968 
G01 X-1.5871 Y1.2593 
G01 X-1.5843 Y1.2621 
G01 X-1.5808 Y1.2641 
G01 X-1.5770 Y1.2651 
G01 X-1.4770 Y1.2651 
G01 X-1.4730 Y1.2651 
G01 X-1.4692 Y1.2641 
G01 X-1.4657 Y1.2621 
G01 X-1.4407 Y1.2371 
G01 X-1.4379 Y1.2343 
G01 X-1.4359 Y1.2308 
G01 X-1.4349 Y1.2270 
G01 X-1.4349 Y0.9812 
G01 X-1.3761 Y0.9224 
G01 X-1.3714 Y0.9271 
G01 X-1.3659 Y0.9308 
G01 X-1.3598 Y0.9333 
G01 X-1.3533 Y0.9346 
G01 X-1.3467 Y0.9346 
G01 X-1.3402 Y0.9333 
G01 X-1.3341 Y0.9308 
G01 X-1.3286 Y0.9271 
G01 X-1.3239 Y0.9224 
G01 X-1.3202 Y0.9169 
G01 X-1.3177 Y0.9108 
G01 X-1.3164 Y0.9043 
G01 X-1.3164 Y0.8457 
G01 X-1.3177 Y0.8392 
G01 X-1.3202 Y0.8331 
G01 X-1.3239 Y0.8276 
G01 X-1.3286 Y0.8229 
G01 X-1.3341 Y0.8192 
G01 X-1.3402 Y0.8167 
G01 X-1.3467 Y0.8154 
G01 X-1.3533 Y0.8154 
G01 X-1.3598 Y0.8167 
G01 X-1.3659 Y0.8192 
G01 X-1.3714 Y0.8229 
G01 X-1.3761 Y0.8276 
G01 X-1.3798 Y0.8331 
G01 X-1.3823 Y0.8392 
G01 X-1.3836 Y0.8457 
G01 X-1.3836 Y0.8872 
G01 X-1.4593 Y0.9629 
G01 X-1.4593 Y0.9629 
G01 X-1.4621 Y0.9657 
G01 X-1.4621 Y0.9657 
G01 X-1.4739 Y0.9776 
G01 X-1.4776 Y0.9739 
G01 X-1.4831 Y0.9702 
G01 X-1.4892 Y0.9677 
G01 X-1.4957 Y0.9664 
G01 X-1.5543 Y0.9664 
G01 X-1.5608 Y0.9677 
G01 X-1.5669 Y0.9702 
G01 X-1.5724 Y0.9739 
G01 X-1.5771 Y0.9786 
G01 X-1.5808 Y0.9841 
G01 X-1.5833 Y0.9902 
G01 X-1.5846 Y0.9967 
G01 X-1.5846 Y1.0033 
G01 X-1.5833 Y1.0098 
G01 X-1.5808 Y1.0159 
G01 X-1.5771 Y1.0214 
G01 X-1.5724 Y1.0261 
G01 X-1.5669 Y1.0298 
G01 X-1.5608 Y1.0323 
G01 X-1.5543 Y1.0336 
G00 Z0.0200 
G00 X-0.8196 Y0.2465 
G01 Z-0.0050 F2.50  
G01 X-0.8196 Y0.2535 
G01 X-0.8185 Y0.2604 
G01 X-0.8163 Y0.2671 
G01 X-0.8131 Y0.2734 
G01 X-0.8090 Y0.2790 
G01 X-0.8040 Y0.2840 
G01 X-0.7984 Y0.2881 
G01 X-0.7921 Y0.2913 
G01 X-0.7854 Y0.2935 
G01 X-0.7785 Y0.2946 
G01 X-0.7715 Y0.2946 
G01 X-0.7646 Y0.2935 
G01 X-0.7579 Y0.2913 
G01 X-0.7516 Y0.2881 
G01 X-0.7459 Y0.2840 
G01 X-0.7410 Y0.2790 
G01 X-0.7369 Y0.2734 
G01 X-0.7337 Y0.2671 
G01 X-0.7330 Y0.2651 
G01 X-0.7313 Y0.2651 
G01 X-0.6593 Y0.3371 
G01 X-0.6558 Y0.3391 
G01 X-0.6520 Y0.3401 
G01 X-0.6480 Y0.3401 
G01 X-0.5670 Y0.3401 
G01 X-0.5663 Y0.3421 
G01 X-0.5631 Y0.3484 
G01 X-0.5590 Y0.3540 
G01 X-0.5540 Y0.3590 
G01 X-0.5484 Y0.3631 
G01 X-0.5421 Y0.3663 
G01 X-0.5354 Y0.3685 
G01 X-0.5285 Y0.3696 
G01 X-0.5215 Y0.3696 
G01 X-0.5146 Y0.3685 
G01 X-0.5079 Y0.3663 
G01 X-0.5016 Y0.3631 
G01 X-0.4959 Y0.3590 
G01 X-0.4910 Y0.3540 
G01 X-0.4869 Y0.3484 
G01 X-0.4837 Y0.3421 
G01 X-0.4815 Y0.3354 
G01 X-0.4804 Y0.3285 
G01 X-0.4804 Y0.3215 
G01 X-0.4815 Y0.3146 
G01 X-0.4837 Y0.3079 
G01 X-0.4869 Y0.3016 
G01 X-0.4910 Y0.2959 
G01 X-0.4959 Y0.2910 
G01 X-0.5016 Y0.2869 
G01 X-0.5079 Y0.2837 
G01 X-0.5146 Y0.2815 
G01 X-0.5215 Y0.2804 
G01 X-0.5285 Y0.2804 
G01 X-0.5354 Y0.2815 
G01 X-0.5421 Y0.2837 
G01 X-0.5484 Y0.2869 
G01 X-0.5540 Y0.2910 
G01 X-0.5590 Y0.2959 
G01 X-0.5631 Y0.3016 
G01 X-0.5663 Y0.3079 
G01 X-0.5670 Y0.3099 
G01 X-0.6437 Y0.3099 
G01 X-0.7157 Y0.2379 
G01 X-0.7192 Y0.2359 
G01 X-0.7230 Y0.2349 
G01 X-0.7270 Y0.2349 
G01 X-0.7330 Y0.2349 
G01 X-0.7337 Y0.2329 
G01 X-0.7369 Y0.2266 
G01 X-0.7410 Y0.2209 
G01 X-0.7459 Y0.2160 
G01 X-0.7516 Y0.2119 
G01 X-0.7579 Y0.2087 
G01 X-0.7646 Y0.2065 
G01 X-0.7715 Y0.2054 
G01 X-0.7785 Y0.2054 
G01 X-0.7854 Y0.2065 
G01 X-0.7921 Y0.2087 
G01 X-0.7984 Y0.2119 
G01 X-0.8040 Y0.2160 
G01 X-0.8090 Y0.2209 
G01 X-0.8131 Y0.2266 
G01 X-0.8163 Y0.2329 
G01 X-0.8185 Y0.2396 
G01 X-0.8196 Y0.2465 
G00 Z0.0200 
G00 X-1.2836 Y0.8457 
G01 Z-0.0050 F2.50  
G01 X-1.2836 Y0.9043 
G01 X-1.2823 Y0.9108 
G01 X-1.2798 Y0.9169 
G01 X-1.2761 Y0.9224 
G01 X-1.2714 Y0.9271 
G01 X-1.2659 Y0.9308 
G01 X-1.2598 Y0.9333 
G01 X-1.2533 Y0.9346 
G01 X-1.2467 Y0.9346 
G01 X-1.2402 Y0.9333 
G01 X-1.2341 Y0.9308 
G01 X-1.2286 Y0.9271 
G01 X-1.2239 Y0.9224 
G01 X-1.2202 Y0.9169 
G01 X-1.2177 Y0.9108 
G01 X-1.2164 Y0.9043 
G01 X-1.2164 Y0.8457 
G01 X-1.2177 Y0.8392 
G01 X-1.2202 Y0.8331 
G01 X-1.2239 Y0.8276 
G01 X-1.2286 Y0.8229 
G01 X-1.2341 Y0.8192 
G01 X-1.2349 Y0.8189 
G01 X-1.2349 Y0.7539 
G01 X-1.2344 Y0.7521 
G01 X-1.2344 Y0.7479 
G01 X-1.2355 Y0.7440 
G01 X-1.2375 Y0.7404 
G01 X-1.2779 Y0.7000 
G01 X-1.2815 Y0.6980 
G01 X-1.2854 Y0.6969 
G01 X-1.2896 Y0.6969 
G01 X-1.4271 Y0.6969 
G01 X-1.4310 Y0.6980 
G01 X-1.4346 Y0.7000 
G01 X-1.4375 Y0.7029 
G01 X-1.5125 Y0.7779 
G01 X-1.5145 Y0.7815 
G01 X-1.5156 Y0.7854 
G01 X-1.5156 Y0.7896 
G01 X-1.5151 Y0.7914 
G01 X-1.5151 Y0.9187 
G01 X-1.5313 Y0.9349 
G01 X-1.5980 Y0.9349 
G01 X-1.6020 Y0.9349 
G01 X-1.6058 Y0.9359 
G01 X-1.6093 Y0.9379 
G01 X-1.6121 Y0.9407 
G01 X-1.6141 Y0.9442 
G01 X-1.6151 Y0.9480 
G01 X-1.6151 Y1.0230 
G01 X-1.6151 Y1.0270 
G01 X-1.6141 Y1.0308 
G01 X-1.6121 Y1.0343 
G01 X-1.5724 Y1.0739 
G01 X-1.5771 Y1.0786 
G01 X-1.5808 Y1.0841 
G01 X-1.5833 Y1.0902 
G01 X-1.5846 Y1.0967 
G01 X-1.5846 Y1.1033 
G01 X-1.5833 Y1.1098 
G01 X-1.5808 Y1.1159 
G01 X-1.5771 Y1.1214 
G01 X-1.5724 Y1.1261 
G01 X-1.5669 Y1.1298 
G01 X-1.5608 Y1.1323 
G01 X-1.5543 Y1.1336 
G01 X-1.5401 Y1.1336 
G01 X-1.5401 Y1.1664 
G01 X-1.5543 Y1.1664 
G01 X-1.5608 Y1.1677 
G01 X-1.5669 Y1.1702 
G01 X-1.5724 Y1.1739 
G01 X-1.5771 Y1.1786 
G01 X-1.5808 Y1.1841 
G01 X-1.5833 Y1.1902 
G01 X-1.5846 Y1.1967 
G01 X-1.5846 Y1.2033 
G01 X-1.5833 Y1.2098 
G01 X-1.5808 Y1.2159 
G01 X-1.5771 Y1.2214 
G01 X-1.5724 Y1.2261 
G01 X-1.5669 Y1.2298 
G01 X-1.5608 Y1.2323 
G01 X-1.5543 Y1.2336 
G01 X-1.4957 Y1.2336 
G01 X-1.4892 Y1.2323 
G01 X-1.4831 Y1.2298 
G01 X-1.4776 Y1.2261 
G01 X-1.4729 Y1.2214 
G01 X-1.4692 Y1.2159 
G01 X-1.4667 Y1.2098 
G01 X-1.4654 Y1.2033 
G01 X-1.4654 Y1.1967 
G01 X-1.4667 Y1.1902 
G01 X-1.4692 Y1.1841 
G01 X-1.4729 Y1.1786 
G01 X-1.4776 Y1.1739 
G01 X-1.4831 Y1.1702 
G01 X-1.4892 Y1.1677 
G01 X-1.4957 Y1.1664 
G01 X-1.5099 Y1.1664 
G01 X-1.5099 Y1.1336 
G01 X-1.4957 Y1.1336 
G01 X-1.4892 Y1.1323 
G01 X-1.4831 Y1.1298 
G01 X-1.4776 Y1.1261 
G01 X-1.4729 Y1.1214 
G01 X-1.4692 Y1.1159 
G01 X-1.4667 Y1.1098 
G01 X-1.4654 Y1.1033 
G01 X-1.4654 Y1.0967 
G01 X-1.4667 Y1.0902 
G01 X-1.4692 Y1.0841 
G01 X-1.4729 Y1.0786 
G01 X-1.4776 Y1.0739 
G01 X-1.4831 Y1.0702 
G01 X-1.4892 Y1.0677 
G01 X-1.4957 Y1.0664 
G01 X-1.5372 Y1.0664 
G01 X-1.5849 Y1.0187 
G01 X-1.5849 Y0.9651 
G01 X-1.5230 Y0.9651 
G01 X-1.5192 Y0.9641 
G01 X-1.5157 Y0.9621 
G01 X-1.5129 Y0.9593 
G01 X-1.4879 Y0.9343 
G01 X-1.4859 Y0.9308 
G01 X-1.4849 Y0.9270 
G01 X-1.4849 Y0.9230 
G01 X-1.4849 Y0.7945 
G01 X-1.4185 Y0.7281 
G01 X-1.2940 Y0.7281 
G01 X-1.2651 Y0.7570 
G01 X-1.2651 Y0.8189 
G01 X-1.2659 Y0.8192 
G01 X-1.2714 Y0.8229 
G01 X-1.2761 Y0.8276 
G01 X-1.2798 Y0.8331 
G01 X-1.2823 Y0.8392 
G01 X-1.2836 Y0.8457 
G00 Z0.0200 
G00 X-1.0836 Y0.8457 
G01 Z-0.0050 F2.50  
G01 X-1.0836 Y0.9043 
G01 X-1.0823 Y0.9108 
G01 X-1.0798 Y0.9169 
G01 X-1.0761 Y0.9224 
G01 X-1.0714 Y0.9271 
G01 X-1.0659 Y0.9308 
G01 X-1.0598 Y0.9333 
G01 X-1.0533 Y0.9346 
G01 X-1.0467 Y0.9346 
G01 X-1.0402 Y0.9333 
G01 X-1.0341 Y0.9308 
G01 X-1.0286 Y0.9271 
G01 X-1.0239 Y0.9224 
G01 X-1.0202 Y0.9169 
G01 X-1.0177 Y0.9108 
G01 X-1.0164 Y0.9043 
G01 X-1.0164 Y0.8457 
G01 X-1.0177 Y0.8392 
G01 X-1.0202 Y0.8331 
G01 X-1.0239 Y0.8276 
G01 X-1.0286 Y0.8229 
G01 X-1.0341 Y0.8192 
G01 X-1.0402 Y0.8167 
G01 X-1.0467 Y0.8154 
G01 X-1.0533 Y0.8154 
G01 X-1.0598 Y0.8167 
G01 X-1.0659 Y0.8192 
G01 X-1.0714 Y0.8229 
G01 X-1.0761 Y0.8276 
G01 X-1.0798 Y0.8331 
G01 X-1.0823 Y0.8392 
G01 X-1.0836 Y0.8457 
G00 Z0.0200 
G00 X-0.3836 Y0.8457 
G01 Z-0.0050 F2.50  
G01 X-0.3836 Y0.9043 
G01 X-0.3823 Y0.9108 
G01 X-0.3798 Y0.9169 
G01 X-0.3761 Y0.9224 
G01 X-0.3714 Y0.9271 
G01 X-0.3659 Y0.9308 
G01 X-0.3598 Y0.9333 
G01 X-0.3533 Y0.9346 
G01 X-0.3467 Y0.9346 
G01 X-0.3402 Y0.9333 
G01 X-0.3341 Y0.9308 
G01 X-0.3286 Y0.9271 
G01 X-0.3239 Y0.9224 
G01 X-0.3202 Y0.9169 
G01 X-0.3177 Y0.9108 
G01 X-0.3164 Y0.9043 
G01 X-0.3164 Y0.8457 
G01 X-0.3177 Y0.8392 
G01 X-0.3202 Y0.8331 
G01 X-0.3239 Y0.8276 
G01 X-0.3286 Y0.8229 
G01 X-0.3341 Y0.8192 
G01 X-0.3402 Y0.8167 
G01 X-0.3467 Y0.8154 
G01 X-0.3533 Y0.8154 
G01 X-0.3598 Y0.8167 
G01 X-0.3659 Y0.8192 
G01 X-0.3714 Y0.8229 
G01 X-0.3761 Y0.8276 
G01 X-0.3798 Y0.8331 
G01 X-0.3823 Y0.8392 
G01 X-0.3836 Y0.8457 
G00 Z0.0200 
G00 X-0.2836 Y0.8457 
G01 Z-0.0050 F2.50  
G01 X-0.2836 Y0.9043 
G01 X-0.2823 Y0.9108 
G01 X-0.2798 Y0.9169 
G01 X-0.2761 Y0.9224 
G01 X-0.2714 Y0.9271 
G01 X-0.2659 Y0.9308 
G01 X-0.2598 Y0.9333 
G01 X-0.2533 Y0.9346 
G01 X-0.2467 Y0.9346 
G01 X-0.2402 Y0.9333 
G01 X-0.2341 Y0.9308 
G01 X-0.2286 Y0.9271 
G01 X-0.2239 Y0.9224 
G01 X-0.2202 Y0.9169 
G01 X-0.2177 Y0.9108 
G01 X-0.2164 Y0.9043 
G01 X-0.2164 Y0.8457 
G01 X-0.2177 Y0.8392 
G01 X-0.2202 Y0.8331 
G01 X-0.2239 Y0.8276 
G01 X-0.2286 Y0.8229 
G01 X-0.2341 Y0.8192 
G01 X-0.2402 Y0.8167 
G01 X-0.2467 Y0.8154 
G01 X-0.2533 Y0.8154 
G01 X-0.2598 Y0.8167 
G01 X-0.2659 Y0.8192 
G01 X-0.2714 Y0.8229 
G01 X-0.2761 Y0.8276 
G01 X-0.2798 Y0.8331 
G01 X-0.2823 Y0.8392 
G01 X-0.2836 Y0.8457 
G00 Z0.0200 
G00 X-0.2836 Y0.5457 
G01 Z-0.0050 F2.50  
G01 X-0.2836 Y0.6043 
G01 X-0.2823 Y0.6108 
G01 X-0.2798 Y0.6169 
G01 X-0.2761 Y0.6224 
G01 X-0.2714 Y0.6271 
G01 X-0.2659 Y0.6308 
G01 X-0.2598 Y0.6333 
G01 X-0.2533 Y0.6346 
G01 X-0.2467 Y0.6346 
G01 X-0.2402 Y0.6333 
G01 X-0.2341 Y0.6308 
G01 X-0.2286 Y0.6271 
G01 X-0.2239 Y0.6224 
G01 X-0.2202 Y0.6169 
G01 X-0.2177 Y0.6108 
G01 X-0.2164 Y0.6043 
G01 X-0.2164 Y0.5457 
G01 X-0.2177 Y0.5392 
G01 X-0.2202 Y0.5331 
G01 X-0.2239 Y0.5276 
G01 X-0.2286 Y0.5229 
G01 X-0.2341 Y0.5192 
G01 X-0.2402 Y0.5167 
G01 X-0.2467 Y0.5154 
G01 X-0.2533 Y0.5154 
G01 X-0.2598 Y0.5167 
G01 X-0.2659 Y0.5192 
G01 X-0.2714 Y0.5229 
G01 X-0.2761 Y0.5276 
G01 X-0.2798 Y0.5331 
G01 X-0.2823 Y0.5392 
G01 X-0.2836 Y0.5457 
G00 Z0.0200 
G00 X-0.3836 Y0.5457 
G01 Z-0.0050 F2.50  
G01 X-0.3836 Y0.6043 
G01 X-0.3823 Y0.6108 
G01 X-0.3798 Y0.6169 
G01 X-0.3761 Y0.6224 
G01 X-0.3714 Y0.6271 
G01 X-0.3659 Y0.6308 
G01 X-0.3598 Y0.6333 
G01 X-0.3533 Y0.6346 
G01 X-0.3467 Y0.6346 
G01 X-0.3402 Y0.6333 
G01 X-0.3341 Y0.6308 
G01 X-0.3286 Y0.6271 
G01 X-0.3239 Y0.6224 
G01 X-0.3202 Y0.6169 
G01 X-0.3177 Y0.6108 
G01 X-0.3164 Y0.6043 
G01 X-0.3164 Y0.5457 
G01 X-0.3177 Y0.5392 
G01 X-0.3202 Y0.5331 
G01 X-0.3239 Y0.5276 
G01 X-0.3286 Y0.5229 
G01 X-0.3341 Y0.5192 
G01 X-0.3402 Y0.5167 
G01 X-0.3467 Y0.5154 
G01 X-0.3533 Y0.5154 
G01 X-0.3598 Y0.5167 
G01 X-0.3659 Y0.5192 
G01 X-0.3714 Y0.5229 
G01 X-0.3761 Y0.5276 
G01 X-0.3798 Y0.5331 
G01 X-0.3823 Y0.5392 
G01 X-0.3836 Y0.5457 
G00 Z0.0200 
G00 X-0.4836 Y0.5457 
G01 Z-0.0050 F2.50  
G01 X-0.4836 Y0.6043 
G01 X-0.4823 Y0.6108 
G01 X-0.4798 Y0.6169 
G01 X-0.4761 Y0.6224 
G01 X-0.4714 Y0.6271 
G01 X-0.4659 Y0.6308 
G01 X-0.4598 Y0.6333 
G01 X-0.4533 Y0.6346 
G01 X-0.4467 Y0.6346 
G01 X-0.4402 Y0.6333 
G01 X-0.4341 Y0.6308 
G01 X-0.4286 Y0.6271 
G01 X-0.4239 Y0.6224 
G01 X-0.4202 Y0.6169 
G01 X-0.4177 Y0.6108 
G01 X-0.4164 Y0.6043 
G01 X-0.4164 Y0.5457 
G01 X-0.4177 Y0.5392 
G01 X-0.4202 Y0.5331 
G01 X-0.4239 Y0.5276 
G01 X-0.4286 Y0.5229 
G01 X-0.4341 Y0.5192 
G01 X-0.4402 Y0.5167 
G01 X-0.4467 Y0.5154 
G01 X-0.4533 Y0.5154 
G01 X-0.4598 Y0.5167 
G01 X-0.4659 Y0.5192 
G01 X-0.4714 Y0.5229 
G01 X-0.4761 Y0.5276 
G01 X-0.4798 Y0.5331 
G01 X-0.4823 Y0.5392 
G01 X-0.4836 Y0.5457 
G00 Z0.0200 
G00 X-0.5836 Y0.5457 
G01 Z-0.0050 F2.50  
G01 X-0.5836 Y0.6043 
G01 X-0.5823 Y0.6108 
G01 X-0.5798 Y0.6169 
G01 X-0.5761 Y0.6224 
G01 X-0.5714 Y0.6271 
G01 X-0.5659 Y0.6308 
G01 X-0.5598 Y0.6333 
G01 X-0.5533 Y0.6346 
G01 X-0.5467 Y0.6346 
G01 X-0.5402 Y0.6333 
G01 X-0.5341 Y0.6308 
G01 X-0.5286 Y0.6271 
G01 X-0.5239 Y0.6224 
G01 X-0.5202 Y0.6169 
G01 X-0.5177 Y0.6108 
G01 X-0.5164 Y0.6043 
G01 X-0.5164 Y0.5457 
G01 X-0.5177 Y0.5392 
G01 X-0.5202 Y0.5331 
G01 X-0.5239 Y0.5276 
G01 X-0.5286 Y0.5229 
G01 X-0.5341 Y0.5192 
G01 X-0.5402 Y0.5167 
G01 X-0.5467 Y0.5154 
G01 X-0.5533 Y0.5154 
G01 X-0.5598 Y0.5167 
G01 X-0.5659 Y0.5192 
G01 X-0.5714 Y0.5229 
G01 X-0.5761 Y0.5276 
G01 X-0.5798 Y0.5331 
G01 X-0.5823 Y0.5392 
G01 X-0.5836 Y0.5457 
G00 Z0.0200 
G00 X-0.6836 Y0.5457 
G01 Z-0.0050 F2.50  
G01 X-0.6836 Y0.6043 
G01 X-0.6823 Y0.6108 
G01 X-0.6798 Y0.6169 
G01 X-0.6761 Y0.6224 
G01 X-0.6714 Y0.6271 
G01 X-0.6659 Y0.6308 
G01 X-0.6598 Y0.6333 
G01 X-0.6533 Y0.6346 
G01 X-0.6467 Y0.6346 
G01 X-0.6402 Y0.6333 
G01 X-0.6341 Y0.6308 
G01 X-0.6286 Y0.6271 
G01 X-0.6239 Y0.6224 
G01 X-0.6202 Y0.6169 
G01 X-0.6177 Y0.6108 
G01 X-0.6164 Y0.6043 
G01 X-0.6164 Y0.5457 
G01 X-0.6177 Y0.5392 
G01 X-0.6202 Y0.5331 
G01 X-0.6239 Y0.5276 
G01 X-0.6286 Y0.5229 
G01 X-0.6341 Y0.5192 
G01 X-0.6349 Y0.5189 
G01 X-0.6349 Y0.5085 
G01 X-0.5533 Y0.4596 
G01 X-0.5484 Y0.4631 
G01 X-0.5421 Y0.4663 
G01 X-0.5354 Y0.4685 
G01 X-0.5285 Y0.4696 
G01 X-0.5215 Y0.4696 
G01 X-0.5146 Y0.4685 
G01 X-0.5079 Y0.4663 
G01 X-0.5016 Y0.4631 
G01 X-0.4959 Y0.4590 
G01 X-0.4910 Y0.4540 
G01 X-0.4869 Y0.4484 
G01 X-0.4837 Y0.4421 
G01 X-0.4815 Y0.4354 
G01 X-0.4804 Y0.4285 
G01 X-0.4804 Y0.4215 
G01 X-0.4815 Y0.4146 
G01 X-0.4837 Y0.4079 
G01 X-0.4869 Y0.4016 
G01 X-0.4910 Y0.3959 
G01 X-0.4959 Y0.3910 
G01 X-0.5016 Y0.3869 
G01 X-0.5079 Y0.3837 
G01 X-0.5146 Y0.3815 
G01 X-0.5215 Y0.3804 
G01 X-0.5285 Y0.3804 
G01 X-0.5354 Y0.3815 
G01 X-0.5421 Y0.3837 
G01 X-0.5484 Y0.3869 
G01 X-0.5540 Y0.3910 
G01 X-0.5590 Y0.3959 
G01 X-0.5631 Y0.4016 
G01 X-0.5663 Y0.4079 
G01 X-0.5685 Y0.4146 
G01 X-0.5696 Y0.4215 
G01 X-0.5696 Y0.4285 
G01 X-0.5688 Y0.4337 
G01 X-0.6576 Y0.4870 
G01 X-0.6593 Y0.4879 
G01 X-0.6594 Y0.4880 
G01 X-0.6595 Y0.4881 
G01 X-0.6607 Y0.4894 
G01 X-0.6621 Y0.4907 
G01 X-0.6621 Y0.4908 
G01 X-0.6622 Y0.4909 
G01 X-0.6631 Y0.4925 
G01 X-0.6641 Y0.4942 
G01 X-0.6641 Y0.4943 
G01 X-0.6642 Y0.4944 
G01 X-0.6646 Y0.4962 
G01 X-0.6651 Y0.4980 
G01 X-0.6651 Y0.4981 
G01 X-0.6651 Y0.4983 
G01 X-0.6651 Y0.5001 
G01 X-0.6651 Y0.5189 
G01 X-0.6659 Y0.5192 
G01 X-0.6714 Y0.5229 
G01 X-0.6761 Y0.5276 
G01 X-0.6798 Y0.5331 
G01 X-0.6823 Y0.5392 
G01 X-0.6836 Y0.5457 
G00 Z0.0200 
G00 X-0.8836 Y0.5457 
G01 Z-0.0050 F2.50  
G01 X-0.8836 Y0.6043 
G01 X-0.8823 Y0.6108 
G01 X-0.8798 Y0.6169 
G01 X-0.8761 Y0.6224 
G01 X-0.8714 Y0.6271 
G01 X-0.8659 Y0.6308 
G01 X-0.8598 Y0.6333 
G01 X-0.8533 Y0.6346 
G01 X-0.8467 Y0.6346 
G01 X-0.8402 Y0.6333 
G01 X-0.8341 Y0.6308 
G01 X-0.8286 Y0.6271 
G01 X-0.8239 Y0.6224 
G01 X-0.8202 Y0.6169 
G01 X-0.8177 Y0.6108 
G01 X-0.8164 Y0.6043 
G01 X-0.8164 Y0.5457 
G01 X-0.8177 Y0.5392 
G01 X-0.8202 Y0.5331 
G01 X-0.8239 Y0.5276 
G01 X-0.8286 Y0.5229 
G01 X-0.8341 Y0.5192 
G01 X-0.8402 Y0.5167 
G01 X-0.8467 Y0.5154 
G01 X-0.8533 Y0.5154 
G01 X-0.8598 Y0.5167 
G01 X-0.8659 Y0.5192 
G01 X-0.8714 Y0.5229 
G01 X-0.8761 Y0.5276 
G01 X-0.8798 Y0.5331 
G01 X-0.8823 Y0.5392 
G01 X-0.8836 Y0.5457 
G00 Z0.0200 
G00 X-1.0836 Y0.5457 
G01 Z-0.0050 F2.50  
G01 X-1.0836 Y0.6043 
G01 X-1.0823 Y0.6108 
G01 X-1.0798 Y0.6169 
G01 X-1.0761 Y0.6224 
G01 X-1.0714 Y0.6271 
G01 X-1.0659 Y0.6308 
G01 X-1.0598 Y0.6333 
G01 X-1.0533 Y0.6346 
G01 X-1.0467 Y0.6346 
G01 X-1.0402 Y0.6333 
G01 X-1.0341 Y0.6308 
G01 X-1.0286 Y0.6271 
G01 X-1.0239 Y0.6224 
G01 X-1.0202 Y0.6169 
G01 X-1.0177 Y0.6108 
G01 X-1.0164 Y0.6043 
G01 X-1.0164 Y0.5457 
G01 X-1.0177 Y0.5392 
G01 X-1.0202 Y0.5331 
G01 X-1.0239 Y0.5276 
G01 X-1.0286 Y0.5229 
G01 X-1.0341 Y0.5192 
G01 X-1.0402 Y0.5167 
G01 X-1.0467 Y0.5154 
G01 X-1.0533 Y0.5154 
G01 X-1.0598 Y0.5167 
G01 X-1.0659 Y0.5192 
G01 X-1.0714 Y0.5229 
G01 X-1.0761 Y0.5276 
G01 X-1.0798 Y0.5331 
G01 X-1.0823 Y0.5392 
G01 X-1.0836 Y0.5457 
G00 Z0.0200 
G00 X-1.1836 Y0.5457 
G01 Z-0.0050 F2.50  
G01 X-1.1836 Y0.6043 
G01 X-1.1823 Y0.6108 
G01 X-1.1798 Y0.6169 
G01 X-1.1761 Y0.6224 
G01 X-1.1714 Y0.6271 
G01 X-1.1659 Y0.6308 
G01 X-1.1598 Y0.6333 
G01 X-1.1533 Y0.6346 
G01 X-1.1467 Y0.6346 
G01 X-1.1402 Y0.6333 
G01 X-1.1341 Y0.6308 
G01 X-1.1286 Y0.6271 
G01 X-1.1239 Y0.6224 
G01 X-1.1202 Y0.6169 
G01 X-1.1177 Y0.6108 
G01 X-1.1164 Y0.6043 
G01 X-1.1164 Y0.5457 
G01 X-1.1177 Y0.5392 
G01 X-1.1202 Y0.5331 
G01 X-1.1239 Y0.5276 
G01 X-1.1286 Y0.5229 
G01 X-1.1341 Y0.5192 
G01 X-1.1402 Y0.5167 
G01 X-1.1467 Y0.5154 
G01 X-1.1533 Y0.5154 
G01 X-1.1598 Y0.5167 
G01 X-1.1659 Y0.5192 
G01 X-1.1714 Y0.5229 
G01 X-1.1761 Y0.5276 
G01 X-1.1798 Y0.5331 
G01 X-1.1823 Y0.5392 
G01 X-1.1836 Y0.5457 
G00 Z0.0200 
G00 X-1.2836 Y0.5457 
G01 Z-0.0050 F2.50  
G01 X-1.2836 Y0.6043 
G01 X-1.2823 Y0.6108 
G01 X-1.2798 Y0.6169 
G01 X-1.2761 Y0.6224 
G01 X-1.2714 Y0.6271 
G01 X-1.2659 Y0.6308 
G01 X-1.2598 Y0.6333 
G01 X-1.2533 Y0.6346 
G01 X-1.2467 Y0.6346 
G01 X-1.2402 Y0.6333 
G01 X-1.2341 Y0.6308 
G01 X-1.2286 Y0.6271 
G01 X-1.2239 Y0.6224 
G01 X-1.2202 Y0.6169 
G01 X-1.2177 Y0.6108 
G01 X-1.2164 Y0.6043 
G01 X-1.2164 Y0.5457 
G01 X-1.2177 Y0.5392 
G01 X-1.2202 Y0.5331 
G01 X-1.2239 Y0.5276 
G01 X-1.2286 Y0.5229 
G01 X-1.2341 Y0.5192 
G01 X-1.2402 Y0.5167 
G01 X-1.2467 Y0.5154 
G01 X-1.2533 Y0.5154 
G01 X-1.2598 Y0.5167 
G01 X-1.2659 Y0.5192 
G01 X-1.2714 Y0.5229 
G01 X-1.2761 Y0.5276 
G01 X-1.2798 Y0.5331 
G01 X-1.2823 Y0.5392 
G01 X-1.2836 Y0.5457 
G00 Z0.0200 
G00 X-1.3836 Y0.5457 
G01 Z-0.0050 F2.50  
G01 X-1.3836 Y0.6043 
G01 X-1.3823 Y0.6108 
G01 X-1.3798 Y0.6169 
G01 X-1.3761 Y0.6224 
G01 X-1.3714 Y0.6271 
G01 X-1.3659 Y0.6308 
G01 X-1.3598 Y0.6333 
G01 X-1.3533 Y0.6346 
G01 X-1.3467 Y0.6346 
G01 X-1.3402 Y0.6333 
G01 X-1.3341 Y0.6308 
G01 X-1.3286 Y0.6271 
G01 X-1.3239 Y0.6224 
G01 X-1.3202 Y0.6169 
G01 X-1.3177 Y0.6108 
G01 X-1.3164 Y0.6043 
G01 X-1.3164 Y0.5457 
G01 X-1.3177 Y0.5392 
G01 X-1.3202 Y0.5331 
G01 X-1.3239 Y0.5276 
G01 X-1.3286 Y0.5229 
G01 X-1.3341 Y0.5192 
G01 X-1.3402 Y0.5167 
G01 X-1.3467 Y0.5154 
G01 X-1.3533 Y0.5154 
G01 X-1.3598 Y0.5167 
G01 X-1.3659 Y0.5192 
G01 X-1.3714 Y0.5229 
G01 X-1.3761 Y0.5276 
G01 X-1.3798 Y0.5331 
G01 X-1.3823 Y0.5392 
G01 X-1.3836 Y0.5457 
G00 Z0.0200 
G00 X-1.2946 Y0.3215 
G01 Z-0.0050 F2.50  
G01 X-1.2946 Y0.3285 
G01 X-1.2935 Y0.3354 
G01 X-1.2913 Y0.3421 
G01 X-1.2881 Y0.3484 
G01 X-1.2840 Y0.3540 
G01 X-1.2790 Y0.3590 
G01 X-1.2734 Y0.3631 
G01 X-1.2671 Y0.3663 
G01 X-1.2604 Y0.3685 
G01 X-1.2535 Y0.3696 
G01 X-1.2465 Y0.3696 
G01 X-1.2396 Y0.3685 
G01 X-1.2329 Y0.3663 
G01 X-1.2266 Y0.3631 
G01 X-1.2209 Y0.3590 
G01 X-1.2160 Y0.3540 
G01 X-1.2119 Y0.3484 
G01 X-1.2087 Y0.3421 
G01 X-1.2065 Y0.3354 
G01 X-1.2054 Y0.3285 
G01 X-1.2054 Y0.3215 
G01 X-1.2065 Y0.3146 
G01 X-1.2087 Y0.3079 
G01 X-1.2119 Y0.3016 
G01 X-1.2160 Y0.2959 
G01 X-1.2209 Y0.2910 
G01 X-1.2266 Y0.2869 
G01 X-1.2329 Y0.2837 
G01 X-1.2396 Y0.2815 
G01 X-1.2465 Y0.2804 
G01 X-1.2535 Y0.2804 
G01 X-1.2604 Y0.2815 
G01 X-1.2671 Y0.2837 
G01 X-1.2690 Y0.2846 
G01 X-1.4129 Y0.1407 
G01 X-1.4129 Y0.1407 
G01 X-1.4157 Y0.1379 
G01 X-1.4192 Y0.1359 
G01 X-1.4230 Y0.1349 
G01 X-2.0336 Y0.1349 
G01 X-2.0354 Y0.1344 
G01 X-2.0396 Y0.1344 
G01 X-2.0435 Y0.1355 
G01 X-2.0471 Y0.1375 
G01 X-2.1471 Y0.2375 
G01 X-2.1500 Y0.2404 
G01 X-2.1520 Y0.2440 
G01 X-2.1531 Y0.2479 
G01 X-2.1531 Y0.6060 
G01 X-2.1971 Y0.6500 
G01 X-2.2000 Y0.6529 
G01 X-2.2020 Y0.6565 
G01 X-2.2031 Y0.6604 
G01 X-2.2031 Y0.6935 
G01 X-2.2315 Y0.7219 
G01 X-2.3854 Y0.7219 
G01 X-2.3896 Y0.7219 
G01 X-2.3935 Y0.7230 
G01 X-2.3971 Y0.7250 
G01 X-2.4190 Y0.7469 
G01 X-2.4229 Y0.7469 
G01 X-2.4271 Y0.7469 
G01 X-2.4310 Y0.7480 
G01 X-2.4346 Y0.7500 
G01 X-2.4846 Y0.8000 
G01 X-2.4875 Y0.8029 
G01 X-2.4895 Y0.8065 
G01 X-2.4906 Y0.8104 
G01 X-2.4906 Y0.9729 
G01 X-2.4906 Y0.9771 
G01 X-2.4895 Y0.9810 
G01 X-2.4875 Y0.9846 
G01 X-2.4500 Y1.0221 
G01 X-2.4471 Y1.0250 
G01 X-2.4435 Y1.0270 
G01 X-2.4396 Y1.0281 
G01 X-2.4190 Y1.0281 
G01 X-2.3750 Y1.0721 
G01 X-2.3721 Y1.0750 
G01 X-2.3685 Y1.0770 
G01 X-2.3646 Y1.0781 
G01 X-2.2031 Y1.0781 
G01 X-2.2031 Y1.1104 
G01 X-2.2031 Y1.1146 
G01 X-2.2020 Y1.1185 
G01 X-2.2000 Y1.1221 
G01 X-2.1125 Y1.2096 
G01 X-2.1125 Y1.2096 
G01 X-2.1096 Y1.2125 
G01 X-2.1060 Y1.2145 
G01 X-2.1021 Y1.2156 
G01 X-1.9315 Y1.2156 
G01 X-1.9156 Y1.2315 
G01 X-1.9156 Y1.2729 
G01 X-1.9156 Y1.2771 
G01 X-1.9145 Y1.2810 
G01 X-1.9125 Y1.2846 
G01 X-1.8875 Y1.3096 
G01 X-1.8846 Y1.3125 
G01 X-1.8814 Y1.3143 
G01 X-1.8808 Y1.3159 
G01 X-1.8771 Y1.3214 
G01 X-1.8724 Y1.3261 
G01 X-1.8669 Y1.3298 
G01 X-1.8608 Y1.3323 
G01 X-1.8543 Y1.3336 
G01 X-1.7957 Y1.3336 
G01 X-1.7892 Y1.3323 
G01 X-1.7831 Y1.3298 
G01 X-1.7776 Y1.3261 
G01 X-1.7729 Y1.3214 
G01 X-1.7692 Y1.3159 
G01 X-1.7667 Y1.3098 
G01 X-1.7654 Y1.3033 
G01 X-1.7654 Y1.2967 
G01 X-1.7667 Y1.2902 
G01 X-1.7692 Y1.2841 
G01 X-1.7729 Y1.2786 
G01 X-1.7776 Y1.2739 
G01 X-1.7741 Y1.2705 
G01 X-1.6227 Y1.3986 
G01 X-1.6218 Y1.3996 
G01 X-1.6212 Y1.3999 
G01 X-1.6207 Y1.4003 
G01 X-1.6195 Y1.4009 
G01 X-1.6183 Y1.4016 
G01 X-1.6177 Y1.4017 
G01 X-1.6171 Y1.4020 
G01 X-1.6158 Y1.4022 
G01 X-1.6145 Y1.4026 
G01 X-1.6139 Y1.4026 
G01 X-1.6132 Y1.4027 
G01 X-1.6119 Y1.4026 
G01 X-1.3605 Y1.4026 
G01 X-1.3567 Y1.4016 
G01 X-1.3532 Y1.3996 
G01 X-1.3504 Y1.3968 
G01 X-1.2687 Y1.3151 
G01 X-0.9355 Y1.3151 
G01 X-0.9317 Y1.3141 
G01 X-0.9282 Y1.3121 
G01 X-0.9254 Y1.3093 
G01 X-0.8782 Y1.2621 
G01 X-0.8754 Y1.2593 
G01 X-0.8734 Y1.2558 
G01 X-0.8724 Y1.2520 
G01 X-0.8724 Y1.1230 
G01 X-0.8734 Y1.1192 
G01 X-0.8754 Y1.1157 
G01 X-0.8782 Y1.1129 
G01 X-0.8817 Y1.1109 
G01 X-0.8855 Y1.1099 
G01 X-0.8895 Y1.1099 
G01 X-0.8974 Y1.1099 
G01 X-0.8974 Y1.0105 
G01 X-0.8984 Y1.0067 
G01 X-0.9004 Y1.0032 
G01 X-0.9032 Y1.0004 
G01 X-0.9349 Y0.9687 
G01 X-0.9349 Y0.9311 
G01 X-0.9341 Y0.9308 
G01 X-0.9286 Y0.9271 
G01 X-0.9239 Y0.9224 
G01 X-0.9202 Y0.9169 
G01 X-0.9177 Y0.9108 
G01 X-0.9164 Y0.9043 
G01 X-0.9164 Y0.8627 
G01 X-0.8657 Y0.8121 
G01 X-0.8657 Y0.8121 
G01 X-0.8629 Y0.8093 
G01 X-0.8629 Y0.8093 
G01 X-0.7407 Y0.6871 
G01 X-0.7407 Y0.6871 
G01 X-0.7379 Y0.6843 
G01 X-0.7359 Y0.6808 
G01 X-0.7349 Y0.6770 
G01 X-0.7349 Y0.6311 
G01 X-0.7341 Y0.6308 
G01 X-0.7286 Y0.6271 
G01 X-0.7239 Y0.6224 
G01 X-0.7202 Y0.6169 
G01 X-0.7177 Y0.6108 
G01 X-0.7164 Y0.6043 
G01 X-0.7164 Y0.5457 
G01 X-0.7177 Y0.5392 
G01 X-0.7202 Y0.5331 
G01 X-0.7239 Y0.5276 
G01 X-0.7286 Y0.5229 
G01 X-0.7341 Y0.5192 
G01 X-0.7402 Y0.5167 
G01 X-0.7467 Y0.5154 
G01 X-0.7469 Y0.5154 
G01 X-0.7469 Y0.4776 
G01 X-0.7285 Y0.4776 
G01 X-0.7257 Y0.4764 
G01 X-0.7236 Y0.4743 
G01 X-0.7224 Y0.4715 
G01 X-0.7224 Y0.4035 
G01 X-0.7236 Y0.4007 
G01 X-0.7257 Y0.3986 
G01 X-0.7285 Y0.3974 
G01 X-0.7965 Y0.3974 
G01 X-0.7993 Y0.3986 
G01 X-0.8014 Y0.4007 
G01 X-0.8026 Y0.4035 
G01 X-0.8026 Y0.4715 
G01 X-0.8014 Y0.4743 
G01 X-0.7993 Y0.4764 
G01 X-0.7965 Y0.4776 
G01 X-0.7781 Y0.4776 
G01 X-0.7781 Y0.5271 
G01 X-0.7774 Y0.5296 
G01 X-0.7798 Y0.5331 
G01 X-0.7823 Y0.5392 
G01 X-0.7836 Y0.5457 
G01 X-0.7836 Y0.6043 
G01 X-0.7823 Y0.6108 
G01 X-0.7798 Y0.6169 
G01 X-0.7761 Y0.6224 
G01 X-0.7714 Y0.6271 
G01 X-0.7659 Y0.6308 
G01 X-0.7651 Y0.6311 
G01 X-0.7651 Y0.6687 
G01 X-0.8812 Y0.7849 
G01 X-1.0849 Y0.7849 
G01 X-1.0849 Y0.5270 
G01 X-1.0849 Y0.5230 
G01 X-1.0859 Y0.5192 
G01 X-1.0879 Y0.5157 
G01 X-1.1256 Y0.4781 
G01 X-1.1239 Y0.4742 
G01 X-1.1224 Y0.4664 
G01 X-1.1224 Y0.4585 
G01 X-1.1239 Y0.4508 
G01 X-1.1270 Y0.4435 
G01 X-1.1314 Y0.4369 
G01 X-1.1369 Y0.4314 
G01 X-1.1435 Y0.4270 
G01 X-1.1508 Y0.4239 
G01 X-1.1585 Y0.4224 
G01 X-1.1664 Y0.4224 
G01 X-1.1742 Y0.4239 
G01 X-1.1815 Y0.4270 
G01 X-1.1881 Y0.4314 
G01 X-1.1936 Y0.4369 
G01 X-1.1980 Y0.4435 
G01 X-1.2011 Y0.4508 
G01 X-1.2026 Y0.4585 
G01 X-1.2026 Y0.4664 
G01 X-1.2011 Y0.4742 
G01 X-1.1980 Y0.4815 
G01 X-1.1936 Y0.4881 
G01 X-1.1881 Y0.4936 
G01 X-1.1815 Y0.4980 
G01 X-1.1742 Y0.5011 
G01 X-1.1664 Y0.5026 
G01 X-1.1585 Y0.5026 
G01 X-1.1508 Y0.5011 
G01 X-1.1469 Y0.4994 
G01 X-1.1151 Y0.5313 
G01 X-1.1151 Y0.7849 
G01 X-1.1770 Y0.7849 
G01 X-1.1808 Y0.7859 
G01 X-1.1843 Y0.7879 
G01 X-1.1871 Y0.7907 
G01 X-1.1871 Y0.7907 
G01 X-1.2121 Y0.8157 
G01 X-1.2141 Y0.8192 
G01 X-1.2151 Y0.8230 
G01 X-1.2151 Y0.8270 
G01 X-1.2151 Y0.9200 
G01 X-1.2489 Y0.9651 
G01 X-1.2496 Y0.9657 
G01 X-1.2501 Y0.9667 
G01 X-1.2508 Y0.9675 
G01 X-1.2511 Y0.9684 
G01 X-1.2516 Y0.9692 
G01 X-1.2518 Y0.9702 
G01 X-1.2522 Y0.9712 
G01 X-1.2524 Y0.9721 
G01 X-1.2526 Y0.9730 
G01 X-1.2526 Y0.9741 
G01 X-1.2527 Y0.9752 
G01 X-1.2526 Y0.9761 
G01 X-1.2526 Y1.0301 
G01 X-1.2711 Y1.0486 
G01 X-1.2711 Y1.0764 
G01 X-1.2514 Y1.0961 
G01 X-1.2236 Y1.0961 
G01 X-1.2039 Y1.0764 
G01 X-1.2039 Y1.0486 
G01 X-1.2224 Y1.0301 
G01 X-1.2224 Y0.9800 
G01 X-1.1886 Y0.9349 
G01 X-1.1879 Y0.9343 
G01 X-1.1874 Y0.9333 
G01 X-1.1867 Y0.9325 
G01 X-1.1864 Y0.9316 
G01 X-1.1859 Y0.9308 
G01 X-1.1857 Y0.9298 
G01 X-1.1853 Y0.9288 
G01 X-1.1851 Y0.9279 
G01 X-1.1849 Y0.9270 
G01 X-1.1849 Y0.9259 
G01 X-1.1848 Y0.9248 
G01 X-1.1849 Y0.9239 
G01 X-1.1849 Y0.8313 
G01 X-1.1687 Y0.8151 
G01 X-1.1020 Y0.8151 
G01 X-1.0980 Y0.8151 
G01 X-0.9114 Y0.8151 
G01 X-0.9239 Y0.8276 
G01 X-0.9286 Y0.8229 
G01 X-0.9341 Y0.8192 
G01 X-0.9402 Y0.8167 
G01 X-0.9467 Y0.8154 
G01 X-0.9533 Y0.8154 
G01 X-0.9598 Y0.8167 
G01 X-0.9659 Y0.8192 
G01 X-0.9714 Y0.8229 
G01 X-0.9761 Y0.8276 
G01 X-0.9798 Y0.8331 
G01 X-0.9823 Y0.8392 
G01 X-0.9836 Y0.8457 
G01 X-0.9836 Y0.9043 
G01 X-0.9823 Y0.9108 
G01 X-0.9798 Y0.9169 
G01 X-0.9761 Y0.9224 
G01 X-0.9714 Y0.9271 
G01 X-0.9659 Y0.9308 
G01 X-0.9651 Y0.9311 
G01 X-0.9651 Y0.9730 
G01 X-0.9651 Y0.9770 
G01 X-0.9641 Y0.9808 
G01 X-0.9621 Y0.9843 
G01 X-0.9276 Y1.0188 
G01 X-0.9276 Y1.1230 
G01 X-0.9276 Y1.1270 
G01 X-0.9266 Y1.1308 
G01 X-0.9246 Y1.1343 
G01 X-0.9218 Y1.1371 
G01 X-0.9183 Y1.1391 
G01 X-0.9145 Y1.1401 
G01 X-0.9026 Y1.1401 
G01 X-0.9026 Y1.2437 
G01 X-0.9438 Y1.2849 
G01 X-1.2730 Y1.2849 
G01 X-1.2770 Y1.2849 
G01 X-1.2808 Y1.2859 
G01 X-1.2843 Y1.2879 
G01 X-1.3688 Y1.3724 
G01 X-1.6070 Y1.3724 
G01 X-1.7527 Y1.2491 
G01 X-1.7407 Y1.2371 
G01 X-1.7379 Y1.2343 
G01 X-1.7359 Y1.2308 
G01 X-1.7349 Y1.2270 
G01 X-1.7349 Y1.0770 
G01 X-1.7349 Y1.0730 
G01 X-1.7359 Y1.0692 
G01 X-1.7379 Y1.0657 
G01 X-1.7629 Y1.0407 
G01 X-1.7657 Y1.0379 
G01 X-1.7692 Y1.0359 
G01 X-1.7730 Y1.0349 
G01 X-2.0594 Y1.0349 
G01 X-2.0594 Y0.9400 
G01 X-2.0522 Y0.9443 
G01 X-2.0526 Y0.9460 
G01 X-2.0526 Y0.9539 
G01 X-2.0511 Y0.9617 
G01 X-2.0480 Y0.9690 
G01 X-2.0436 Y0.9756 
G01 X-2.0381 Y0.9811 
G01 X-2.0315 Y0.9855 
G01 X-2.0242 Y0.9886 
G01 X-2.0164 Y0.9901 
G01 X-2.0085 Y0.9901 
G01 X-2.0008 Y0.9886 
G01 X-1.9935 Y0.9855 
G01 X-1.9869 Y0.9811 
G01 X-1.9814 Y0.9756 
G01 X-1.9770 Y0.9690 
G01 X-1.9739 Y0.9617 
G01 X-1.9724 Y0.9539 
G01 X-1.9724 Y0.9460 
G01 X-1.9739 Y0.9383 
G01 X-1.9770 Y0.9310 
G01 X-1.9814 Y0.9244 
G01 X-1.9869 Y0.9189 
G01 X-1.9935 Y0.9145 
G01 X-2.0008 Y0.9114 
G01 X-2.0085 Y0.9099 
G01 X-2.0164 Y0.9099 
G01 X-2.0242 Y0.9114 
G01 X-2.0315 Y0.9145 
G01 X-2.0362 Y0.9176 
G01 X-2.0653 Y0.9001 
G01 X-2.0654 Y0.9000 
G01 X-2.0671 Y0.8990 
G01 X-2.0687 Y0.8981 
G01 X-2.0689 Y0.8980 
G01 X-2.0690 Y0.8980 
G01 X-2.0708 Y0.8975 
G01 X-2.0727 Y0.8969 
G01 X-2.0728 Y0.8969 
G01 X-2.0729 Y0.8969 
G01 X-2.0749 Y0.8969 
G01 X-2.0768 Y0.8969 
G01 X-2.0769 Y0.8969 
G01 X-2.2185 Y0.8969 
G01 X-2.2563 Y0.8591 
G01 X-2.2554 Y0.8535 
G01 X-2.2554 Y0.8465 
G01 X-2.2565 Y0.8396 
G01 X-2.2587 Y0.8329 
G01 X-2.2619 Y0.8266 
G01 X-2.2660 Y0.8209 
G01 X-2.2709 Y0.8160 
G01 X-2.2766 Y0.8119 
G01 X-2.2829 Y0.8087 
G01 X-2.2896 Y0.8065 
G01 X-2.2965 Y0.8054 
G01 X-2.3035 Y0.8054 
G01 X-2.3104 Y0.8065 
G01 X-2.3171 Y0.8087 
G01 X-2.3234 Y0.8119 
G01 X-2.3290 Y0.8160 
G01 X-2.3340 Y0.8209 
G01 X-2.3381 Y0.8266 
G01 X-2.3413 Y0.8329 
G01 X-2.3435 Y0.8396 
G01 X-2.3446 Y0.8465 
G01 X-2.3446 Y0.8535 
G01 X-2.3435 Y0.8604 
G01 X-2.3413 Y0.8671 
G01 X-2.3381 Y0.8734 
G01 X-2.3340 Y0.8790 
G01 X-2.3290 Y0.8840 
G01 X-2.3234 Y0.8881 
G01 X-2.3171 Y0.8913 
G01 X-2.3104 Y0.8935 
G01 X-2.3035 Y0.8946 
G01 X-2.2965 Y0.8946 
G01 X-2.2896 Y0.8935 
G01 X-2.2829 Y0.8913 
G01 X-2.2766 Y0.8881 
G01 X-2.2736 Y0.8859 
G01 X-2.2375 Y0.9221 
G01 X-2.2346 Y0.9250 
G01 X-2.2310 Y0.9270 
G01 X-2.2271 Y0.9281 
G01 X-2.0906 Y0.9281 
G01 X-2.0906 Y1.0521 
G01 X-2.0895 Y1.0560 
G01 X-2.0875 Y1.0596 
G01 X-2.0846 Y1.0625 
G01 X-2.0810 Y1.0645 
G01 X-2.0771 Y1.0656 
G01 X-2.0729 Y1.0656 
G01 X-2.0711 Y1.0651 
G01 X-1.7813 Y1.0651 
G01 X-1.7651 Y1.0813 
G01 X-1.7651 Y1.2187 
G01 X-1.7847 Y1.2384 
G01 X-1.7852 Y1.2387 
G01 X-1.7861 Y1.2398 
G01 X-1.7871 Y1.2407 
G01 X-1.8128 Y1.2664 
G01 X-1.8543 Y1.2664 
G01 X-1.8608 Y1.2677 
G01 X-1.8669 Y1.2702 
G01 X-1.8724 Y1.2739 
G01 X-1.8757 Y1.2772 
G01 X-1.8844 Y1.2685 
G01 X-1.8844 Y1.2229 
G01 X-1.8855 Y1.2190 
G01 X-1.8875 Y1.2154 
G01 X-1.8904 Y1.2125 
G01 X-1.8904 Y1.2125 
G01 X-1.9154 Y1.1875 
G01 X-1.9190 Y1.1855 
G01 X-1.9229 Y1.1844 
G01 X-1.9271 Y1.1844 
G01 X-2.0935 Y1.1844 
G01 X-2.1719 Y1.1060 
G01 X-2.1719 Y1.0646 
G01 X-2.1719 Y1.0646 
G01 X-2.1719 Y1.0604 
G01 X-2.1730 Y1.0565 
G01 X-2.1750 Y1.0529 
G01 X-2.1779 Y1.0500 
G01 X-2.1815 Y1.0480 
G01 X-2.1854 Y1.0469 
G01 X-2.3560 Y1.0469 
G01 X-2.4029 Y1.0000 
G01 X-2.4065 Y0.9980 
G01 X-2.4104 Y0.9969 
G01 X-2.4146 Y0.9969 
G01 X-2.4310 Y0.9969 
G01 X-2.4594 Y0.9685 
G01 X-2.4594 Y0.8190 
G01 X-2.4185 Y0.7781 
G01 X-2.4104 Y0.7781 
G01 X-2.4065 Y0.7770 
G01 X-2.4029 Y0.7750 
G01 X-2.4000 Y0.7721 
G01 X-2.3810 Y0.7531 
G01 X-2.2229 Y0.7531 
G01 X-2.2190 Y0.7520 
G01 X-2.2154 Y0.7500 
G01 X-2.2125 Y0.7471 
G01 X-2.1750 Y0.7096 
G01 X-2.1730 Y0.7060 
G01 X-2.1719 Y0.7021 
G01 X-2.1719 Y0.6979 
G01 X-2.1719 Y0.6690 
G01 X-2.1250 Y0.6221 
G01 X-2.1230 Y0.6185 
G01 X-2.1219 Y0.6146 
G01 X-2.1219 Y0.6104 
G01 X-2.1219 Y0.2565 
G01 X-2.0305 Y0.1651 
G01 X-1.4313 Y0.1651 
G01 X-1.2904 Y0.3060 
G01 X-1.2913 Y0.3079 
G01 X-1.2935 Y0.3146 
G01 X-1.2946 Y0.3215 
G00 Z0.0200 
G00 X-1.8321 Y0.5840 
G01 Z-0.0050 F2.50  
G01 X-1.8321 Y0.5910 
G01 X-1.8310 Y0.5979 
G01 X-1.8288 Y0.6046 
G01 X-1.8256 Y0.6109 
G01 X-1.8215 Y0.6165 
G01 X-1.8165 Y0.6215 
G01 X-1.8109 Y0.6256 
G01 X-1.8046 Y0.6288 
G01 X-1.7984 Y0.6309 
G01 X-1.7913 Y0.6943 
G01 X-1.8690 Y0.7719 
G01 X-2.0810 Y0.7719 
G01 X-2.0844 Y0.7685 
G01 X-2.0844 Y0.7065 
G01 X-2.0394 Y0.6615 
G01 X-2.0337 Y0.6626 
G01 X-1.9663 Y0.6626 
G01 X-1.9590 Y0.6611 
G01 X-1.9522 Y0.6583 
G01 X-1.9460 Y0.6542 
G01 X-1.9408 Y0.6490 
G01 X-1.9367 Y0.6428 
G01 X-1.9339 Y0.6360 
G01 X-1.9324 Y0.6287 
G01 X-1.9324 Y0.6213 
G01 X-1.9339 Y0.6140 
G01 X-1.9367 Y0.6072 
G01 X-1.9408 Y0.6010 
G01 X-1.9460 Y0.5958 
G01 X-1.9522 Y0.5917 
G01 X-1.9590 Y0.5889 
G01 X-1.9663 Y0.5874 
G01 X-2.0337 Y0.5874 
G01 X-2.0410 Y0.5889 
G01 X-2.0478 Y0.5917 
G01 X-2.0540 Y0.5958 
G01 X-2.0592 Y0.6010 
G01 X-2.0633 Y0.6072 
G01 X-2.0661 Y0.6140 
G01 X-2.0676 Y0.6213 
G01 X-2.0676 Y0.6287 
G01 X-2.0661 Y0.6360 
G01 X-2.0638 Y0.6417 
G01 X-2.1096 Y0.6875 
G01 X-2.1125 Y0.6904 
G01 X-2.1145 Y0.6940 
G01 X-2.1156 Y0.6979 
G01 X-2.1156 Y0.7729 
G01 X-2.1156 Y0.7771 
G01 X-2.1145 Y0.7810 
G01 X-2.1125 Y0.7846 
G01 X-2.1000 Y0.7971 
G01 X-2.0971 Y0.8000 
G01 X-2.0935 Y0.8020 
G01 X-2.0896 Y0.8031 
G01 X-1.8646 Y0.8031 
G01 X-1.8604 Y0.8031 
G01 X-1.8565 Y0.8020 
G01 X-1.8529 Y0.8000 
G01 X-1.7648 Y0.7119 
G01 X-1.7641 Y0.7113 
G01 X-1.7634 Y0.7104 
G01 X-1.7625 Y0.7096 
G01 X-1.7621 Y0.7088 
G01 X-1.7615 Y0.7081 
G01 X-1.7611 Y0.7070 
G01 X-1.7605 Y0.7060 
G01 X-1.7602 Y0.7052 
G01 X-1.7599 Y0.7044 
G01 X-1.7597 Y0.7032 
G01 X-1.7594 Y0.7021 
G01 X-1.7594 Y0.7012 
G01 X-1.7593 Y0.7003 
G01 X-1.7594 Y0.6991 
G01 X-1.7594 Y0.6979 
G01 X-1.7596 Y0.6971 
G01 X-1.7674 Y0.6273 
G01 X-1.7641 Y0.6256 
G01 X-1.7584 Y0.6215 
G01 X-1.7535 Y0.6165 
G01 X-1.7494 Y0.6109 
G01 X-1.7462 Y0.6046 
G01 X-1.7440 Y0.5979 
G01 X-1.7429 Y0.5910 
G01 X-1.7429 Y0.5840 
G01 X-1.7440 Y0.5771 
G01 X-1.7462 Y0.5704 
G01 X-1.7494 Y0.5641 
G01 X-1.7535 Y0.5584 
G01 X-1.7584 Y0.5535 
G01 X-1.7641 Y0.5494 
G01 X-1.7704 Y0.5462 
G01 X-1.7771 Y0.5440 
G01 X-1.7840 Y0.5429 
G01 X-1.7910 Y0.5429 
G01 X-1.7979 Y0.5440 
G01 X-1.8046 Y0.5462 
G01 X-1.8109 Y0.5494 
G01 X-1.8165 Y0.5535 
G01 X-1.8215 Y0.5584 
G01 X-1.8256 Y0.5641 
G01 X-1.8288 Y0.5704 
G01 X-1.8310 Y0.5771 
G01 X-1.8321 Y0.5840 
G00 Z0.0200 
G00 X-1.7196 Y0.5215 
G01 Z-0.0050 F2.50  
G01 X-1.7196 Y0.5285 
G01 X-1.7185 Y0.5354 
G01 X-1.7163 Y0.5421 
G01 X-1.7131 Y0.5484 
G01 X-1.7090 Y0.5540 
G01 X-1.7040 Y0.5590 
G01 X-1.6984 Y0.5631 
G01 X-1.6921 Y0.5663 
G01 X-1.6854 Y0.5685 
G01 X-1.6785 Y0.5696 
G01 X-1.6715 Y0.5696 
G01 X-1.6646 Y0.5685 
G01 X-1.6579 Y0.5663 
G01 X-1.6516 Y0.5631 
G01 X-1.6459 Y0.5590 
G01 X-1.6410 Y0.5540 
G01 X-1.6369 Y0.5484 
G01 X-1.6337 Y0.5421 
G01 X-1.6315 Y0.5354 
G01 X-1.6304 Y0.5285 
G01 X-1.6304 Y0.5215 
G01 X-1.6315 Y0.5146 
G01 X-1.6337 Y0.5079 
G01 X-1.6369 Y0.5016 
G01 X-1.6410 Y0.4959 
G01 X-1.6459 Y0.4910 
G01 X-1.6516 Y0.4869 
G01 X-1.6579 Y0.4837 
G01 X-1.6646 Y0.4815 
G01 X-1.6715 Y0.4804 
G01 X-1.6785 Y0.4804 
G01 X-1.6854 Y0.4815 
G01 X-1.6921 Y0.4837 
G01 X-1.6935 Y0.4844 
G01 X-1.7125 Y0.4654 
G01 X-1.7125 Y0.4654 
G01 X-1.7154 Y0.4625 
G01 X-1.7190 Y0.4605 
G01 X-1.7229 Y0.4594 
G01 X-1.8245 Y0.4594 
G01 X-1.8261 Y0.4593 
G01 X-1.8266 Y0.4594 
G01 X-1.8271 Y0.4594 
G01 X-1.8286 Y0.4598 
G01 X-1.8301 Y0.4601 
G01 X-1.8306 Y0.4603 
G01 X-1.8310 Y0.4605 
G01 X-1.8324 Y0.4613 
G01 X-1.8787 Y0.4844 
G01 X-1.9354 Y0.4844 
G01 X-1.9396 Y0.4844 
G01 X-1.9435 Y0.4855 
G01 X-1.9471 Y0.4875 
G01 X-1.9500 Y0.4904 
G01 X-1.9520 Y0.4940 
G01 X-1.9531 Y0.4979 
G01 X-1.9531 Y0.4987 
G01 X-1.9560 Y0.4958 
G01 X-1.9622 Y0.4917 
G01 X-1.9690 Y0.4889 
G01 X-1.9763 Y0.4874 
G01 X-2.0437 Y0.4874 
G01 X-2.0510 Y0.4889 
G01 X-2.0578 Y0.4917 
G01 X-2.0640 Y0.4958 
G01 X-2.0692 Y0.5010 
G01 X-2.0733 Y0.5072 
G01 X-2.0761 Y0.5140 
G01 X-2.0776 Y0.5213 
G01 X-2.0776 Y0.5287 
G01 X-2.0761 Y0.5360 
G01 X-2.0733 Y0.5428 
G01 X-2.0692 Y0.5490 
G01 X-2.0640 Y0.5542 
G01 X-2.0578 Y0.5583 
G01 X-2.0510 Y0.5611 
G01 X-2.0437 Y0.5626 
G01 X-1.9763 Y0.5626 
G01 X-1.9690 Y0.5611 
G01 X-1.9622 Y0.5583 
G01 X-1.9560 Y0.5542 
G01 X-1.9508 Y0.5490 
G01 X-1.9467 Y0.5428 
G01 X-1.9458 Y0.5406 
G01 X-1.9354 Y0.5406 
G01 X-1.9315 Y0.5395 
G01 X-1.9279 Y0.5375 
G01 X-1.9250 Y0.5346 
G01 X-1.9230 Y0.5310 
G01 X-1.9219 Y0.5271 
G01 X-1.9219 Y0.5229 
G01 X-1.9219 Y0.5156 
G01 X-1.8755 Y0.5156 
G01 X-1.8739 Y0.5157 
G01 X-1.8734 Y0.5156 
G01 X-1.8729 Y0.5156 
G01 X-1.8714 Y0.5152 
G01 X-1.8699 Y0.5149 
G01 X-1.8694 Y0.5146 
G01 X-1.8690 Y0.5145 
G01 X-1.8676 Y0.5137 
G01 X-1.8213 Y0.4906 
G01 X-1.7315 Y0.4906 
G01 X-1.7156 Y0.5064 
G01 X-1.7163 Y0.5079 
G01 X-1.7185 Y0.5146 
G01 X-1.7196 Y0.5215 
G00 Z0.0200 
G00 X-1.7163 Y0.8421 
G01 Z-0.0050 F2.50  
G01 X-1.7131 Y0.8484 
G01 X-1.7090 Y0.8540 
G01 X-1.7040 Y0.8590 
G01 X-1.6984 Y0.8631 
G01 X-1.6921 Y0.8663 
G01 X-1.6854 Y0.8685 
G01 X-1.6785 Y0.8696 
G01 X-1.6715 Y0.8696 
G01 X-1.6646 Y0.8685 
G01 X-1.6579 Y0.8663 
G01 X-1.6516 Y0.8631 
G01 X-1.6459 Y0.8590 
G01 X-1.6410 Y0.8540 
G01 X-1.6369 Y0.8484 
G01 X-1.6337 Y0.8421 
G01 X-1.6315 Y0.8354 
G01 X-1.6304 Y0.8285 
G01 X-1.6304 Y0.8215 
G01 X-1.6315 Y0.8146 
G01 X-1.6337 Y0.8079 
G01 X-1.6369 Y0.8016 
G01 X-1.6410 Y0.7959 
G01 X-1.6459 Y0.7910 
G01 X-1.6516 Y0.7869 
G01 X-1.6579 Y0.7837 
G01 X-1.6646 Y0.7815 
G01 X-1.6715 Y0.7804 
G01 X-1.6785 Y0.7804 
G01 X-1.6854 Y0.7815 
G01 X-1.6921 Y0.7837 
G01 X-1.6984 Y0.7869 
G01 X-1.7040 Y0.7910 
G01 X-1.7090 Y0.7959 
G01 X-1.7131 Y0.8016 
G01 X-1.7134 Y0.8021 
G01 X-1.7154 Y0.8000 
G01 X-1.7190 Y0.7980 
G01 X-1.7229 Y0.7969 
G01 X-1.8110 Y0.7969 
G01 X-1.8115 Y0.7968 
G01 X-1.8130 Y0.7969 
G01 X-1.8146 Y0.7969 
G01 X-1.8150 Y0.7970 
G01 X-1.8156 Y0.7971 
G01 X-1.8170 Y0.7976 
G01 X-1.8185 Y0.7980 
G01 X-1.8190 Y0.7982 
G01 X-1.8194 Y0.7984 
G01 X-1.8207 Y0.7992 
G01 X-1.8221 Y0.8000 
G01 X-1.8224 Y0.8004 
G01 X-1.8582 Y0.8242 
G01 X-1.8596 Y0.8250 
G01 X-1.8599 Y0.8254 
G01 X-1.8604 Y0.8257 
G01 X-1.8614 Y0.8268 
G01 X-1.8625 Y0.8279 
G01 X-1.8627 Y0.8284 
G01 X-1.8631 Y0.8287 
G01 X-1.8638 Y0.8302 
G01 X-1.8645 Y0.8315 
G01 X-1.8647 Y0.8320 
G01 X-1.8649 Y0.8324 
G01 X-1.8652 Y0.8339 
G01 X-1.8656 Y0.8354 
G01 X-1.8656 Y0.8360 
G01 X-1.8657 Y0.8365 
G01 X-1.8656 Y0.8380 
G01 X-1.8656 Y0.9521 
G01 X-1.8645 Y0.9560 
G01 X-1.8625 Y0.9596 
G01 X-1.8596 Y0.9625 
G01 X-1.8560 Y0.9645 
G01 X-1.8521 Y0.9656 
G01 X-1.8479 Y0.9656 
G01 X-1.7690 Y0.9656 
G01 X-1.6906 Y1.0440 
G01 X-1.6906 Y1.2110 
G01 X-1.6907 Y1.2115 
G01 X-1.6906 Y1.2130 
G01 X-1.6906 Y1.2146 
G01 X-1.6905 Y1.2150 
G01 X-1.6904 Y1.2156 
G01 X-1.6899 Y1.2171 
G01 X-1.6895 Y1.2185 
G01 X-1.6893 Y1.2190 
G01 X-1.6891 Y1.2195 
G01 X-1.6882 Y1.2207 
G01 X-1.6875 Y1.2221 
G01 X-1.6871 Y1.2224 
G01 X-1.6868 Y1.2229 
G01 X-1.6856 Y1.2239 
G01 X-1.6846 Y1.2250 
G01 X-1.6841 Y1.2252 
G01 X-1.5856 Y1.3114 
G01 X-1.5846 Y1.3125 
G01 X-1.5841 Y1.3127 
G01 X-1.5837 Y1.3131 
G01 X-1.5823 Y1.3138 
G01 X-1.5814 Y1.3143 
G01 X-1.5808 Y1.3159 
G01 X-1.5771 Y1.3214 
G01 X-1.5724 Y1.3261 
G01 X-1.5669 Y1.3298 
G01 X-1.5608 Y1.3323 
G01 X-1.5543 Y1.3336 
G01 X-1.4957 Y1.3336 
G01 X-1.4892 Y1.3323 
G01 X-1.4831 Y1.3298 
G01 X-1.4776 Y1.3261 
G01 X-1.4729 Y1.3214 
G01 X-1.4692 Y1.3159 
G01 X-1.4691 Y1.3156 
G01 X-1.4604 Y1.3156 
G01 X-1.4565 Y1.3145 
G01 X-1.4529 Y1.3125 
G01 X-1.4500 Y1.3096 
G01 X-1.4000 Y1.2596 
G01 X-1.3980 Y1.2560 
G01 X-1.3969 Y1.2521 
G01 X-1.3969 Y1.2479 
G01 X-1.3969 Y1.0315 
G01 X-1.3310 Y0.9656 
G01 X-1.3229 Y0.9656 
G01 X-1.3190 Y0.9645 
G01 X-1.3154 Y0.9625 
G01 X-1.3125 Y0.9596 
G01 X-1.2875 Y0.9346 
G01 X-1.2855 Y0.9310 
G01 X-1.2844 Y0.9271 
G01 X-1.2844 Y0.9229 
G01 X-1.2844 Y0.7979 
G01 X-1.2855 Y0.7940 
G01 X-1.2875 Y0.7904 
G01 X-1.2904 Y0.7875 
G01 X-1.3154 Y0.7625 
G01 X-1.3190 Y0.7605 
G01 X-1.3229 Y0.7594 
G01 X-1.3271 Y0.7594 
G01 X-1.4271 Y0.7594 
G01 X-1.4310 Y0.7605 
G01 X-1.4346 Y0.7625 
G01 X-1.4375 Y0.7654 
G01 X-1.4625 Y0.7904 
G01 X-1.4645 Y0.7940 
G01 X-1.4656 Y0.7979 
G01 X-1.4656 Y0.8021 
G01 X-1.4656 Y0.8191 
G01 X-1.4659 Y0.8192 
G01 X-1.4714 Y0.8229 
G01 X-1.4761 Y0.8276 
G01 X-1.4798 Y0.8331 
G01 X-1.4823 Y0.8392 
G01 X-1.4836 Y0.8457 
G01 X-1.4836 Y0.9043 
G01 X-1.4823 Y0.9108 
G01 X-1.4798 Y0.9169 
G01 X-1.4761 Y0.9224 
G01 X-1.4714 Y0.9271 
G01 X-1.4659 Y0.9308 
G01 X-1.4598 Y0.9333 
G01 X-1.4533 Y0.9346 
G01 X-1.4467 Y0.9346 
G01 X-1.4402 Y0.9333 
G01 X-1.4341 Y0.9308 
G01 X-1.4286 Y0.9271 
G01 X-1.4239 Y0.9224 
G01 X-1.4202 Y0.9169 
G01 X-1.4177 Y0.9108 
G01 X-1.4164 Y0.9043 
G01 X-1.4164 Y0.8457 
G01 X-1.4177 Y0.8392 
G01 X-1.4202 Y0.8331 
G01 X-1.4239 Y0.8276 
G01 X-1.4286 Y0.8229 
G01 X-1.4341 Y0.8192 
G01 X-1.4344 Y0.8191 
G01 X-1.4344 Y0.8065 
G01 X-1.4185 Y0.7906 
G01 X-1.3315 Y0.7906 
G01 X-1.3156 Y0.8065 
G01 X-1.3156 Y0.9185 
G01 X-1.3315 Y0.9344 
G01 X-1.3354 Y0.9344 
G01 X-1.3396 Y0.9344 
G01 X-1.3435 Y0.9355 
G01 X-1.3471 Y0.9375 
G01 X-1.4221 Y1.0125 
G01 X-1.4250 Y1.0154 
G01 X-1.4270 Y1.0190 
G01 X-1.4281 Y1.0229 
G01 X-1.4281 Y1.2435 
G01 X-1.4690 Y1.2844 
G01 X-1.4691 Y1.2844 
G01 X-1.4692 Y1.2841 
G01 X-1.4729 Y1.2786 
G01 X-1.4776 Y1.2739 
G01 X-1.4831 Y1.2702 
G01 X-1.4892 Y1.2677 
G01 X-1.4957 Y1.2664 
G01 X-1.5543 Y1.2664 
G01 X-1.5608 Y1.2677 
G01 X-1.5669 Y1.2702 
G01 X-1.5724 Y1.2739 
G01 X-1.5765 Y1.2780 
G01 X-1.6594 Y1.2054 
G01 X-1.6594 Y1.0396 
G01 X-1.6594 Y1.0354 
G01 X-1.6605 Y1.0315 
G01 X-1.6625 Y1.0279 
G01 X-1.7500 Y0.9404 
G01 X-1.7529 Y0.9375 
G01 X-1.7565 Y0.9355 
G01 X-1.7604 Y0.9344 
G01 X-1.8344 Y0.9344 
G01 X-1.8344 Y0.8458 
G01 X-1.8078 Y0.8281 
G01 X-1.7315 Y0.8281 
G01 X-1.7221 Y0.8375 
G01 X-1.7185 Y0.8395 
G01 X-1.7170 Y0.8399 
G01 X-1.7163 Y0.8421 
G00 Z0.0200 
G00 X-1.9201 Y0.6589 
G01 Z-0.0050 F2.50  
G01 X-1.9201 Y0.6660 
G01 X-1.9190 Y0.6731 
G01 X-1.9179 Y0.6763 
G01 X-1.9290 Y0.6874 
G01 X-1.9317 Y0.6920 
G01 X-1.9331 Y0.6973 
G01 X-1.9331 Y0.7027 
G01 X-1.9331 Y0.7044 
G01 X-1.9427 Y0.7044 
G01 X-1.9436 Y0.7027 
G01 X-1.9475 Y0.6973 
G01 X-1.9523 Y0.6925 
G01 X-1.9577 Y0.6886 
G01 X-1.9636 Y0.6855 
G01 X-1.9700 Y0.6835 
G01 X-1.9766 Y0.6824 
G01 X-2.0434 Y0.6824 
G01 X-2.0500 Y0.6835 
G01 X-2.0564 Y0.6855 
G01 X-2.0565 Y0.6856 
G01 X-2.0378 Y0.6669 
G01 X-2.0334 Y0.6676 
G01 X-1.9666 Y0.6676 
G01 X-1.9600 Y0.6665 
G01 X-1.9536 Y0.6645 
G01 X-1.9477 Y0.6614 
G01 X-1.9423 Y0.6575 
G01 X-1.9375 Y0.6527 
G01 X-1.9336 Y0.6473 
G01 X-1.9305 Y0.6414 
G01 X-1.9285 Y0.6350 
G01 X-1.9274 Y0.6284 
G01 X-1.9274 Y0.6216 
G01 X-1.9285 Y0.6150 
G01 X-1.9305 Y0.6086 
G01 X-1.9336 Y0.6027 
G01 X-1.9375 Y0.5973 
G01 X-1.9423 Y0.5925 
G01 X-1.9477 Y0.5886 
G01 X-1.9536 Y0.5855 
G01 X-1.9600 Y0.5835 
G01 X-1.9666 Y0.5824 
G01 X-2.0334 Y0.5824 
G01 X-2.0400 Y0.5835 
G01 X-2.0464 Y0.5855 
G01 X-2.0523 Y0.5886 
G01 X-2.0577 Y0.5925 
G01 X-2.0625 Y0.5973 
G01 X-2.0664 Y0.6027 
G01 X-2.0695 Y0.6086 
G01 X-2.0715 Y0.6150 
G01 X-2.0726 Y0.6216 
G01 X-2.0726 Y0.6284 
G01 X-2.0715 Y0.6350 
G01 X-2.0697 Y0.6406 
G01 X-2.1126 Y0.6835 
G01 X-2.1165 Y0.6874 
G01 X-2.1169 Y0.6881 
G01 X-2.1169 Y0.6710 
G01 X-2.0874 Y0.6415 
G01 X-2.0835 Y0.6376 
G01 X-2.0808 Y0.6329 
G01 X-2.0794 Y0.6277 
G01 X-2.0794 Y0.5415 
G01 X-2.0764 Y0.5473 
G01 X-2.0725 Y0.5527 
G01 X-2.0677 Y0.5575 
G01 X-2.0623 Y0.5614 
G01 X-2.0564 Y0.5645 
G01 X-2.0500 Y0.5665 
G01 X-2.0434 Y0.5676 
G01 X-1.9766 Y0.5676 
G01 X-1.9700 Y0.5665 
G01 X-1.9636 Y0.5645 
G01 X-1.9577 Y0.5614 
G01 X-1.9523 Y0.5575 
G01 X-1.9475 Y0.5527 
G01 X-1.9436 Y0.5473 
G01 X-1.9427 Y0.5456 
G01 X-1.9348 Y0.5456 
G01 X-1.9295 Y0.5442 
G01 X-1.9249 Y0.5415 
G01 X-1.9210 Y0.5376 
G01 X-1.9183 Y0.5329 
G01 X-1.9169 Y0.5277 
G01 X-1.9169 Y0.5223 
G01 X-1.9169 Y0.5206 
G01 X-1.8919 Y0.5206 
G01 X-1.8923 Y0.5207 
G01 X-1.8986 Y0.5239 
G01 X-1.9044 Y0.5281 
G01 X-1.9094 Y0.5331 
G01 X-1.9136 Y0.5389 
G01 X-1.9168 Y0.5452 
G01 X-1.9190 Y0.5519 
G01 X-1.9201 Y0.5589 
G01 X-1.9201 Y0.5660 
G01 X-1.9190 Y0.5731 
G01 X-1.9168 Y0.5798 
G01 X-1.9136 Y0.5861 
G01 X-1.9094 Y0.5919 
G01 X-1.9044 Y0.5969 
G01 X-1.8986 Y0.6011 
G01 X-1.8923 Y0.6043 
G01 X-1.8856 Y0.6065 
G01 X-1.8785 Y0.6076 
G01 X-1.8714 Y0.6076 
G01 X-1.8644 Y0.6065 
G01 X-1.8577 Y0.6043 
G01 X-1.8514 Y0.6011 
G01 X-1.8456 Y0.5969 
G01 X-1.8406 Y0.5919 
G01 X-1.8371 Y0.5870 
G01 X-1.8371 Y0.5914 
G01 X-1.8359 Y0.5991 
G01 X-1.8335 Y0.6065 
G01 X-1.8299 Y0.6135 
G01 X-1.8253 Y0.6198 
G01 X-1.8198 Y0.6253 
G01 X-1.8135 Y0.6299 
G01 X-1.8065 Y0.6335 
G01 X-1.8030 Y0.6346 
G01 X-1.7966 Y0.6924 
G01 X-1.8710 Y0.7669 
G01 X-1.9723 Y0.7669 
G01 X-1.9700 Y0.7665 
G01 X-1.9636 Y0.7645 
G01 X-1.9577 Y0.7614 
G01 X-1.9523 Y0.7575 
G01 X-1.9475 Y0.7527 
G01 X-1.9436 Y0.7473 
G01 X-1.9427 Y0.7456 
G01 X-1.9152 Y0.7456 
G01 X-1.9098 Y0.7456 
G01 X-1.9045 Y0.7442 
G01 X-1.8999 Y0.7415 
G01 X-1.8960 Y0.7376 
G01 X-1.8933 Y0.7329 
G01 X-1.8919 Y0.7277 
G01 X-1.8919 Y0.7085 
G01 X-1.8888 Y0.7054 
G01 X-1.8856 Y0.7065 
G01 X-1.8785 Y0.7076 
G01 X-1.8714 Y0.7076 
G01 X-1.8644 Y0.7065 
G01 X-1.8577 Y0.7043 
G01 X-1.8514 Y0.7011 
G01 X-1.8456 Y0.6969 
G01 X-1.8406 Y0.6919 
G01 X-1.8364 Y0.6861 
G01 X-1.8332 Y0.6798 
G01 X-1.8310 Y0.6731 
G01 X-1.8299 Y0.6660 
G01 X-1.8299 Y0.6589 
G01 X-1.8310 Y0.6519 
G01 X-1.8332 Y0.6452 
G01 X-1.8364 Y0.6389 
G01 X-1.8406 Y0.6331 
G01 X-1.8456 Y0.6281 
G01 X-1.8514 Y0.6239 
G01 X-1.8577 Y0.6207 
G01 X-1.8644 Y0.6185 
G01 X-1.8714 Y0.6174 
G01 X-1.8785 Y0.6174 
G01 X-1.8856 Y0.6185 
G01 X-1.8923 Y0.6207 
G01 X-1.8986 Y0.6239 
G01 X-1.9044 Y0.6281 
G01 X-1.9094 Y0.6331 
G01 X-1.9136 Y0.6389 
G01 X-1.9168 Y0.6452 
G01 X-1.9190 Y0.6519 
G01 X-1.9201 Y0.6589 
G00 Z0.0200 
G00 X-2.1326 Y0.9765 
G01 Z-0.0050 F2.50  
G01 X-2.1335 Y0.9749 
G01 X-2.1374 Y0.9710 
G01 X-2.1390 Y0.9701 
G01 X-2.1326 Y0.9701 
G01 X-2.1326 Y0.9765 
G00 Z0.0200 
G00 X-2.4496 Y0.9461 
G01 Z-0.0050 F2.50  
G01 X-2.4496 Y0.9539 
G01 X-2.4484 Y0.9616 
G01 X-2.4460 Y0.9690 
G01 X-2.4424 Y0.9760 
G01 X-2.4378 Y0.9823 
G01 X-2.4323 Y0.9878 
G01 X-2.4267 Y0.9919 
G01 X-2.4290 Y0.9919 
G01 X-2.4544 Y0.9665 
G01 X-2.4544 Y0.8210 
G01 X-2.4165 Y0.7831 
G01 X-2.4098 Y0.7831 
G01 X-2.4045 Y0.7817 
G01 X-2.3999 Y0.7790 
G01 X-2.3960 Y0.7751 
G01 X-2.3790 Y0.7581 
G01 X-2.3619 Y0.7581 
G01 X-2.3626 Y0.7585 
G01 X-2.3665 Y0.7624 
G01 X-2.4046 Y0.8005 
G01 X-2.4116 Y0.8016 
G01 X-2.4190 Y0.8040 
G01 X-2.4260 Y0.8076 
G01 X-2.4323 Y0.8122 
G01 X-2.4378 Y0.8177 
G01 X-2.4424 Y0.8240 
G01 X-2.4460 Y0.8310 
G01 X-2.4484 Y0.8384 
G01 X-2.4496 Y0.8461 
G01 X-2.4496 Y0.8539 
G01 X-2.4484 Y0.8616 
G01 X-2.4460 Y0.8690 
G01 X-2.4424 Y0.8760 
G01 X-2.4378 Y0.8823 
G01 X-2.4323 Y0.8878 
G01 X-2.4260 Y0.8924 
G01 X-2.4190 Y0.8960 
G01 X-2.4116 Y0.8984 
G01 X-2.4039 Y0.8996 
G01 X-2.3961 Y0.8996 
G01 X-2.3884 Y0.8984 
G01 X-2.3810 Y0.8960 
G01 X-2.3740 Y0.8924 
G01 X-2.3677 Y0.8878 
G01 X-2.3622 Y0.8823 
G01 X-2.3576 Y0.8760 
G01 X-2.3540 Y0.8690 
G01 X-2.3516 Y0.8616 
G01 X-2.3504 Y0.8539 
G01 X-2.3504 Y0.8461 
G01 X-2.3516 Y0.8384 
G01 X-2.3540 Y0.8310 
G01 X-2.3576 Y0.8240 
G01 X-2.3622 Y0.8177 
G01 X-2.3629 Y0.8170 
G01 X-2.3415 Y0.7956 
G01 X-2.2710 Y0.7956 
G01 X-2.2331 Y0.8335 
G01 X-2.2331 Y0.8598 
G01 X-2.2331 Y0.8652 
G01 X-2.2317 Y0.8704 
G01 X-2.2290 Y0.8751 
G01 X-2.2251 Y0.8790 
G01 X-2.2204 Y0.8817 
G01 X-2.2152 Y0.8831 
G01 X-2.1348 Y0.8831 
G01 X-2.0902 Y0.8831 
G01 X-2.0848 Y0.8831 
G01 X-2.0795 Y0.8817 
G01 X-2.0749 Y0.8790 
G01 X-2.0665 Y0.8706 
G01 X-2.0526 Y0.8706 
G01 X-2.0511 Y0.8736 
G01 X-2.0469 Y0.8794 
G01 X-2.0419 Y0.8844 
G01 X-2.0361 Y0.8886 
G01 X-2.0298 Y0.8918 
G01 X-2.0231 Y0.8940 
G01 X-2.0160 Y0.8951 
G01 X-2.0089 Y0.8951 
G01 X-2.0019 Y0.8940 
G01 X-1.9952 Y0.8918 
G01 X-1.9889 Y0.8886 
G01 X-1.9831 Y0.8844 
G01 X-1.9781 Y0.8794 
G01 X-1.9739 Y0.8736 
G01 X-1.9724 Y0.8706 
G01 X-1.9210 Y0.8706 
G01 X-1.9081 Y0.8835 
G01 X-1.9081 Y1.0027 
G01 X-1.9067 Y1.0079 
G01 X-1.9040 Y1.0126 
G01 X-1.9001 Y1.0165 
G01 X-1.8954 Y1.0192 
G01 X-1.8902 Y1.0206 
G01 X-1.8848 Y1.0206 
G01 X-1.8838 Y1.0203 
G01 X-1.8810 Y1.0246 
G01 X-1.8757 Y1.0299 
G01 X-2.0544 Y1.0299 
G01 X-2.0544 Y0.9669 
G01 X-2.0543 Y0.9673 
G01 X-2.0511 Y0.9736 
G01 X-2.0469 Y0.9794 
G01 X-2.0419 Y0.9844 
G01 X-2.0361 Y0.9886 
G01 X-2.0298 Y0.9918 
G01 X-2.0231 Y0.9940 
G01 X-2.0160 Y0.9951 
G01 X-2.0089 Y0.9951 
G01 X-2.0019 Y0.9940 
G01 X-1.9952 Y0.9918 
G01 X-1.9889 Y0.9886 
G01 X-1.9831 Y0.9844 
G01 X-1.9781 Y0.9794 
G01 X-1.9739 Y0.9736 
G01 X-1.9707 Y0.9673 
G01 X-1.9685 Y0.9606 
G01 X-1.9674 Y0.9535 
G01 X-1.9674 Y0.9464 
G01 X-1.9685 Y0.9394 
G01 X-1.9707 Y0.9327 
G01 X-1.9739 Y0.9264 
G01 X-1.9781 Y0.9206 
G01 X-1.9831 Y0.9156 
G01 X-1.9889 Y0.9114 
G01 X-1.9952 Y0.9082 
G01 X-2.0019 Y0.9060 
G01 X-2.0089 Y0.9049 
G01 X-2.0160 Y0.9049 
G01 X-2.0231 Y0.9060 
G01 X-2.0298 Y0.9082 
G01 X-2.0361 Y0.9114 
G01 X-2.0364 Y0.9116 
G01 X-2.0622 Y0.8961 
G01 X-2.0624 Y0.8960 
G01 X-2.0646 Y0.8947 
G01 X-2.0667 Y0.8934 
G01 X-2.0669 Y0.8934 
G01 X-2.0670 Y0.8933 
G01 X-2.0696 Y0.8926 
G01 X-2.0719 Y0.8920 
G01 X-2.0721 Y0.8920 
G01 X-2.0723 Y0.8919 
G01 X-2.0748 Y0.8919 
G01 X-2.0774 Y0.8919 
G01 X-2.0775 Y0.8919 
G01 X-2.2165 Y0.8919 
G01 X-2.2510 Y0.8574 
G01 X-2.2504 Y0.8539 
G01 X-2.2504 Y0.8461 
G01 X-2.2516 Y0.8384 
G01 X-2.2540 Y0.8310 
G01 X-2.2576 Y0.8240 
G01 X-2.2622 Y0.8177 
G01 X-2.2677 Y0.8122 
G01 X-2.2740 Y0.8076 
G01 X-2.2810 Y0.8040 
G01 X-2.2884 Y0.8016 
G01 X-2.2961 Y0.8004 
G01 X-2.3039 Y0.8004 
G01 X-2.3116 Y0.8016 
G01 X-2.3190 Y0.8040 
G01 X-2.3260 Y0.8076 
G01 X-2.3323 Y0.8122 
G01 X-2.3378 Y0.8177 
G01 X-2.3424 Y0.8240 
G01 X-2.3460 Y0.8310 
G01 X-2.3484 Y0.8384 
G01 X-2.3496 Y0.8461 
G01 X-2.3496 Y0.8539 
G01 X-2.3484 Y0.8616 
G01 X-2.3460 Y0.8690 
G01 X-2.3424 Y0.8760 
G01 X-2.3378 Y0.8823 
G01 X-2.3323 Y0.8878 
G01 X-2.3260 Y0.8924 
G01 X-2.3190 Y0.8960 
G01 X-2.3116 Y0.8984 
G01 X-2.3039 Y0.8996 
G01 X-2.2961 Y0.8996 
G01 X-2.2884 Y0.8984 
G01 X-2.2810 Y0.8960 
G01 X-2.2741 Y0.8925 
G01 X-2.2415 Y0.9251 
G01 X-2.2376 Y0.9290 
G01 X-2.2360 Y0.9299 
G01 X-2.2546 Y0.9299 
G01 X-2.2576 Y0.9240 
G01 X-2.2622 Y0.9177 
G01 X-2.2677 Y0.9122 
G01 X-2.2740 Y0.9076 
G01 X-2.2810 Y0.9040 
G01 X-2.2884 Y0.9016 
G01 X-2.2961 Y0.9004 
G01 X-2.3039 Y0.9004 
G01 X-2.3116 Y0.9016 
G01 X-2.3190 Y0.9040 
G01 X-2.3260 Y0.9076 
G01 X-2.3323 Y0.9122 
G01 X-2.3378 Y0.9177 
G01 X-2.3424 Y0.9240 
G01 X-2.3460 Y0.9310 
G01 X-2.3484 Y0.9384 
G01 X-2.3496 Y0.9461 
G01 X-2.3496 Y0.9539 
G01 X-2.3484 Y0.9616 
G01 X-2.3460 Y0.9690 
G01 X-2.3424 Y0.9760 
G01 X-2.3378 Y0.9823 
G01 X-2.3323 Y0.9878 
G01 X-2.3260 Y0.9924 
G01 X-2.3190 Y0.9960 
G01 X-2.3116 Y0.9984 
G01 X-2.3039 Y0.9996 
G01 X-2.2961 Y0.9996 
G01 X-2.2884 Y0.9984 
G01 X-2.2810 Y0.9960 
G01 X-2.2740 Y0.9924 
G01 X-2.2677 Y0.9878 
G01 X-2.2622 Y0.9823 
G01 X-2.2576 Y0.9760 
G01 X-2.2546 Y0.9701 
G01 X-2.2360 Y0.9701 
G01 X-2.2376 Y0.9710 
G01 X-2.2415 Y0.9749 
G01 X-2.2415 Y0.9749 
G01 X-2.2710 Y1.0044 
G01 X-2.3415 Y1.0044 
G01 X-2.3629 Y0.9830 
G01 X-2.3622 Y0.9823 
G01 X-2.3576 Y0.9760 
G01 X-2.3540 Y0.9690 
G01 X-2.3516 Y0.9616 
G01 X-2.3504 Y0.9539 
G01 X-2.3504 Y0.9461 
G01 X-2.3516 Y0.9384 
G01 X-2.3540 Y0.9310 
G01 X-2.3576 Y0.9240 
G01 X-2.3622 Y0.9177 
G01 X-2.3677 Y0.9122 
G01 X-2.3740 Y0.9076 
G01 X-2.3810 Y0.9040 
G01 X-2.3884 Y0.9016 
G01 X-2.3961 Y0.9004 
G01 X-2.4039 Y0.9004 
G01 X-2.4116 Y0.9016 
G01 X-2.4190 Y0.9040 
G01 X-2.4260 Y0.9076 
G01 X-2.4323 Y0.9122 
G01 X-2.4378 Y0.9177 
G01 X-2.4424 Y0.9240 
G01 X-2.4460 Y0.9310 
G01 X-2.4484 Y0.9384 
G01 X-2.4496 Y0.9461 
G00 Z0.0200 
G00 X-2.0956 Y0.9331 
G01 Z-0.0050 F2.50  
G01 X-2.0956 Y0.9391 
G01 X-2.0964 Y0.9377 
G01 X-2.1002 Y0.9339 
G01 X-2.1016 Y0.9331 
G01 X-2.0956 Y0.9331 
G00 Z0.0200 
G00 X-2.0915 Y1.0626 
G01 Z-0.0050 F2.50  
G01 X-2.0876 Y1.0665 
G01 X-2.0829 Y1.0692 
G01 X-2.0777 Y1.0706 
G01 X-2.0723 Y1.0706 
G01 X-2.0704 Y1.0701 
G01 X-1.8757 Y1.0701 
G01 X-1.8810 Y1.0754 
G01 X-1.8840 Y1.0799 
G01 X-2.0917 Y1.0799 
G01 X-2.0924 Y1.0792 
G01 X-2.0924 Y1.0610 
G01 X-2.0915 Y1.0626 
G00 Z0.0200 
G00 X-1.8810 Y1.1246 
G01 Z-0.0050 F2.50  
G01 X-1.8762 Y1.1294 
G01 X-1.8777 Y1.1294 
G01 X-2.0915 Y1.1294 
G01 X-2.1008 Y1.1201 
G01 X-2.0974 Y1.1201 
G01 X-1.8840 Y1.1201 
G01 X-1.8810 Y1.1246 
G00 Z0.0200 
G00 X-1.8548 Y1.1386 
G01 Z-0.0050 F2.50  
G01 X-1.7952 Y1.1386 
G01 X-1.7877 Y1.1371 
G01 X-1.7807 Y1.1342 
G01 X-1.7744 Y1.1300 
G01 X-1.7701 Y1.1257 
G01 X-1.7701 Y1.1743 
G01 X-1.7744 Y1.1700 
G01 X-1.7807 Y1.1658 
G01 X-1.7877 Y1.1629 
G01 X-1.7952 Y1.1614 
G01 X-1.8345 Y1.1614 
G01 X-1.8579 Y1.1380 
G01 X-1.8548 Y1.1386 
G00 Z0.0200 
G00 X-1.8810 Y1.1754 
G01 Z-0.0050 F2.50  
G01 X-1.8852 Y1.1817 
G01 X-1.8881 Y1.1887 
G01 X-1.8896 Y1.1962 
G01 X-1.8896 Y1.2038 
G01 X-1.8890 Y1.2069 
G01 X-1.9124 Y1.1835 
G01 X-1.9170 Y1.1808 
G01 X-1.9223 Y1.1794 
G01 X-1.9277 Y1.1794 
G01 X-2.0915 Y1.1794 
G01 X-2.1003 Y1.1706 
G01 X-1.8835 Y1.1706 
G01 X-1.8798 Y1.1743 
G01 X-1.8810 Y1.1754 
G00 Z0.0200 
G00 X-2.1710 Y1.0499 
G01 Z-0.0050 F2.50  
G01 X-2.1749 Y1.0460 
G01 X-2.1795 Y1.0433 
G01 X-2.1848 Y1.0419 
G01 X-2.2506 Y1.0419 
G01 X-2.2499 Y1.0415 
G01 X-2.2460 Y1.0376 
G01 X-2.2460 Y1.0376 
G01 X-2.2165 Y1.0081 
G01 X-2.1706 Y1.0081 
G01 X-2.1706 Y1.0506 
G01 X-2.1710 Y1.0499 
G00 Z0.0200 
G00 X-1.8756 Y1.2300 
G01 Z-0.0050 F2.50  
G01 X-1.8693 Y1.2342 
G01 X-1.8623 Y1.2371 
G01 X-1.8548 Y1.2386 
G01 X-1.7952 Y1.2386 
G01 X-1.7912 Y1.2378 
G01 X-1.8148 Y1.2614 
G01 X-1.8548 Y1.2614 
G01 X-1.8623 Y1.2629 
G01 X-1.8693 Y1.2658 
G01 X-1.8756 Y1.2700 
G01 X-1.8757 Y1.2701 
G01 X-1.8794 Y1.2665 
G01 X-1.8794 Y1.2262 
G01 X-1.8756 Y1.2300 
G00 Z0.0200 
G00 X-1.1114 Y0.8452 
G01 Z-0.0050 F2.50  
G01 X-1.1129 Y0.8377 
G01 X-1.1158 Y0.8307 
G01 X-1.1200 Y0.8244 
G01 X-1.1243 Y0.8201 
G01 X-1.1026 Y0.8201 
G01 X-1.0974 Y0.8201 
G01 X-1.0757 Y0.8201 
G01 X-1.0800 Y0.8244 
G01 X-1.0842 Y0.8307 
G01 X-1.0871 Y0.8377 
G01 X-1.0886 Y0.8452 
G01 X-1.0886 Y0.9048 
G01 X-1.0878 Y0.9088 
G01 X-1.1114 Y0.8852 
G01 X-1.1114 Y0.8452 
G00 Z0.0200 
G00 X-1.0417 Y0.9549 
G01 Z-0.0050 F2.50  
G01 X-1.0578 Y0.9388 
G01 X-1.0538 Y0.9396 
G01 X-1.0462 Y0.9396 
G01 X-1.0387 Y0.9381 
G01 X-1.0317 Y0.9352 
G01 X-1.0254 Y0.9310 
G01 X-1.0200 Y0.9256 
G01 X-1.0158 Y0.9193 
G01 X-1.0129 Y0.9123 
G01 X-1.0114 Y0.9048 
G01 X-1.0114 Y0.8452 
G01 X-1.0129 Y0.8377 
G01 X-1.0158 Y0.8307 
G01 X-1.0200 Y0.8244 
G01 X-1.0243 Y0.8201 
G01 X-0.9757 Y0.8201 
G01 X-0.9800 Y0.8244 
G01 X-0.9842 Y0.8307 
G01 X-0.9871 Y0.8377 
G01 X-0.9886 Y0.8452 
